%
(large_pulley)

(POSTPROCESSOR: top_plate)
(GENERATED BY SprutCAM)
(DATE: 3/18/2025)
(TIME: 2:25:22 AM)

(T# 4) (Dia 6.35) (6.35mm Cylindrical mill) (Finishing waterline 1)
(T# 4) (Dia 6.35) (6.35mm Cylindrical mill) (Finishing waterline 2)

N10 G90 G64 G50 G54 G80 G17 G40 G49
N20 G21 (Metric)
(Finishing waterline 1)
N30 G30
N40 T4 G43 H4 M6
(6.35mm Cylindrical mill)
N50 S5113 M3
N60 G0 G94 X-18.86 Y-4.94
N70 Z52.15
N80 Z41.
N90 G1 Z34.65 F613.56
N100 G3 X-18.048 Y-2.139 Z34.65 I-2.975 J2.381
N110 G2 X-18.048 Y-2.139 Z34.65 I18.048 J2.139
N120 G3 X-19.454 Y0.416 Z34.65 I-3.787 J-0.42
N130 G0 Z52.15

(Finishing waterline 2)
N140 X-0.79 Y0.232
N150 Z44.15
N160 G1 X-0.791 F204.52
N170 Z39.15
N180 G3 X-0.791 Y0.232 Z39.15 I0.791 J-0.232
N190 G0 Z44.15
N200 G30 Z44.15 M5
N210 M30
%
