%
(bottom plate)

(POSTPROCESSOR: top_plate)
(GENERATED BY SprutCAM)
(DATE: 4/8/2025)
(TIME: 11:57:20 PM)

(T# 1) (Dia 6.) (6mm Spot drill) (Hole machining 1)
(T# 2) (Dia 3.5) (#28 drill) (Hole machining 3)
(T# 3) (Dia 9.5) (.375 Drill) (Hole machining 4)
(T# 4) (Dia 6.35) (6.35mm Cylindrical mill) (rough large thru)

N10 G90 G64 G50 G54 G80 G17 G40 G49
N20 G21 (Metric)
(Hole machining 1)
N30 G30
N40 T1 G43 H1 M6
(6mm Spot drill)
N50 S5000 M3
N60 G0 G94 X100. Y0.
N70 Z10.
N80 G81 G98 Z-1. R0.6 F2000.
N90 X68.354 Y-22.674
N100 X57.74 Y8.187
N110 X66.104 Y24.118
N120 X38.977 Y19.016
N130 X-38.977 Y-19.016
N140 X-66.104 Y-24.118
N150 X-57.74 Y-8.187
N160 X-68.354 Y22.674
N170 X-100. Y0.
N180 G80
N190 G30 Z10. M5

(Hole machining 3)
N200 T2 G43 H2 M6
(#28 drill)
N210 S4000 M3 M8
N220 G0 X-68.354 Y22.674
N230 Z10.
N240 G83 G98 Z-7.4015 R-0.2315 Q2.45 F600.
N250 X-57.74 Y-8.187 R-0.2415
N260 X-66.104 Y-24.118
N270 X68.354 Y-22.674 R-0.2315
N280 X57.74 Y8.187 R-0.2415
N290 X66.104 Y24.118
N300 G80
N310 G30 Z10. M5 M9

(Hole machining 4)
N320 T3 G43 H3 M6
(.375 Drill)
N330 S3060 M3 M8
N340 G0 X-100. Y0.
N350 Z10.
N360 G83 G98 Z-9.35 R0.95 Q6.555 F459.
N370 X-38.977 Y-19.016 R0.3659
N380 X38.977 Y19.016
N390 X100. Y0.
N400 G80
N410 G30 Z10. M5 M9

(rough large thru)
N420 T4 G43 H4 M6
(6.35mm Cylindrical mill)
N430 S4000 M3 M8
N440 G0 X136.062 Y35.578
N450 Z15.
N460 Z-6.35
N470 G1 Z-12.7 F800.
N480 X136.72 Y34.896
N490 G2 X139.89 Y31.222 Z-12.7 I-35.844 J-34.128
N500 G3 X140.734 Y32.149 Z-12.7 I0.498 J0.395
N510 G1 X137.157 Y34.478
N520 G3 X136.539 Y34.794 Z-12.7 I-1.807 J-2.778
N530 G1 X133.692 Y36.059
N540 G3 X133. Y35.015 Z-12.7 I-0.258 J-0.58
N550 G1 X133.127 Y34.896
N560 G2 X139.891 Y26.904 Z-12.7 I-32.782 J-34.599
N570 G3 X140.853 Y27.721 Z-12.7 I0.525 J0.357
N580 G1 X134.084 Y34.152
N590 G3 X132.974 Y34.819 Z-12.7 I-2.228 J-2.452
N600 G1 X129.823 Y36.089
N610 G3 X129.175 Y35.016 Z-12.7 I-0.237 J-0.589
N620 G1 X129.316 Y34.896
N630 G2 X139.891 Y22.041 Z-12.7 I-29.193 J-34.793
N640 G3 X140.58 Y21.414 Z-12.7 I1.252 J0.683
N650 X141.328 Y22.393 Z-12.6 I0.251 J0.583
N660 G1 X135.561 Y29.627 F2400.
N670 G3 X130.602 Y34.72 Z-12.6 I-35.092 J-29.212
N680 X129.371 Y35.391 Z-12.6 I-2.444 J-3.02
N690 G1 X124.792 Y36.709
N700 G3 X124.242 Y35.586 Z-12.7 I-0.175 J-0.61 F800.
N710 G1 X125.187 Y34.896
N720 G2 X139.892 Y16.147 Z-12.7 I-25.14 J-34.859
N730 G3 X140.582 Y15.396 Z-12.7 I1.326 J0.526
N740 X141.403 Y16.301 Z-12.6 I0.283 J0.568
N750 G1 X136.617 Y23.941 F2400.
N760 G3 X126.389 Y34.884 Z-12.6 I-36.279 J-23.658
N770 X124.948 Y35.504 Z-12.6 I-2.225 J-3.184
N780 G1 X119.847 Y36.752
N790 G3 X119.373 Y35.588 Z-12.7 I-0.151 J-0.617 F800.
N800 G1 X120.546 Y34.896
N810 G2 X139.893 Y6.964 Z-12.7 I-20.522 J-34.88
N820 G3 X140.585 Y5.985 Z-12.7 I1.403 J0.257
N830 G2 X140.904 Y5.431 Z-12.6 I-0.316 J-0.551
N840 G1 X140.723 Y-29.946 F2400.
N850 G2 X140.587 Y-30.335 Z-12.7 I-0.635 J0.003 F800.
N860 G1 X139.896 Y-31.214
N870 G2 X136.723 Y-34.892 Z-12.7 I-40.116 J31.404
N880 G3 X137.757 Y-35.601 Z-12.7 I0.461 J-0.436
N890 G1 X139.769 Y-31.369
N900 X139.865 Y-31.102
N910 X141.141 Y-27.283
N920 G3 X140.015 Y-26.723 Z-12.7 I-0.603 J0.201
N930 G1 X139.896 Y-26.896
N940 G2 X133.131 Y-34.892 Z-12.7 I-39.826 J26.834
N950 G1 X132.442 Y-35.54
N960 G3 X133.372 Y-36.4 Z-12.6 I0.436 J-0.462
N970 G1 X138.343 Y-30.226 F2400.
N980 G3 X140.109 Y-27.796 Z-12.6 I-20.129 J16.489
N990 X140.512 Y-26.677 Z-12.6 I-3.41 J1.86
N1000 G1 X141.456 Y-22.119
N1010 G3 X140.585 Y-21.406 Z-12.7 I-0.622 J0.129 F800.
N1020 X139.895 Y-22.03 Z-12.7 I0.56 J-1.312
N1030 G2 X129.317 Y-34.892 Z-12.7 I-39.728 J21.894
N1040 G1 X128.514 Y-35.568
N1050 G3 X129.393 Y-36.48 Z-12.6 I0.409 J-0.486
N1060 G1 X134.965 Y-30.326 F2400.
N1070 G3 X140.236 Y-22.835 Z-12.6 I-32.643 J28.568
N1080 X140.53 Y-21.864 Z-12.6 I-3.537 J1.603
N1090 G1 X141.493 Y-16.06
N1100 G3 X140.584 Y-15.388 Z-12.7 I-0.626 J0.103 F800.
N1110 X139.895 Y-16.134 Z-12.7 I0.635 J-1.277
N1120 G2 X125.187 Y-34.892 Z-12.7 I-39.823 J16.079
N1130 G1 X124.232 Y-35.583
N1140 G3 X125.042 Y-36.558 Z-12.6 I0.373 J-0.515
N1150 G1 X130.29 Y-31.564 F2400.
N1160 G3 X140.349 Y-16.888 Z-12.6 I-30.067 J31.392
N1170 X140.541 Y-16.135 Z-12.6 I-3.65 J1.334
N1180 G1 X141.535 Y-6.58
N1190 G3 X140.586 Y-5.965 Z-12.7 I-0.631 J0.065 F800.
N1200 X139.894 Y-6.96 Z-12.7 I0.714 J-1.235
N1210 G2 X120.549 Y-34.892 Z-12.7 I-39.877 J6.953
N1220 G1 X119.364 Y-35.584
N1230 G3 X120.077 Y-36.631 Z-12.6 I0.32 J-0.548
N1240 G1 X125.683 Y-32.219 F2400.
N1250 G3 X140.547 Y-7.316 Z-12.6 I-25.631 J32.185
N1260 X140.579 Y-6.785 Z-12.6 I-2.881 J0.442
N1270 G1 X140.578 Y6.967
N1280 G3 X140.416 Y8.021 Z-12.6 I-5.841 J-0.357
N1290 X121.626 Y35.068 Z-12.6 I-40.358 J-7.986
N1300 X120.365 Y35.525 Z-12.6 I-1.932 J-3.368
N1310 G1 X114.897 Y36.487
N1320 G3 X114.214 Y35.588 Z-12.7 I-0.11 J-0.625 F800.
N1330 X114.932 Y34.896 Z-12.7 I1.287 J0.616
N1340 G2 X114.932 Y-34.892 Z-12.7 I-14.927 J-34.894
N1350 G3 X114.211 Y-35.583 Z-12.7 I0.564 J-1.31
N1360 X115.136 Y-36.387 Z-12.6 I0.572 J-0.276
N1370 G1 X121.365 Y-32.227 F2400.
N1380 G3 X115.722 Y35.322 Z-12.6 I-21.353 J32.226
N1390 X114.928 Y35.537 Z-12.6 I-1.409 J-3.622
N1400 G1 X105.668 Y36.537
N1410 G3 X105.05 Y35.587 Z-12.7 I-0.068 J-0.631 F800.
N1420 X106.049 Y34.896 Z-12.7 I1.235 J0.716
N1430 G2 X106.061 Y-34.892 Z-12.7 I-6.046 J-34.895
N1440 G3 X105.057 Y-35.583 Z-12.7 I0.23 J-1.408
N1450 X105.837 Y-36.494 Z-12.6 I0.549 J-0.319
N1460 G1 X113.719 Y-33.416 F2400.
N1470 G3 X106.967 Y35.444 Z-12.6 I-13.715 J33.417
N1480 G1 X101.165 Y36.55
N1490 G3 X100.487 Y35.626 Z-12.7 I-0.119 J-0.624 F800.
N1500 X101.681 Y34.875 Z-12.7 I1.257 J0.674
N1510 G2 X101.725 Y-34.872 Z-12.7 I-1.678 J-34.874
N1520 G3 X100.542 Y-35.612 Z-12.7 I0.055 J-1.404
N1530 G0 Z15.
N1540 X100.345 Y-0.836
N1550 Z-6.35
N1560 G1 Z-12.7
N1570 X99.56 Y-1.52
N1580 G3 X99.958 Y-2.634 Z-12.7 I0.418 J-0.479
N1590 X100.041 Y2.635 Z-12.7 I0.042 J2.634
N1600 X99.958 Y-2.634 Z-12.7 I-0.041 J-2.635
N1610 G2 X100.531 Y-3.498 Z-12.7 I-0.019 J-0.634
N1620 G1 X99.881 Y-5.173
N1630 G3 X97.434 Y-4.492 Z-12.7 I0.119 J5.173
N1640 G2 X97.634 Y-4.674 Z-12.7 I-0.317 J-0.551
N1650 G1 X99.804 Y-7.711
N1660 G3 X97.309 Y-7.231 Z-12.7 I0.193 J7.712
N1670 G2 X97.583 Y-7.437 Z-12.7 I-0.232 J-0.591
N1680 G1 X99.726 Y-10.25
N1690 G3 X97.215 Y-9.868 Z-12.7 I0.274 J10.251
N1700 G2 X97.543 Y-10.089 Z-12.7 I-0.173 J-0.611
N1710 G1 X99.649 Y-12.789
N1720 G3 X97.123 Y-12.466 Z-12.7 I0.351 J12.791
N1730 G2 X97.484 Y-12.692 Z-12.7 I-0.137 J-0.62
N1740 G1 X99.572 Y-15.328
N1750 G3 X99.072 Y-15.308 Z-12.7 I0.345 J15.333
N1760 G2 X99.556 Y-15.828 Z-12.7 I-0.042 J-0.525
N1770 G3 X100.453 Y15.826 Z-12.7 I0.449 J15.827
N1780 X99.556 Y-15.828 Z-12.7 I-0.448 J-15.827
N1790 X100.825 Y-15.109 Z-12.7 I0.043 J1.405
N1800 G1 X100.836 Y-15.091 Z-12.639
N1810 X101.19 Y-14.458 Z-10.566
N1820 G2 X102.523 Y-14.921 Z-4.85 I0.626 J-0.35
N1830 G1 X102.296 Y-16.34
N1840 G3 X103.037 Y-17.065 Z-4.85 I0.627 J-0.101
N1850 X96.965 Y17.068 Z-4.85 I-3.036 J17.066
N1860 X103.037 Y-17.065 Z-4.85 I3.036 J-17.067
N1870 G2 X103.127 Y-17.557 Z-4.85 I0.045 J-0.246
N1880 G3 X96.875 Y17.556 Z-4.85 I-3.126 J17.557
N1890 X103.127 Y-17.557 Z-4.85 I3.126 J-17.556
N1900 X104.213 Y-16.603 Z-4.85 I-0.253 J1.382
N1910 G0 Z15.
N1920 X39.487 Y18.27
N1930 Z-6.35
N1940 G1 Z-12.7
N1950 X39.956 Y17.767
N1960 G3 X40.98 Y17.901 Z-12.7 I0.464 J0.433
N1970 X36.976 Y20.135 Z-12.7 I-2.002 J1.117
N1980 X40.98 Y17.901 Z-12.7 I2.002 J-1.117
N1990 G1 X43.22 Y16.703
N2000 G3 X42.958 Y16.277 Z-12.7 I-4.243 J2.315
N2010 G2 X43.661 Y16.467 Z-12.7 I0.465 J-0.324
N2020 G3 X34.288 Y21.573 Z-12.7 I-4.686 J2.553
N2030 X43.661 Y16.467 Z-12.7 I4.687 J-2.553
N2040 X43.502 Y18.029 Z-12.7 I-1.239 J0.663
N2050 G1 X43.496 Y18.036 Z-12.67
N2060 X42.927 Y18.74 Z-9.849
N2070 G2 X43.547 Y19.762 Z-5. I0.494 J0.399
N2080 G1 X45.479 Y19.371
N2090 G3 X46.234 Y20.082 Z-5. I0.126 J0.622
N2100 X31.717 Y17.952 Z-5. I-7.259 J-1.065
N2110 X46.234 Y20.082 Z-5. I7.258 J1.065
N2120 G1 X46.729 Y20.152
N2130 G3 X31.233 Y17.892 Z-5. I-7.748 J-1.13
N2140 X46.729 Y20.152 Z-5. I7.748 J1.13
N2150 X45.732 Y21.304 Z-5. I-1.392 J-0.196
N2160 G0 Z15.
N2170 X-38.075 Y-19.023
N2180 Z-6.35
N2190 G1 Z-12.7
N2200 X-37.396 Y-18.93
N2210 G3 X-36.91 Y-18.025 Z-12.7 I-0.086 J0.629
N2220 X-41.052 Y-20.002 Z-12.7 I-2.071 J-0.988
N2230 X-36.91 Y-18.025 Z-12.7 I2.071 J0.989
N2240 G1 X-34.623 Y-16.919
N2250 G3 X-34.428 Y-17.38 Z-12.7 I-4.348 J-2.114
N2260 G2 X-34.173 Y-16.702 Z-12.7 I0.504 J0.198
N2270 G3 X-43.787 Y-21.325 Z-12.7 I-4.807 J-2.312
N2280 X-34.173 Y-16.702 Z-12.7 I4.807 J2.311
N2290 X-35.541 Y-15.912 Z-12.7 I-1.265 J-0.611
N2300 G1 X-35.553 Z-12.663
N2310 X-36.474 Y-15.962 Z-9.816
N2320 G2 X-36.935 Y-14.858 Z-5. I-0.035 J0.634
N2330 G1 X-35.475 Y-13.534
N2340 G3 X-35.6 Y-12.504 Z-5. I-0.427 J0.471
N2350 X-42.354 Y-25.521 Z-5. I-3.377 J-6.508
N2360 X-35.6 Y-12.504 Z-5. I3.377 J6.509
N2370 G1 X-35.363 Y-12.064
N2380 G3 X-42.591 Y-25.97 Z-5. I-3.614 J-6.953
N2390 X-35.363 Y-12.064 Z-5. I3.614 J6.953
N2400 X-36.897 Y-12.195 Z-5. I-0.667 J-1.237
N2410 G0 Z15.
N2420 X-99.118 Y0.188
N2430 Z-6.35
N2440 G1 Z-12.7
N2450 X-98.585 Y-0.71
N2460 G3 X-97.417 Y-0.514 Z-12.7 I0.546 J0.324
N2470 X-102.57 Y0.517 Z-12.7 I-2.576 J0.515
N2480 X-97.417 Y-0.514 Z-12.7 I2.577 J-0.516
N2490 G2 X-96.467 Y-0.098 Z-12.7 I0.622 J-0.128
N2500 G1 X-94.929 Y-1.025
N2510 G3 X-96.028 Y-3.315 Z-12.7 I-5.072 J1.025
N2520 G2 X-95.813 Y-3.148 Z-12.7 I0.489 J-0.406
N2530 G1 X-92.441 Y-1.536
N2540 G3 X-93.349 Y-3.908 Z-12.7 I-7.561 J1.534
N2550 G2 X-93.098 Y-3.674 Z-12.7 I0.543 J-0.33
N2560 G1 X-89.953 Y-2.047
N2570 G3 X-90.764 Y-4.454 Z-12.7 I-10.048 J2.048
N2580 G2 X-90.49 Y-4.169 Z-12.7 I0.572 J-0.275
N2590 G1 X-87.465 Y-2.558
N2600 G3 X-88.217 Y-4.984 Z-12.7 I-12.537 J2.559
N2610 G2 X-87.934 Y-4.673 Z-12.7 I0.585 J-0.247
N2620 G1 X-84.976 Y-3.069
N2630 G3 X-85.082 Y-3.558 Z-12.7 I-15.041 J2.999
N2640 G2 X-84.487 Y-3.17 Z-12.7 I0.509 J-0.131
N2650 G3 X-115.51 Y3.18 Z-12.7 I-15.511 J3.175
N2660 X-84.487 Y-3.17 Z-12.7 I15.512 J-3.175
N2670 X-84.975 Y-1.798 Z-12.7 I-1.376 J0.283
N2680 G1 X-84.992 Y-1.785 Z-12.639
N2690 X-85.549 Y-1.33 Z-10.577
N2700 G2 X-84.866 Y-0.096 Z-4.85 I0.453 J0.555
N2710 G1 X-83.504 Y-0.557
N2720 G3 X-82.666 Y0.053 Z-4.85 I0.203 J0.602
N2730 X-117.336 Y-0.055 Z-4.85 I-17.335 J-0.054
N2740 X-82.666 Y0.053 Z-4.85 I17.335 J0.054
N2750 G1 X-82.166 Y0.06
N2760 G3 X-117.824 Y-0.06 Z-4.85 I-17.829 J-0.06
N2770 X-82.166 Y0.06 Z-4.85 I17.829 J0.06
N2780 X-82.919 Y1.286 Z-4.85 I-1.405 J-0.019
N2790 G0 Z15.
N2800 X-140.577 Y30.339
N2810 Z-6.35
N2820 G1 Z-12.7
N2830 X-139.896 Y31.21
N2840 G2 X-136.724 Y34.892 Z-12.7 I38.504 J-29.97
N2850 G3 X-137.756 Y35.604 Z-12.7 I-0.459 J0.439
N2860 G1 X-139.77 Y31.367
N2870 X-139.865 Y31.1
N2880 X-141.146 Y27.271
N2890 G3 X-140.015 Y26.719 Z-12.7 I0.602 J-0.201
N2900 G1 X-139.896 Y26.898
N2910 G2 X-133.133 Y34.892 Z-12.7 I39.887 J-26.889
N2920 G1 X-132.456 Y35.538
N2930 G3 X-133.389 Y36.395 Z-12.6 I-0.438 J0.459
N2940 G1 X-138.342 Y30.227 F2400.
N2950 G3 X-140.109 Y27.798 Z-12.6 I20.134 J-16.497
N2960 X-140.512 Y26.679 Z-12.6 I3.41 J-1.86
N2970 G1 X-141.457 Y22.117
N2980 G3 X-140.585 Y21.405 Z-12.7 I0.622 J-0.128 F800.
N2990 X-139.895 Y22.031 Z-12.7 I-0.561 J1.311
N3000 G2 X-129.319 Y34.892 Z-12.7 I39.742 J-21.902
N3010 G1 X-128.5 Y35.569
N3020 G3 X-129.375 Y36.486 Z-12.6 I-0.405 J0.489
N3030 G1 X-134.967 Y30.326 F2400.
N3040 G3 X-140.236 Y22.836 Z-12.6 I32.398 J-28.392
N3050 X-140.53 Y21.865 Z-12.6 I3.537 J-1.603
N3060 G1 X-141.491 Y16.078
N3070 G3 X-140.585 Y15.404 Z-12.7 I0.627 J-0.104 F800.
N3080 X-139.895 Y16.139 Z-12.7 I-0.627 J1.281
N3090 G2 X-125.193 Y34.892 Z-12.7 I39.871 J-16.119
N3100 G1 X-124.252 Y35.583
N3110 G3 X-125.066 Y36.554 Z-12.6 I-0.375 J0.512
N3120 G1 X-130.293 Y31.563 F2400.
N3130 G3 X-140.348 Y16.892 Z-12.6 I30.118 J-31.426
N3140 X-140.541 Y16.139 Z-12.6 I3.649 J-1.335
N3150 G1 X-141.535 Y6.578
N3160 G3 X-140.586 Y5.962 Z-12.7 I0.632 J-0.066 F800.
N3170 X-139.894 Y6.948 Z-12.7 I-0.712 J1.236
N3180 G2 X-120.549 Y34.892 Z-12.7 I39.856 J-6.923
N3190 G1 X-119.365 Y35.584
N3200 G3 X-120.078 Y36.631 Z-12.6 I-0.32 J0.548
N3210 G1 X-125.685 Y32.219 F2400.
N3220 G3 X-140.547 Y7.303 Z-12.6 I25.611 J-32.166
N3230 G1 X-140.579 Y6.951
N3240 X-140.575 Y-31.891
N3250 G3 X-139.009 Y-34.821 Z-12.6 I3.881 J0.191
N3260 G1 X-136.91 Y-36.522
N3270 G3 X-136.053 Y-35.588 Z-12.7 I0.4 J0.493 F800.
N3280 G1 X-136.718 Y-34.896
N3290 G2 X-139.89 Y-31.222 Z-12.7 I35.849 J34.152
N3300 G3 X-140.74 Y-32.141 Z-12.7 I-0.503 J-0.387
N3310 G1 X-137.155 Y-34.479
N3320 G3 X-136.537 Y-34.794 Z-12.7 I1.806 J2.779
N3330 G1 X-133.695 Y-36.056
N3340 G3 X-133. Y-35.016 Z-12.7 I0.257 J0.581
N3350 G1 X-133.125 Y-34.896
N3360 G2 X-139.891 Y-26.902 Z-12.7 I32.77 J34.594
N3370 G3 X-140.856 Y-27.716 Z-12.7 I-0.527 J-0.354
N3380 G1 X-134.082 Y-34.153
N3390 G3 X-132.972 Y-34.819 Z-12.7 I2.228 J2.453
N3400 G1 X-129.815 Y-36.093
N3410 G3 X-129.17 Y-35.016 Z-12.7 I0.238 J0.589
N3420 G1 X-129.315 Y-34.896
N3430 G2 X-139.891 Y-22.039 Z-12.7 I29.189 J34.791
N3440 G3 X-140.58 Y-21.416 Z-12.7 I-1.25 J-0.688
N3450 X-141.326 Y-22.395 Z-12.6 I-0.249 J-0.583
N3460 G1 X-135.561 Y-29.627 F2400.
N3470 G3 X-130.6 Y-34.72 Z-12.6 I35.066 J29.187
N3480 X-129.369 Y-35.391 Z-12.6 I2.443 J3.02
N3490 G1 X-124.788 Y-36.709
N3500 G3 X-124.238 Y-35.586 Z-12.7 I0.176 J0.61 F800.
N3510 G1 X-125.185 Y-34.896
N3520 G2 X-139.892 Y-16.148 Z-12.7 I25.159 J34.877
N3530 G3 X-140.582 Y-15.412 Z-12.7 I-1.318 J-0.545
N3540 X-141.4 Y-16.319 Z-12.6 I-0.28 J-0.57
N3550 G1 X-136.616 Y-23.941 F2400.
N3560 G3 X-126.388 Y-34.884 Z-12.6 I36.299 J23.677
N3570 X-124.947 Y-35.504 Z-12.6 I2.225 J3.184
N3580 G1 X-119.87 Y-36.749
N3590 G3 X-119.393 Y-35.587 Z-12.7 I0.151 J0.617 F800.
N3600 G1 X-120.549 Y-34.896
N3610 G2 X-139.893 Y-6.954 Z-12.7 I20.538 J34.885
N3620 G3 X-140.585 Y-5.966 Z-12.7 I-1.404 J-0.248
N3630 X-141.496 Y-6.741 Z-12.6 I-0.317 J-0.551
N3640 G1 X-138.198 Y-15.452 F2400.
N3650 G3 X-121.63 Y-35.068 Z-12.6 I38.152 J15.419
N3660 X-120.368 Y-35.525 Z-12.6 I1.934 J3.368
N3670 G1 X-114.896 Y-36.487
N3680 G3 X-114.214 Y-35.588 Z-12.7 I0.11 J0.625 F800.
N3690 X-114.931 Y-34.896 Z-12.7 I-1.286 J-0.616
N3700 G2 X-114.939 Y34.892 Z-12.7 I14.928 J34.896
N3710 G3 X-114.204 Y35.583 Z-12.7 I-0.547 J1.317
N3720 X-115.127 Y36.39 Z-12.6 I-0.571 J0.279
N3730 G1 X-121.37 Y32.226 F2400.
N3740 G3 X-115.721 Y-35.322 Z-12.6 I21.361 J-32.224
N3750 X-114.927 Y-35.537 Z-12.6 I1.409 J3.622
N3760 G1 X-105.669 Y-36.537
N3770 G3 X-105.051 Y-35.588 Z-12.7 I0.068 J0.632 F800.
N3780 X-106.045 Y-34.896 Z-12.7 I-1.235 J-0.714
N3790 G2 X-106.054 Y34.892 Z-12.7 I6.041 J34.895
N3800 G3 X-105.069 Y35.584 Z-12.7 I-0.251 J1.404
N3810 X-105.85 Y36.493 Z-12.6 I-0.55 J0.317
N3820 G1 X-113.712 Y33.417 F2400.
N3830 G3 X-106.963 Y-35.445 Z-12.6 I13.707 J-33.418
N3840 G1 X-101.189 Y-36.55
N3850 G3 X-100.51 Y-35.625 Z-12.7 I0.119 J0.624 F800.
N3860 X-101.712 Y-34.875 Z-12.7 I-1.257 J-0.676
N3870 G2 X-101.706 Y34.872 Z-12.7 I1.71 J34.873
N3880 G3 X-100.526 Y35.612 Z-12.7 I-0.059 J1.404
N3890 G0 Z15.
N3900 G30 Z15. M5 M9
N3910 M30
%
