%
(bottom plate)

(POSTPROCESSOR: top_plate)
(GENERATED BY SprutCAM)
(DATE: 4/9/2025)
(TIME: 12:33:23 AM)

(T# 1) (Dia 6.) (6mm Spot drill) (Hole machining 1)
(T# 2) (Dia 3.5) (#28 drill) (Hole machining 3)
(T# 3) (Dia 9.5) (.375 Drill) (Hole machining 4)
(T# 4) (Dia 6.35) (6.35mm Cylindrical mill) (rough large thru)

N10 G90 G64 G50 G54 G80 G17 G40 G49
N20 G21 (Metric)
(Hole machining 1)
N30 G30
N40 T1 G43 H1 M6
(6mm Spot drill)
N50 S5000 M3
N60 G0 G94 X100. Y0.
N70 Z10.
N80 G81 G98 Z-1. R0.6 F2000.
N90 X68.354 Y-22.674
N100 X57.74 Y8.187
N110 X66.104 Y24.118
N120 X38.977 Y19.016
N130 X-38.977 Y-19.016
N140 X-66.104 Y-24.118
N150 X-57.74 Y-8.187
N160 X-68.354 Y22.674
N170 X-100. Y0.
N180 G80
N190 G30 Z10. M5

(Hole machining 3)
N200 T2 G43 H2 M6
(#28 drill)
N210 S4000 M3 M8
N220 G0 X-68.354 Y22.674
N230 Z10.
N240 G83 G98 Z-7.4015 R-0.2315 Q2.45 F600.
N250 X-57.74 Y-8.187 R-0.2415
N260 X-66.104 Y-24.118
N270 X68.354 Y-22.674 R-0.2315
N280 X57.74 Y8.187 R-0.2415
N290 X66.104 Y24.118
N300 G80
N310 G30 Z10. M5 M9

(Hole machining 4)
N320 T3 G43 H3 M6
(.375 Drill)
N330 S3060 M3 M8
N340 G0 X-100. Y0.
N350 Z10.
N360 G83 G98 Z-9.35 R0.95 Q6.555 F459.
N370 X-38.977 Y-19.016 R0.3659
N380 X38.977 Y19.016
N390 X100. Y0.
N400 G80
N410 G30 Z10. M5 M9

(rough large thru)
N420 T4 G43 H4 M6
(6.35mm Cylindrical mill)
N430 S4000 M3 M8
N440 G0 X136.971 Y35.568
N450 Z15.
N460 Z-6.35
N470 G1 Z-12.7 F800.
N480 X137.733 Y34.74
N490 G2 X139.851 Y32.293 Z-12.7 I-35.066 J-32.481
N500 G3 X140.673 Y33.235 Z-12.7 I0.495 J0.397
N510 G1 X136.063 Y36.001
N520 G3 X135.281 Y35.014 Z-12.7 I-0.327 J-0.544
N530 G1 X135.395 Y34.896
N540 G2 X139.891 Y29.651 Z-12.7 I-35.109 J-34.641
N550 G3 X140.796 Y30.528 Z-12.7 I0.506 J0.383
N560 G1 X136.108 Y34.305
N570 X133.81 Y35.991
N580 G3 X133. Y35.015 Z-12.7 I-0.376 J-0.512
N590 G1 X133.127 Y34.896
N600 G2 X139.891 Y26.904 Z-12.7 I-32.782 J-34.599
N610 G3 X140.853 Y27.721 Z-12.7 I0.525 J0.357
N620 G1 X134.084 Y34.152
N630 X133.833 Y34.359
N640 X131.424 Y36.013
N650 G3 X130.641 Y35.016 Z-12.7 I-0.36 J-0.523
N660 G1 X130.776 Y34.896
N670 G2 X139.891 Y23.951 Z-12.7 I-30.649 J-34.791
N680 G1 X140.584 Y22.817
N690 G3 X141.623 Y23.543 Z-12.6 I0.541 J0.331
N700 G1 X136.892 Y29.509 F2400.
N710 G3 X132.085 Y34.664 Z-12.6 I-35.638 J-28.414
N720 X131.164 Y35.245 Z-12.6 I-2.512 J-2.964
N730 G1 X128.13 Y36.657
N740 G3 X127.463 Y35.587 Z-12.7 I-0.268 J-0.576 F800.
N750 G1 X128.318 Y34.896
N760 G2 X139.891 Y20.695 Z-12.7 I-28.189 J-34.791
N770 G3 X140.583 Y20.043 Z-12.7 I1.269 J0.653
N780 X141.346 Y21.007 Z-12.6 I0.257 J0.581
N790 G1 X135.827 Y28.294 F2400.
N800 G3 X129.586 Y34.76 Z-12.6 I-35.415 J-27.939
N810 X128.699 Y35.281 Z-12.6 I-2.394 J-3.06
N820 G1 X125.402 Y36.684
N830 G3 X124.779 Y35.587 Z-12.7 I-0.249 J-0.584 F800.
N840 G1 X125.725 Y34.896
N850 G2 X139.892 Y16.973 Z-12.7 I-25.649 J-34.834
N860 G3 X140.584 Y16.246 Z-12.7 I1.313 J0.557
N870 X141.393 Y17.163 Z-12.6 I0.276 J0.572
N880 G1 X136.66 Y24.451 F2400.
N890 G3 X126.941 Y34.862 Z-12.6 I-36.385 J-24.227
N900 X126.096 Y35.319 Z-12.6 I-2.257 J-3.162
N910 G1 X122.473 Y36.711
N920 G3 X121.897 Y35.588 Z-12.7 I-0.227 J-0.593 F800.
N930 G1 X122.948 Y34.896
N940 G2 X139.892 Y12.366 Z-12.7 I-22.899 J-34.858
N950 G3 X140.583 Y11.533 Z-12.7 I1.361 J0.427
N960 X141.444 Y12.388 Z-12.6 I0.298 J0.561
N970 G1 X137.126 Y20.635 F2400.
N980 G3 X124.096 Y34.973 Z-12.6 I-37.024 J-20.557
N990 X123.305 Y35.36 Z-12.6 I-2.09 J-3.273
N1000 G1 X119.187 Y36.745
N1010 G3 X118.676 Y35.588 Z-12.7 I-0.202 J-0.602 F800.
N1020 G1 X119.917 Y34.896
N1030 G2 X139.893 Y4.79 Z-12.7 I-19.914 J-34.893
N1040 G3 X140.584 Y3.725 Z-12.7 I1.417 J0.163
N1050 G2 X140.897 Y3.175 Z-12.6 I-0.322 J-0.547
N1060 G1 X140.728 Y-30.973 F2400.
N1070 G2 X140.588 Y-31.366 Z-12.7 I-0.635 J0.004 F800.
N1080 G1 X139.852 Y-32.287
N1090 G2 X137.729 Y-34.742 Z-12.7 I-35.749 J28.752
N1100 G3 X138.776 Y-35.43 Z-12.7 I0.466 J-0.432
N1110 G1 X141.107 Y-30.116
N1120 G3 X140.017 Y-29.482 Z-12.7 I-0.581 J0.255
N1130 G1 X139.896 Y-29.644
N1140 G2 X135.395 Y-34.892 Z-12.7 I-39.558 J29.373
N1150 G3 X136.397 Y-35.656 Z-12.7 I0.455 J-0.443
N1160 G1 X139.676 Y-30.053
N1170 X141.099 Y-27.38
N1180 G3 X140.015 Y-26.723 Z-12.7 I-0.561 J0.298
N1190 G1 X139.896 Y-26.896
N1200 G2 X133.131 Y-34.892 Z-12.7 I-39.826 J26.834
N1210 G3 X134.093 Y-35.71 Z-12.7 I0.435 J-0.462
N1220 G1 X139.477 Y-27.74
N1230 G3 X139.72 Y-27.294 Z-12.7 I-2.778 J1.804
N1240 G1 X141.133 Y-24.343
N1250 G3 X140.016 Y-23.742 Z-12.7 I-0.573 J0.274
N1260 G1 X139.895 Y-23.943
N1270 G2 X130.777 Y-34.892 Z-12.7 I-39.782 J23.861
N1280 G1 X130.024 Y-35.558
N1290 G3 X130.925 Y-36.449 Z-12.6 I0.421 J-0.475
N1300 G1 X135.921 Y-30.681 F2400.
N1310 G3 X140.058 Y-25.028 Z-12.6 I-34.563 J29.635
N1320 X140.391 Y-24.284 Z-12.6 I-3.359 J1.95
N1330 G1 X141.45 Y-20.803
N1340 G3 X140.587 Y-20.037 Z-12.7 I-0.608 J0.185 F800.
N1350 X139.895 Y-20.685 Z-12.7 I0.574 J-1.305
N1360 G2 X128.321 Y-34.892 Z-12.7 I-39.783 J20.593
N1370 G1 X127.469 Y-35.574
N1380 G3 X128.329 Y-36.505 Z-12.6 I0.397 J-0.496
N1390 G1 X133.817 Y-30.664 F2400.
N1400 G3 X140.27 Y-21.46 Z-12.6 I-32.21 J29.445
N1410 X140.431 Y-21.006 Z-12.6 I-3.571 J1.526
N1420 G1 X141.477 Y-16.973
N1430 G3 X140.586 Y-16.241 Z-12.7 I-0.615 J0.16 F800.
N1440 X139.895 Y-16.963 Z-12.7 I0.619 J-1.285
N1450 G2 X125.729 Y-34.892 Z-12.7 I-39.846 J16.923
N1460 G1 X124.774 Y-35.583
N1470 G3 X125.588 Y-36.554 Z-12.6 I0.372 J-0.515
N1480 G1 X130.639 Y-31.668 F2400.
N1490 G3 X140.327 Y-17.743 Z-12.6 I-30.446 J31.516
N1500 X140.537 Y-16.959 Z-12.6 I-3.628 J1.392
N1510 G1 X141.505 Y-12.22
N1520 G3 X140.585 Y-11.532 Z-12.7 I-0.622 J0.127 F800.
N1530 X139.894 Y-12.359 Z-12.7 I0.669 J-1.26
N1540 G2 X122.951 Y-34.892 Z-12.7 I-39.858 J12.335
N1550 G1 X121.889 Y-35.584
N1560 G3 X122.653 Y-36.595 Z-12.6 I0.347 J-0.532
N1570 G1 X128.602 Y-31.398 F2400.
N1580 G3 X140.437 Y-12.984 Z-12.6 I-28.523 J31.341
N1590 X140.555 Y-12.386 Z-12.6 I-3.739 J1.054
N1600 G1 X141.538 Y-4.322
N1610 G3 X140.585 Y-3.698 Z-12.7 I-0.63 J0.077 F800.
N1620 X139.894 Y-4.766 Z-12.7 I0.726 J-1.228
N1630 G2 X119.919 Y-34.892 Z-12.7 I-39.882 J4.758
N1640 G1 X118.735 Y-35.584
N1650 G3 X119.443 Y-36.635 Z-12.6 I0.32 J-0.548
N1660 G1 X125.351 Y-32.08 F2400.
N1670 G3 X140.563 Y-5.099 Z-12.6 I-25.303 J32.045
N1680 G1 X140.579 Y-4.727
N1690 X140.578 Y4.874
N1700 G3 X135.144 Y20.901 Z-12.6 I-39.958 J-4.613
N1710 X120.978 Y35.093 Z-12.6 I-35.064 J-20.834
N1720 X120.255 Y35.404 Z-12.6 I-1.889 J-3.393
N1730 G1 X116.537 Y36.466
N1740 G3 X115.787 Y35.588 Z-12.7 I-0.174 J-0.61 F800.
N1750 X116.479 Y34.896 Z-12.7 I1.293 J0.601
N1760 G2 X116.485 Y-34.892 Z-12.7 I-16.476 J-34.895
N1770 G3 X115.788 Y-35.584 Z-12.7 I0.595 J-1.296
N1780 X116.734 Y-36.369 Z-12.6 I0.575 J-0.269
N1790 G1 X122.78 Y-32.027 F2400.
N1800 G3 X117.321 Y35.274 Z-12.6 I-22.77 J32.025
N1810 X116.462 Y35.529 Z-12.6 I-1.529 J-3.574
N1820 G1 X112.219 Y36.498
N1830 G3 X111.514 Y35.587 Z-12.7 I-0.141 J-0.619 F800.
N1840 X112.309 Y34.896 Z-12.7 I1.267 J0.655
N1850 G2 X112.314 Y-34.892 Z-12.7 I-12.304 J-34.895
N1860 G3 X111.513 Y-35.584 Z-12.7 I0.466 J-1.348
N1870 X112.397 Y-36.425 Z-12.6 I0.564 J-0.292
N1880 G1 X118.968 Y-32.593 F2400.
N1890 G3 X113. Y35.397 Z-12.6 I-18.949 J32.594
N1900 X112.325 Y35.55 Z-12.6 I-1.192 J-3.697
N1910 G1 X105.693 Y36.534
N1920 G3 X105.05 Y35.587 Z-12.7 I-0.093 J-0.628 F800.
N1930 X106.049 Y34.896 Z-12.7 I1.235 J0.716
N1940 G2 X106.061 Y-34.892 Z-12.7 I-6.046 J-34.895
N1950 G3 X105.057 Y-35.583 Z-12.7 I0.23 J-1.408
N1960 X105.837 Y-36.494 Z-12.6 I0.549 J-0.319
N1970 G1 X113.719 Y-33.416 F2400.
N1980 G3 X106.967 Y35.444 Z-12.6 I-13.715 J33.417
N1990 G1 X101.165 Y36.55
N2000 G3 X100.487 Y35.626 Z-12.7 I-0.119 J-0.624 F800.
N2010 X101.681 Y34.875 Z-12.7 I1.257 J0.674
N2020 G2 X101.725 Y-34.872 Z-12.7 I-1.678 J-34.874
N2030 G3 X100.542 Y-35.612 Z-12.7 I0.055 J-1.404
N2040 G0 Z15.
N2050 X100.345 Y-0.836
N2060 Z-6.35
N2070 G1 Z-12.7
N2080 X99.56 Y-1.52
N2090 G3 X99.958 Y-2.634 Z-12.7 I0.418 J-0.479
N2100 X100.042 Y2.633 Z-12.7 I0.042 J2.634
N2110 X99.958 Y-2.634 Z-12.7 I-0.042 J-2.633
N2120 G1 X99.91 Y-4.221
N2130 G3 X98.357 Y-3.89 Z-12.7 I0.087 J4.222
N2140 G2 X98.609 Y-4.094 Z-12.7 I-0.261 J-0.579
N2150 G1 X99.862 Y-5.807
N2160 G3 X98.294 Y-5.554 Z-12.7 I0.133 J5.808
N2170 G2 X98.633 Y-5.789 Z-12.7 I-0.173 J-0.611
N2180 G1 X99.813 Y-7.394
N2190 G3 X98.24 Y-7.184 Z-12.7 I0.184 J7.395
N2200 G2 X98.606 Y-7.424 Z-12.7 I-0.143 J-0.619
N2210 G1 X99.765 Y-8.981
N2220 G3 X98.188 Y-8.802 Z-12.7 I0.221 J8.983
N2230 G2 X98.55 Y-9.036 Z-12.7 I-0.143 J-0.618
N2240 G1 X99.717 Y-10.568
N2250 G3 X98.131 Y-10.405 Z-12.7 I0.284 J10.57
N2260 G2 X98.532 Y-10.648 Z-12.7 I-0.106 J-0.626
N2270 G1 X99.668 Y-12.154
N2280 G3 X98.087 Y-12.01 Z-12.7 I0.314 J12.157
N2290 G2 X98.48 Y-12.249 Z-12.7 I-0.112 J-0.625
N2300 G1 X99.62 Y-13.741
N2310 G3 X98.038 Y-13.607 Z-12.7 I0.368 J13.744
N2320 G2 X98.464 Y-13.855 Z-12.7 I-0.081 J-0.63
N2330 G1 X99.572 Y-15.328
N2340 G3 X99.072 Y-15.308 Z-12.7 I0.345 J15.333
N2350 G2 X99.556 Y-15.828 Z-12.7 I-0.042 J-0.525
N2360 G3 X100.453 Y15.826 Z-12.7 I0.449 J15.827
N2370 X99.556 Y-15.828 Z-12.7 I-0.448 J-15.827
N2380 X100.825 Y-15.109 Z-12.7 I0.043 J1.405
N2390 G2 X100.996 Y-14.913 Z-12.129 I0.555 J-0.31
N2400 G1 X102.261 Y-13.956 Z-8.676
N2410 G2 X103.186 Y-14.794 Z-4.85 I0.383 J-0.506
N2420 G1 X102.381 Y-16.11
N2430 G3 X103.037 Y-17.065 Z-4.85 I0.542 J-0.331
N2440 X96.966 Y17.066 Z-4.85 I-3.035 J17.065
N2450 X103.037 Y-17.065 Z-4.85 I3.036 J-17.066
N2460 G2 X103.127 Y-17.557 Z-4.85 I0.045 J-0.246
N2470 G3 X96.875 Y17.556 Z-4.85 I-3.126 J17.557
N2480 X103.127 Y-17.557 Z-4.85 I3.126 J-17.556
N2490 X104.213 Y-16.603 Z-4.85 I-0.253 J1.382
N2500 G0 Z15.
N2510 X39.755 Y18.556
N2520 Z-6.35
N2530 G1 Z-12.7
N2540 X40.42 Y18.2
N2550 G3 X37.541 Y19.83 Z-12.7 I-1.439 J0.815
N2560 X40.42 Y18.2 Z-12.7 I1.44 J-0.815
N2570 G1 X41.82 Y17.451
N2580 G3 X40.738 Y16.29 Z-12.7 I-2.844 J1.565
N2590 G2 X40.979 Y16.377 Z-12.7 I0.333 J-0.541
N2600 G1 X43.22 Y16.703
N2610 G3 X42.958 Y16.277 Z-12.7 I-4.244 J2.315
N2620 G2 X43.661 Y16.467 Z-12.7 I0.465 J-0.324
N2630 G3 X34.288 Y21.573 Z-12.7 I-4.686 J2.553
N2640 X43.661 Y16.467 Z-12.7 I4.687 J-2.553
N2650 X43.502 Y18.029 Z-12.7 I-1.239 J0.663
N2660 G1 X43.488 Y18.045 Z-12.543
N2670 X43.423 Y18.124 Z-11.787
N2680 G2 X43.606 Y18.893 Z-5. I0.38 J0.316
N2690 G1 X44.286 Y19.189
N2700 G3 X44.662 Y19.86 Z-5. I-0.253 J0.583
N2710 X33.291 Y18.172 Z-5. I-5.686 J-0.844
N2720 X44.662 Y19.86 Z-5. I5.685 J0.844
N2730 G1 X46.234 Y20.082
N2740 G3 X46.29 Y19.585 Z-5. I-7.257 J-1.074
N2750 G2 X46.729 Y20.152 Z-5. I0.523 J0.048
N2760 G3 X31.233 Y17.892 Z-5. I-7.748 J-1.13
N2770 X46.729 Y20.152 Z-5. I7.748 J1.13
N2780 X45.732 Y21.304 Z-5. I-1.392 J-0.196
N2790 G0 Z15.
N2800 X-38.596 Y-19.834
N2810 Z-6.35
N2820 G1 Z-12.7
N2830 G3 X-37.428 Y-18.687 Z-12.7 I-0.216 J1.389
N2840 X-37.482 Y-18.301 Z-12.7 I-0.625 J0.11
N2850 X-40.478 Y-19.729 Z-12.7 I-1.498 J-0.714
N2860 X-37.482 Y-18.301 Z-12.7 I1.498 J0.714
N2870 G2 X-36.735 Y-17.414 Z-12.7 I0.572 J0.276
N2880 G1 X-36.052 Y-17.61
N2890 G3 X-35.734 Y-19.165 Z-12.7 I-2.925 J-1.41
N2900 G2 X-35.66 Y-18.878 Z-12.7 I0.635 J-0.01
N2910 G1 X-34.623 Y-16.919
N2920 G3 X-34.428 Y-17.38 Z-12.7 I-4.348 J-2.114
N2930 G2 X-34.173 Y-16.702 Z-12.7 I0.504 J0.198
N2940 G3 X-43.787 Y-21.325 Z-12.7 I-4.807 J-2.312
N2950 X-34.173 Y-16.702 Z-12.7 I4.807 J2.311
N2960 X-35.541 Y-15.912 Z-12.7 I-1.265 J-0.611
N2970 G1 X-35.562 Y-15.913 Z-12.545
N2980 X-35.666 Y-15.921 Z-11.78
N2990 G2 X-36.19 Y-15.318 Z-5. I-0.036 J0.498
N3000 G1 X-36.034 Y-14.594
N3010 G3 X-36.354 Y-13.902 Z-5. I-0.621 J0.133
N3020 X-41.598 Y-24.124 Z-5. I-2.622 J-5.111
N3030 X-36.354 Y-13.902 Z-5. I2.622 J5.111
N3040 G2 X-36.268 Y-12.746 Z-5. I0.302 J0.559
N3050 G1 X-35.6 Y-12.504
N3060 G3 X-35.165 Y-12.75 Z-5. I-3.389 J-6.506
N3070 G2 X-35.363 Y-12.064 Z-5. I0.272 J0.45
N3080 G3 X-42.591 Y-25.97 Z-5. I-3.614 J-6.953
N3090 X-35.363 Y-12.064 Z-5. I3.614 J6.953
N3100 X-36.897 Y-12.195 Z-5. I-0.667 J-1.237
N3110 G0 Z15.
N3120 X-99.118 Y0.188
N3130 Z-6.35
N3140 G1 Z-12.7
N3150 X-98.585 Y-0.71
N3160 G3 X-97.417 Y-0.514 Z-12.7 I0.546 J0.324
N3170 X-102.585 Y0.514 Z-12.7 I-2.584 J0.514
N3180 X-97.417 Y-0.514 Z-12.7 I2.584 J-0.514
N3190 G1 X-95.862 Y-0.834
N3200 G3 X-96.462 Y-2.303 Z-12.7 I-4.139 J0.832
N3210 G2 X-96.215 Y-2.089 Z-12.7 I0.526 J-0.356
N3220 G1 X-94.307 Y-1.153
N3230 G3 X-94.83 Y-2.652 Z-12.7 I-5.695 J1.148
N3240 G2 X-94.559 Y-2.388 Z-12.7 I0.558 J-0.303
N3250 G1 X-92.752 Y-1.472
N3260 G3 X-93.232 Y-2.986 Z-12.7 I-7.25 J1.468
N3270 G2 X-92.932 Y-2.665 Z-12.7 I0.585 J-0.246
N3280 G1 X-91.197 Y-1.792
N3290 G3 X-91.647 Y-3.314 Z-12.7 I-8.807 J1.781
N3300 G2 X-91.354 Y-2.996 Z-12.7 I0.585 J-0.247
N3310 G1 X-89.642 Y-2.111
N3320 G3 X-90.075 Y-3.639 Z-12.7 I-10.36 J2.112
N3330 G2 X-89.767 Y-3.291 Z-12.7 I0.597 J-0.217
N3340 G1 X-88.087 Y-2.431
N3350 G3 X-88.503 Y-3.963 Z-12.7 I-11.918 J2.417
N3360 G2 X-88.199 Y-3.617 Z-12.7 I0.597 J-0.217
N3370 G1 X-86.531 Y-2.75
N3380 G3 X-86.937 Y-4.285 Z-12.7 I-13.474 J2.735
N3390 G2 X-86.619 Y-3.907 Z-12.7 I0.607 J-0.188
N3400 G1 X-84.976 Y-3.069
N3410 G3 X-85.082 Y-3.558 Z-12.7 I-15.041 J2.999
N3420 G2 X-84.487 Y-3.17 Z-12.7 I0.509 J-0.131
N3430 G3 X-115.51 Y3.18 Z-12.7 I-15.511 J3.175
N3440 X-84.487 Y-3.17 Z-12.7 I15.512 J-3.175
N3450 X-84.975 Y-1.798 Z-12.7 I-1.376 J0.283
N3460 G2 X-85.139 Y-1.596 Z-12.129 I0.401 J0.492
N3470 G1 X-85.861 Y-0.193 Z-8.681
N3480 G2 X-84.879 Y0.577 Z-4.85 I0.565 J0.291
N3490 G1 X-83.718 Y-0.434
N3500 G3 X-82.666 Y0.053 Z-4.85 I0.417 J0.479
N3510 X-117.335 Y-0.054 Z-4.85 I-17.334 J-0.054
N3520 X-82.666 Y0.053 Z-4.85 I17.335 J0.053
N3530 G1 X-82.166 Y0.06
N3540 G3 X-117.824 Y-0.06 Z-4.85 I-17.829 J-0.06
N3550 X-82.166 Y0.06 Z-4.85 I17.829 J0.06
N3560 X-82.919 Y1.286 Z-4.85 I-1.405 J-0.019
N3570 G0 Z15.
N3580 X-140.578 Y31.409
N3590 Z-6.35
N3600 G1 Z-12.7
N3610 X-139.851 Y32.291
N3620 G2 X-137.729 Y34.742 Z-12.7 I36.275 J-29.246
N3630 G3 X-138.778 Y35.428 Z-12.7 I-0.467 J0.431
N3640 G1 X-141.109 Y30.109
N3650 G3 X-140.017 Y29.477 Z-12.7 I0.582 J-0.255
N3660 G1 X-139.896 Y29.64
N3670 G2 X-135.396 Y34.892 Z-12.7 I38.836 J-28.724
N3680 G3 X-136.399 Y35.656 Z-12.7 I-0.455 J0.442
N3690 G1 X-139.677 Y30.049
N3700 X-141.105 Y27.368
N3710 G3 X-140.015 Y26.719 Z-12.7 I0.561 J-0.298
N3720 G1 X-139.896 Y26.898
N3730 G2 X-133.133 Y34.892 Z-12.7 I39.887 J-26.889
N3740 G3 X-134.097 Y35.707 Z-12.7 I-0.438 J0.459
N3750 G1 X-139.476 Y27.743
N3760 G3 X-139.72 Y27.296 Z-12.7 I2.777 J-1.805
N3770 G1 X-141.135 Y24.341
N3780 G3 X-140.016 Y23.742 Z-12.7 I0.573 J-0.274
N3790 G1 X-139.895 Y23.944
N3800 G2 X-130.778 Y34.892 Z-12.7 I39.768 J-23.85
N3810 G1 X-130.014 Y35.559
N3820 G3 X-130.912 Y36.453 Z-12.6 I-0.418 J0.478
N3830 G1 X-135.922 Y30.681 F2400.
N3840 G3 X-140.058 Y25.03 Z-12.6 I34.607 J-29.665
N3850 X-140.391 Y24.285 Z-12.6 I3.359 J-1.95
N3860 G1 X-141.451 Y20.798
N3870 G3 X-140.587 Y20.033 Z-12.7 I0.607 J-0.185 F800.
N3880 X-139.895 Y20.686 Z-12.7 I-0.577 J1.304
N3890 G2 X-128.323 Y34.892 Z-12.7 I39.793 J-20.599
N3900 G1 X-127.5 Y35.572
N3910 G3 X-128.369 Y36.495 Z-12.6 I-0.405 J0.49
N3920 G1 X-133.818 Y30.664 F2400.
N3930 G3 X-140.27 Y21.461 Z-12.6 I32.219 J-29.45
N3940 X-140.431 Y21.007 Z-12.6 I3.571 J-1.525
N3950 G1 X-141.48 Y16.962
N3960 G3 X-140.586 Y16.232 Z-12.7 I0.615 J-0.159 F800.
N3970 X-139.895 Y16.968 Z-12.7 I-0.627 J1.282
N3980 G2 X-125.727 Y34.892 Z-12.7 I39.822 J-16.915
N3990 G1 X-124.793 Y35.583
N4000 G3 X-125.613 Y36.549 Z-12.6 I-0.377 J0.51
N4010 G1 X-130.637 Y31.67 F2400.
N4020 G3 X-140.327 Y17.748 Z-12.6 I30.419 J-31.505
N4030 X-140.537 Y16.963 Z-12.6 I3.628 J-1.393
N4040 G1 X-141.504 Y12.23
N4050 G3 X-140.585 Y11.542 Z-12.7 I0.622 J-0.127 F800.
N4060 X-139.894 Y12.365 Z-12.7 I-0.667 J1.26
N4070 G2 X-122.951 Y34.892 Z-12.7 I39.856 J-12.342
N4080 G1 X-121.901 Y35.584
N4090 G3 X-122.668 Y36.592 Z-12.6 I-0.35 J0.53
N4100 G1 X-128.602 Y31.399 F2400.
N4110 G3 X-140.437 Y12.99 Z-12.6 I28.521 J-31.344
N4120 X-140.555 Y12.392 Z-12.6 I3.739 J-1.055
N4130 G1 X-141.538 Y4.33
N4140 G3 X-140.585 Y3.707 Z-12.7 I0.631 J-0.076 F800.
N4150 X-139.894 Y4.761 Z-12.7 I-0.724 J1.228
N4160 G2 X-119.92 Y34.892 Z-12.7 I39.872 J-4.745
N4170 G1 X-118.735 Y35.584
N4180 G3 X-119.443 Y36.635 Z-12.6 I-0.321 J0.548
N4190 G1 X-125.352 Y32.08 F2400.
N4200 G3 X-140.563 Y5.093 Z-12.6 I25.293 J-32.036
N4210 G1 X-140.579 Y4.722
N4220 X-140.575 Y-31.87
N4230 G3 X-139.773 Y-34.069 Z-12.6 I3.881 J0.17
N4240 G1 X-137.925 Y-36.404
N4250 G3 X-136.96 Y-35.58 Z-12.7 I0.498 J0.394 F800.
N4260 G1 X-137.732 Y-34.741
N4270 G2 X-139.855 Y-32.283 Z-12.7 I33.896 J31.429
N4280 G3 X-140.677 Y-33.226 Z-12.7 I-0.494 J-0.399
N4290 G1 X-136.056 Y-36.005
N4300 G3 X-135.278 Y-35.013 Z-12.7 I0.327 J0.544
N4310 G1 X-135.394 Y-34.896
N4320 G2 X-139.891 Y-29.649 Z-12.7 I35.041 J34.578
N4330 G3 X-140.8 Y-30.52 Z-12.7 I-0.511 J-0.377
N4340 G1 X-136.107 Y-34.305
N4350 X-133.813 Y-35.987
N4360 G3 X-133. Y-35.016 Z-12.7 I0.375 J0.512
N4370 G1 X-133.125 Y-34.896
N4380 G2 X-139.891 Y-26.902 Z-12.7 I32.77 J34.594
N4390 G3 X-140.856 Y-27.716 Z-12.7 I-0.527 J-0.354
N4400 G1 X-134.082 Y-34.153
N4410 X-133.831 Y-34.359
N4420 X-131.414 Y-36.018
N4430 G3 X-130.637 Y-35.016 Z-12.7 I0.359 J0.523
N4440 G1 X-130.775 Y-34.896
N4450 G2 X-139.891 Y-23.949 Z-12.7 I30.664 J34.803
N4460 G1 X-140.583 Y-22.812
N4470 G3 X-141.623 Y-23.537 Z-12.6 I-0.543 J-0.33
N4480 G1 X-136.892 Y-29.508 F2400.
N4490 G3 X-132.084 Y-34.664 Z-12.6 I35.654 J28.425
N4500 X-131.163 Y-35.245 Z-12.6 I2.512 J2.964
N4510 G1 X-128.116 Y-36.66
N4520 G3 X-127.453 Y-35.588 Z-12.7 I0.267 J0.576 F800.
N4530 G1 X-128.319 Y-34.896
N4540 G2 X-139.891 Y-20.694 Z-12.7 I28.261 J34.843
N4550 G3 X-140.582 Y-20.048 Z-12.7 I-1.265 J-0.66
N4560 X-141.344 Y-21.013 Z-12.6 I-0.256 J-0.582
N4570 G1 X-135.826 Y-28.292 F2400.
N4580 G3 X-129.588 Y-34.758 Z-12.6 I35.485 J27.99
N4590 X-128.7 Y-35.28 Z-12.6 I2.396 J3.058
N4600 G1 X-125.398 Y-36.685
N4610 G3 X-124.775 Y-35.588 Z-12.7 I0.249 J0.584 F800.
N4620 G1 X-125.725 Y-34.896
N4630 G2 X-139.892 Y-16.975 Z-12.7 I25.695 J34.873
N4640 G3 X-140.583 Y-16.241 Z-12.7 I-1.317 J-0.548
N4650 X-141.394 Y-17.157 Z-12.6 I-0.279 J-0.57
N4660 G1 X-136.658 Y-24.451 F2400.
N4670 G3 X-126.941 Y-34.861 Z-12.6 I36.428 J24.266
N4680 X-126.095 Y-35.319 Z-12.6 I2.257 J3.161
N4690 G1 X-122.485 Y-36.709
N4700 G3 X-121.906 Y-35.588 Z-12.7 I0.228 J0.592 F800.
N4710 G1 X-122.948 Y-34.896
N4720 G2 X-139.892 Y-12.366 Z-12.7 I22.919 J34.873
N4730 G3 X-140.582 Y-11.537 Z-12.7 I-1.36 J-0.43
N4740 X-141.444 Y-12.391 Z-12.6 I-0.299 J-0.56
N4750 G1 X-137.125 Y-20.635 F2400.
N4760 G3 X-124.096 Y-34.973 Z-12.6 I37.044 J20.573
N4770 X-123.304 Y-35.36 Z-12.6 I2.091 J3.273
N4780 G1 X-119.223 Y-36.74
N4790 G3 X-118.704 Y-35.588 Z-12.7 I0.203 J0.601 F800.
N4800 G1 X-119.912 Y-34.896
N4810 G2 X-139.893 Y-4.767 Z-12.7 I19.89 J34.88
N4820 G3 X-140.584 Y-3.71 Z-12.7 I-1.416 J-0.172
N4830 X-141.511 Y-4.452 Z-12.6 I-0.323 J-0.547
N4840 G1 X-138.771 Y-12.985 F2400.
N4850 G3 X-120.973 Y-35.093 Z-12.6 I38.707 J12.943
N4860 X-120.25 Y-35.404 Z-12.6 I1.888 J3.393
N4870 G1 X-116.535 Y-36.467
N4880 G3 X-115.785 Y-35.587 Z-12.7 I0.174 J0.611 F800.
N4890 X-116.48 Y-34.896 Z-12.7 I-1.293 J-0.604
N4900 G2 X-116.482 Y34.892 Z-12.7 I16.476 J34.895
N4910 G3 X-115.802 Y35.584 Z-12.7 I-0.617 J1.286
N4920 X-116.751 Y36.364 Z-12.6 I-0.578 J0.265
N4930 G1 X-122.778 Y32.027 F2400.
N4940 G3 X-117.322 Y-35.274 Z-12.6 I22.767 J-32.026
N4950 X-116.463 Y-35.529 Z-12.6 I1.529 J3.574
N4960 G1 X-112.229 Y-36.496
N4970 G3 X-111.523 Y-35.587 Z-12.7 I0.141 J0.619 F800.
N4980 X-112.31 Y-34.896 Z-12.7 I-1.269 J-0.651
N4990 G2 X-112.312 Y34.892 Z-12.7 I12.305 J34.895
N5000 G3 X-111.519 Y35.584 Z-12.7 I-0.475 J1.345
N5010 X-112.404 Y36.423 Z-12.6 I-0.565 J0.291
N5020 G1 X-118.966 Y32.593 F2400.
N5030 G3 X-113. Y-35.397 Z-12.6 I18.947 J-32.594
N5040 X-112.326 Y-35.55 Z-12.6 I1.191 J3.697
N5050 G1 X-105.694 Y-36.534
N5060 G3 X-105.051 Y-35.588 Z-12.7 I0.093 J0.629 F800.
N5070 X-106.045 Y-34.896 Z-12.7 I-1.235 J-0.714
N5080 G2 X-106.054 Y34.892 Z-12.7 I6.041 J34.895
N5090 G3 X-105.069 Y35.584 Z-12.7 I-0.251 J1.404
N5100 X-105.85 Y36.493 Z-12.6 I-0.55 J0.317
N5110 G1 X-113.712 Y33.417 F2400.
N5120 G3 X-106.963 Y-35.445 Z-12.6 I13.707 J-33.418
N5130 G1 X-101.189 Y-36.55
N5140 G3 X-100.51 Y-35.625 Z-12.7 I0.119 J0.624 F800.
N5150 X-101.712 Y-34.875 Z-12.7 I-1.257 J-0.676
N5160 G2 X-101.706 Y34.872 Z-12.7 I1.71 J34.873
N5170 G3 X-100.526 Y35.612 Z-12.7 I-0.059 J1.404
N5180 G0 Z15.
N5190 G30 Z15. M5 M9
N5200 M30
%
