%
(bottom plate)

(POSTPROCESSOR: top_plate)
(GENERATED BY SprutCAM)
(DATE: 2/12/2025)
(TIME: 2:26:58 AM)

(T# 1) (Dia 6.) (6mm Spot drill) (Hole machining 1)
(T# 2) (Dia 3.5) (#28 drill) (Hole machining 3)
(T# 3) (Dia 9.5) (.375 Drill) (Hole machining 4)
(T# 4) (Dia 6.35) (6.35mm Cylindrical mill) (rough large thru)
(T# 4) (Dia 6.35) (6.35mm Cylindrical mill) (rough small thru)
(T# 4) (Dia 6.35) (6.35mm Cylindrical mill) (Roughing waterline 2)
(T# 4) (Dia 6.35) (6.35mm Cylindrical mill) (Roughing waterline 3)
(T# 4) (Dia 6.35) (6.35mm Cylindrical mill) (Roughing waterline 4)

N10 G90 G64 G50 G54 G80 G17 G40 G49
N20 G21 (Metric)
(Hole machining 1)
N30 G30
N40 T1 G43 H1 M6
(6mm Spot drill)
N50 S5000 M3
N60 G0 G94 X100. Y0.
N70 Z10.
N80 G81 G98 Z-1. R0.6 F2000.
N90 X68.354 Y22.674
N100 X57.74 Y-8.187
N110 X66.104 Y-24.118
N120 X38.977 Y-19.016
N130 X-38.977 Y19.016
N140 X-66.104 Y24.118
N150 X-57.74 Y8.187
N160 X-68.354 Y-22.674
N170 X-100. Y0.
N180 G80
N190 G30 Z10. M5

(Hole machining 3)
N200 T2 G43 H2 M6
(#28 drill)
N210 S4000 M3 M8
N220 G0 X68.354 Y22.674
N230 Z10.
N240 G83 G98 Z-8.35 R0.35 Q2.45 F600.
N250 X57.74 Y-8.187
N260 X66.104 Y-24.118
N270 X-68.354 Y-22.674
N280 X-57.74 Y8.187
N290 X-66.104 Y24.118
N300 G80
N310 G30 Z10. M5 M9

(Hole machining 4)
N320 T3 G43 H3 M6
(.375 Drill)
N330 S3060 M3 M8
N340 G0 X-100. Y0.
N350 Z10.
N360 G83 G98 Z-9.35 R0.95 Q6.555 F459.
N370 X-38.977 Y19.016
N380 X38.977 Y-19.016
N390 X100. Y0.
N400 G80
N410 G30 Z10. M5 M9

(rough large thru)
N420 T4 G43 H4 M6
(6.35mm Cylindrical mill)
N430 S4000 M3 M8
N440 G0 X99.423 Y0.695
N450 Z15.
N460 Z-0.889
N470 G1 Z-7.239 F800.
N480 X98.862 Y2.651
N490 G3 X97.883 Y2.993 Z-7.239 I-0.61 J-0.175
N500 X102.113 Y-2.989 Z-7.239 I2.115 J-2.991
N510 X97.883 Y2.993 Z-7.239 I-2.115 J2.991
N520 G2 X96.904 Y3.335 Z-7.239 I-0.368 J0.517
N530 G1 X96.41 Y5.062
N540 G3 X98.739 Y6.074 Z-7.239 I3.586 J-5.064
N550 G2 X98.43 Y6.088 Z-7.239 I-0.127 J0.623
N560 G1 X94.936 Y7.131
N570 G3 X97.199 Y8.284 Z-7.239 I5.061 J-7.133
N580 G2 X96.827 Y8.273 Z-7.239 I-0.204 J0.601
N590 G1 X93.462 Y9.199
N600 G3 X95.685 Y10.429 Z-7.239 I6.542 J-9.195
N610 G2 X95.268 Y10.398 Z-7.239 I-0.254 J0.583
N620 G1 X91.989 Y11.268
N630 G3 X92.401 Y11.55 Z-7.239 I8.011 J-11.267
N640 G2 X91.699 Y11.675 Z-7.239 I-0.284 J0.438
N650 G3 X108.297 Y-11.675 Z-7.239 I8.299 J-11.675
N660 X91.699 Y11.675 Z-7.239 I-8.299 J11.675
N670 X91.123 Y10.333 Z-7.239 I0.815 J-1.144
N680 X91.27 Y10.008 Z-7.139 I0.628 J0.089
N690 G1 X99.342 Y0.621
N700 Z-7.239
N710 Z-13.5
N720 X98.542 Y2.49
N730 G3 X97.529 Y2.708 Z-13.5 I-0.583 J-0.249
N740 X102.471 Y-2.705 Z-13.5 I2.471 J-2.706
N750 X97.529 Y2.708 Z-13.5 I-2.471 J2.707
N760 G2 X96.515 Y2.925 Z-13.5 I-0.431 J0.467
N770 G1 X95.808 Y4.576
N780 G3 X97.993 Y5.871 Z-13.5 I4.189 J-4.578
N790 G2 X97.685 Y5.846 Z-13.5 I-0.204 J0.602
N800 G1 X94.088 Y6.445
N810 G3 X96.189 Y7.871 Z-13.5 I5.91 J-6.446
N820 G2 X95.821 Y7.814 Z-13.5 I-0.277 J0.572
N830 G1 X92.367 Y8.314
N840 G3 X94.419 Y9.811 Z-13.5 I7.637 J-8.309
N850 G2 X94.01 Y9.728 Z-13.5 I-0.324 J0.546
N860 G1 X90.647 Y10.182
N870 G3 X91.021 Y10.514 Z-13.5 I9.354 J-10.18
N880 G2 X90.308 Y10.55 Z-13.5 I-0.337 J0.398
N890 G3 X109.689 Y-10.55 Z-13.5 I9.691 J-10.55
N900 X90.308 Y10.55 Z-13.5 I-9.69 J10.55
N910 X89.904 Y9.147 Z-13.5 I0.952 J-1.034
N920 G0 Z15.
N930 X-99.11 Y0.147
N940 Z-0.889
N950 G1 Z-7.239
N960 X-97.153 Y-0.421
N970 G3 X-96.342 Y0.226 Z-7.239 I0.177 J0.61
N980 X-103.654 Y-0.221 Z-7.239 I-3.656 J-0.224
N990 X-96.342 Y0.226 Z-7.239 I3.656 J0.223
N1000 G1 X-93.806 Y0.371
N1010 G3 X-94.176 Y-2.142 Z-7.239 I-6.194 J-0.373
N1020 G2 X-93.994 Y-1.872 Z-7.239 I0.6 J-0.208
N1030 G1 X-91.27 Y0.517
N1040 G3 X-91.489 Y-2.013 Z-7.239 I-8.73 J-0.519
N1050 G2 X-91.304 Y-1.701 Z-7.239 I0.615 J-0.155
N1060 G1 X-88.735 Y0.663
N1070 G3 X-88.872 Y-1.873 Z-7.239 I-11.266 J-0.663
N1080 G2 X-88.678 Y-1.511 Z-7.239 I0.627 J-0.101
N1090 G1 X-86.199 Y0.809
N1100 G3 X-86.178 Y0.309 Z-7.239 I-13.801 J-0.821
N1110 G2 X-85.7 Y0.837 Z-7.239 I0.523 J0.007
N1120 G3 X-114.299 Y-0.829 Z-7.239 I-14.299 J-0.833
N1130 X-85.7 Y0.837 Z-7.239 I14.3 J0.833
N1140 X-86.531 Y2.041 Z-7.239 I-1.403 J-0.08
N1150 X-86.885 Y2.088 Z-7.139 I-0.259 J-0.58
N1160 G1 X-99.126 Y0.223
N1170 Z-7.239
N1180 Z-13.5
N1190 X-97.127 Y-0.173
N1200 G3 X-96.375 Y0.541 Z-13.5 I0.123 J0.623
N1210 X-103.621 Y-0.537 Z-13.5 I-3.623 J-0.539
N1220 X-96.375 Y0.541 Z-13.5 I3.623 J0.539
N1230 G1 X-93.862 Y0.907
N1240 G3 X-94.012 Y-1.629 Z-13.5 I-6.138 J-0.909
N1250 G2 X-93.855 Y-1.345 Z-13.5 I0.616 J-0.155
N1260 G1 X-91.348 Y1.272
N1270 G3 X-91.347 Y-1.268 Z-13.5 I-8.652 J-1.274
N1280 G2 X-91.189 Y-0.941 Z-13.5 I0.627 J-0.101
N1290 G1 X-88.834 Y1.637
N1300 G3 X-88.751 Y-0.901 Z-13.5 I-11.167 J-1.637
N1310 G2 X-88.59 Y-0.523 Z-13.5 I0.633 J-0.046
N1320 G1 X-86.321 Y2.003
N1330 G3 X-86.257 Y1.507 Z-13.5 I-13.678 J-2.015
N1340 G2 X-85.826 Y2.075 Z-13.5 I0.52 J0.052
N1350 G3 X-114.173 Y-2.066 Z-13.5 I-14.174 J-2.071
N1360 X-85.826 Y2.075 Z-13.5 I14.173 J2.07
N1370 X-86.759 Y3.201 Z-13.5 I-1.391 J-0.203
N1380 G0 Z15.

(rough small thru)
N1390 X-38.242 Y19.54
N1400 Z15.
N1410 Z-0.889
N1420 G1 Z-7.239 F560.
N1430 G3 X-39.946 Y20.277 Z-7.239 I-1.271 J-0.6
N1440 X-40.242 Y20.074 Z-7.239 I0.196 J-0.604
N1450 X-39.032 Y17.368 Z-7.239 I1.265 J-1.058
N1460 X-39.062 Y20.663 Z-7.239 I0.055 J1.648
N1470 X-40.242 Y20.074 Z-7.239 I0.083 J-1.644
N1480 G1 X-41.472 Y21.078
N1490 G3 X-41.301 Y21.27 Z-7.239 I2.497 J-2.06
N1500 G1 X-41.314 Y21.256
N1510 X-41.472 Y21.078
N1520 X-42.702 Y22.081
N1530 X-42.907 Y21.815
N1540 X-42.918 Y21.799
N1550 G3 X-43.557 Y20.535 Z-7.239 I3.98 J-2.803
N1560 X-42.365 Y22.451 Z-7.239 I4.579 J-1.52
N1570 G2 X-43.09 Y22.397 Z-7.239 I-0.393 J0.39
N1580 G3 X-34.87 Y15.633 Z-7.239 I4.11 J-3.382
N1590 X-43.09 Y22.397 Z-7.239 I-4.11 J3.382
N1600 X-43.23 Y20.827 Z-7.239 I1.089 J-0.888
N1610 X-42.783 Y20.51 Z-7.139 I0.556 J0.308
N1620 G1 X-38.462 Y19.756
N1630 Z-7.239
N1640 Z-13.5
N1650 G3 X-40.274 Y19.932 Z-13.5 I-1.009 J-0.977
N1660 X-40.498 Y19.652 Z-13.5 I0.363 J-0.521
N1670 X-39.062 Y20.663 Z-13.5 I1.521 J-0.636
N1680 X-40.498 Y19.652 Z-13.5 I0.084 J-1.645
N1690 G2 X-41.657 Y19.617 Z-13.5 I-0.588 J0.242
N1700 G1 X-41.967 Y20.256
N1710 G3 X-41.301 Y21.27 Z-13.5 I2.991 J-1.239
N1720 G1 X-41.314 Y21.256
N1730 G3 X-41.967 Y20.256 Z-13.5 I2.328 J-2.232
N1740 G1 X-43.435 Y20.859
N1750 G3 X-42.907 Y21.815 Z-13.5 I4.46 J-1.84
N1760 G1 X-42.918 Y21.799
N1770 G3 X-43.221 Y21.311 Z-13.5 I3.798 J-2.685
N1780 G2 X-43.898 Y21.049 Z-13.5 I-0.489 J0.26
N1790 G3 X-34.066 Y16.98 Z-13.5 I4.916 J-2.035
N1800 X-43.898 Y21.049 Z-13.5 I-4.916 J2.034
N1810 X-43.574 Y19.504 Z-13.5 I1.3 J-0.534
N1820 G0 Z15.
N1830 X39.485 Y-18.268
N1840 Z-0.889
N1850 G1 Z-7.239
N1860 G3 X37.706 Y-18.068 Z-7.239 I-1.011 J-0.977
N1870 X37.47 Y-18.349 Z-7.239 I0.347 J-0.532
N1880 X38.919 Y-17.369 Z-7.239 I1.507 J-0.667
N1890 X37.47 Y-18.349 Z-7.239 I0.057 J-1.646
N1900 G2 X36.311 Y-18.365 Z-7.239 I-0.584 J0.251
N1910 G1 X36.012 Y-17.721
N1920 G3 X35.894 Y-18.034 Z-7.239 I2.627 J-1.168
N1930 X36.431 Y-19.038 Z-7.239 I0.756 J-0.241
N1940 X37.025 Y-18.905 Z-7.139 I0.175 J0.61
N1950 G1 X37.226 Y-18.728
N1960 G3 X37.435 Y-18.156 Z-7.239 I-0.419 J0.477
N1970 X35.894 Y-18.034 Z-7.239 I-0.785 J-0.119
N1980 X35.778 Y-19.506 Z-7.239 I3.076 J-0.983
N1990 X35.778 Y-19.506 Z-7.239 I0.448 J0.06
N2000 X36.692 Y-16.725 Z-7.239 I3.199 J0.489
N2010 G1 X36.678 Y-16.739
N2020 G3 X36.012 Y-17.721 Z-7.239 I2.29 J-2.27
N2030 G1 X34.553 Y-17.093
N2040 G3 X34.381 Y-17.553 Z-7.239 I3.808 J-1.692
N2050 G1 X34.351 Y-17.647
N2060 G3 X34.695 Y-18.494 Z-7.239 I0.682 J-0.217
N2070 X35.583 Y-17.696 Z-7.139 I0.3 J0.559
N2080 G1 X35.545 Y-17.601
N2090 G3 X34.351 Y-17.647 Z-7.239 I-0.589 J-0.239
N2100 X34.16 Y-19.285 Z-7.239 I4.658 J-1.373
N2110 X35.095 Y-16.153 Z-7.239 I4.817 J0.268
N2120 G1 X35.083 Y-16.169
N2130 G3 X34.776 Y-16.646 Z-7.239 I3.763 J-2.755
N2140 G2 X34.094 Y-16.896 Z-7.239 I-0.485 J0.268
N2150 G3 X43.85 Y-21.14 Z-7.239 I4.878 J-2.122
N2160 X34.094 Y-16.896 Z-7.239 I-4.878 J2.122
N2170 X34.391 Y-18.445 Z-7.239 I1.291 J-0.555
N2180 X34.909 Y-18.627 Z-7.139 I0.449 J0.449
N2190 G1 X39.245 Y-18.153
N2200 Z-7.239
N2210 Z-13.5
N2220 G3 X37.485 Y-18.478 Z-13.5 I-0.683 J-1.228
N2230 X37.341 Y-18.815 Z-13.5 I0.487 J-0.408
N2240 X38.919 Y-17.369 Z-13.5 I1.636 J-0.201
N2250 X37.347 Y-18.769 Z-13.5 I0.057 J-1.646
N2260 G1 X37.341 Y-18.815
N2270 X35.763 Y-18.638
N2280 G3 X36.692 Y-16.725 Z-13.5 I3.214 J-0.378
N2290 G1 X36.678 Y-16.739
N2300 G3 X35.982 Y-17.791 Z-13.5 I2.308 J-2.283
N2310 X35.894 Y-18.034 Z-13.5 I2.664 J-1.099
N2320 X35.902 Y-18.541 Z-13.5 I0.756 J-0.241
N2330 X37.042 Y-18.66 Z-13.4 I0.598 J0.213
N2340 G1 X37.171 Y-18.45
N2350 G3 X36.548 Y-17.488 Z-13.5 I-0.541 J0.332
N2360 X35.894 Y-18.034 Z-13.5 I0.102 J-0.787
N2370 X35.763 Y-18.638 Z-13.5 I2.96 J-0.956
N2380 G1 X34.186 Y-18.46
N2390 G3 X35.095 Y-16.153 Z-13.5 I4.792 J-0.555
N2400 G1 X35.083 Y-16.169
N2410 G3 X34.424 Y-17.422 Z-13.5 I3.933 J-2.868
N2420 G1 X34.381 Y-17.553
N2430 X34.351 Y-17.647
N2440 G3 X34.35 Y-18.077 Z-13.5 I0.682 J-0.217
N2450 X35.591 Y-17.89 Z-13.4 I0.606 J0.189
N2460 G1 Y-17.842
N2470 G3 X34.351 Y-17.647 Z-13.5 I-0.635 J0.002
N2480 X34.269 Y-17.967 Z-13.5 I4.078 J-1.217
N2490 G2 X33.689 Y-18.404 Z-13.5 I-0.542 J0.115
N2500 G3 X44.257 Y-19.634 Z-13.5 I5.284 J-0.615
N2510 X33.689 Y-18.404 Z-13.5 I-5.284 J0.615
N2520 X34.423 Y-19.801 Z-13.5 I1.396 J-0.157
N2530 G0 Z15.

(Roughing waterline 2)
N2540 X86.834 Y3.675
N2550 Z10.
N2560 Z1.5
N2570 G1 Z-4.85 F800.
N2580 X86.128 Y3.862
N2590 G3 X113.868 Y-3.86 Z-4.85 I13.87 J-3.861
N2600 X86.128 Y3.862 Z-4.85 I-13.87 J3.861
N2610 G2 X84.984 Y3.676 Z-4.85 I-0.614 J0.163
N2620 G1 X84.594 Y4.269
N2630 G3 X85.093 Y5.778 Z-4.85 I15.406 J-4.267
N2640 G2 X84.752 Y5.417 Z-4.85 I-0.595 J0.221
N2650 G1 X83.059 Y4.676
N2660 G3 X83.13 Y4.922 Z-4.85 I16.925 J-4.735
N2670 G2 X82.818 Y4.741 Z-4.85 I-0.248 J0.067
N2680 G3 X117.171 Y-4.739 Z-4.85 I17.176 J-4.74
N2690 X82.818 Y4.741 Z-4.85 I-17.177 J4.74
N2700 X83.212 Y3.357 Z-4.85 I1.358 J-0.361
N2710 G0 Z10.
N2720 X-86.373 Y-1.097
N2730 Z1.5
N2740 G1 Z-4.85
N2750 G3 X-85.655 Y-0.377 Z-4.85 I-0.569 J1.285
N2760 X-85.602 Y-0.125 Z-4.85 I-0.582 J0.256
N2770 X-114.392 Y0.129 Z-4.85 I-14.395 J0.127
N2780 X-85.602 Y-0.125 Z-4.85 I14.395 J-0.127
N2790 G1 X-84.014 Y-0.132
N2800 G3 X-84.106 Y-1.717 Z-4.85 I-15.987 J0.131
N2810 G2 X-83.869 Y-1.285 Z-4.85 I0.632 J-0.065
N2820 G1 X-82.427 Y-0.14
N2830 G3 X-82.43 Y-0.39 Z-4.85 I-17.574 J0.114
N2840 G2 X-82.177 Y-0.141 Z-4.85 I0.256 J-0.008
N2850 G3 X-117.825 Y0.142 Z-4.85 I-17.824 J0.141
N2860 X-82.177 Y-0.141 Z-4.85 I17.824 J-0.142
N2870 X-82.916 Y1.103 Z-4.85 I-1.405 J0.007
N2880 G0 Z10.

(Roughing waterline 3)
N2890 X34.594 Y-17.423
N2900 Z10.
N2910 Z1.35
N2920 G1 Z-5.
N2930 X33.938 Y-17.226
N2940 G3 X33.133 Y-17.708 Z-5. I-0.182 J-0.608
N2950 X44.817 Y-20.325 Z-5. I5.842 J-1.308
N2960 X33.133 Y-17.708 Z-5. I-5.842 J1.309
N2970 G2 X32.002 Y-17.961 Z-5. I-0.622 J0.127
N2980 G1 X31.578 Y-17.392
N2990 G3 X31.637 Y-17.147 Z-5. I7.393 J-1.652
N3000 G2 X31.333 Y-17.342 Z-5. I-0.255 J0.063
N3010 G3 X46.613 Y-20.693 Z-5. I7.64 J-1.675
N3020 X31.333 Y-17.342 Z-5. I-7.64 J1.676
N3030 X31.86 Y-18.741 Z-5. I1.377 J-0.28
N3040 G0 Z10.
N3050 X-35.227 Y16.244
N3060 Z1.35
N3070 G1 Z-5.
N3080 X-34.657 Y15.868
N3090 G3 X-33.747 Y16.099 Z-5. I0.349 J0.53
N3100 X-44.203 Y21.933 Z-5. I-5.228 J2.917
N3110 X-33.747 Y16.099 Z-5. I5.228 J-2.917
N3120 G2 X-32.591 Y16.019 Z-5. I0.56 J-0.298
N3130 G1 X-32.346 Y15.353
N3140 G3 X-32.475 Y15.13 Z-5. I-6.619 J3.686
N3150 G2 X-32.126 Y15.235 Z-5. I0.229 J-0.129
N3160 G3 X-45.819 Y22.798 Z-5. I-6.846 J3.781
N3170 X-32.126 Y15.235 Z-5. I6.847 J-3.782
N3180 X-32.232 Y16.727 Z-5. I-1.24 J0.661
N3190 G0 Z10.

(Roughing waterline 4)
N3200 X104.989 Y36.297
N3210 Z13.
N3220 Z-7.15
N3230 G1 Z-13.5
N3240 X105.206 Y35.7
N3250 G3 X106.178 Y34.883 Z-13.5 I1.193 J0.433
N3260 G2 X110.982 Y33.68 Z-13.5 I-6.177 J-34.883
N3270 G3 X114.092 Y33.063 Z-13.5 I4.424 J14.142
N3280 X119.691 Y32.783 Z-13.5 I6.03 J64.371
N3290 X133.641 Y32.727 Z-13.5 I11.004 J1014.403
N3300 G2 X134.762 Y32.323 Z-13.5 I-0.085 J-1.992
N3310 X136.124 Y30.715 Z-13.5 I-2.729 J-3.692
N3320 X136.962 Y28.391 Z-13.5 I-8.255 J-4.288
N3330 X137.497 Y24.491 Z-13.5 I-23.984 J-5.275
N3340 X137.695 Y17.766 Z-13.5 I-115.584 J-6.775
N3350 G1 X137.717 Y11.969
N3360 X137.732 Y0.376
N3370 X137.724 Y-5.421
N3380 X137.726 Y-28.598
N3390 G2 X137.319 Y-29.766 Z-13.5 I-1.999 J0.043
N3400 X135.72 Y-31.118 Z-13.5 I-3.693 J2.746
N3410 X133.386 Y-31.962 Z-13.5 I-4.295 J8.227
N3420 X129.487 Y-32.497 Z-13.5 I-5.272 J23.942
N3430 X122.761 Y-32.695 Z-13.5 I-6.766 J115.378
N3440 X113.863 Y-32.721 Z-13.5 I-8.01 J1234.482
N3450 G1 X113.827
N3460 G3 X113.459 Y-32.775 Z-13.5 I0. J-1.27
N3470 X113.29 Y-32.838 Z-13.5 I0.611 J-1.901
N3480 G2 X106.631 Y-34.799 Z-13.5 I-13.289 J32.838
N3490 G3 X105.669 Y-35.629 Z-13.5 I0.237 J-1.248
N3500 G1 X105.46 Y-36.229
N3510 G0 Z13.
N3520 X110.372 Y35.139
N3530 Z-7.15
N3540 G1 Z-13.5
N3550 X110.497 Y34.517
N3560 G3 X111.336 Y33.563 Z-13.5 I1.245 J0.249
N3570 G2 X115.278 Y31.962 Z-13.5 I-11.335 J-33.563
N3580 G3 X117.883 Y31.163 Z-13.5 I4.184 J9.004
N3590 X122.136 Y30.731 Z-13.5 I5.427 J32.264
N3600 X130.022 Y30.583 Z-13.5 I7.549 J191.606
N3610 G2 X132.226 Y29.769 Z-13.5 I-0.027 J-3.467
N3620 X133.832 Y27.688 Z-13.5 I-3.811 J-4.6
N3630 X134.843 Y24.53 Z-13.5 I-11.566 J-5.443
N3640 X135.378 Y19.675 Z-13.5 I-34.014 J-6.202
N3650 X135.547 Y11.374 Z-13.5 I-188.512 J-7.988
N3660 G1 X135.576 Y-2.439
N3670 X135.566 Y-16.253
N3680 X135.567 Y-24.826
N3690 G2 X134.68 Y-27.318 Z-13.5 I-3.546 J-0.142
N3700 X132.683 Y-28.828 Z-13.5 I-4.562 J3.957
N3710 X129.526 Y-29.842 Z-13.5 I-5.44 J11.523
N3720 X124.671 Y-30.378 Z-13.5 I-6.2 J33.913
N3730 X118.295 Y-30.534 Z-13.5 I-6.893 J151.426
N3740 G3 X117.705 Y-30.685 Z-13.5 I0.011 J-1.269
N3750 X117.618 Y-30.734 Z-13.5 I1.758 J-3.198
N3760 G2 X113.576 Y-32.721 Z-13.5 I-17.617 J30.734
N3770 G3 X112.804 Y-33.729 Z-13.5 I0.487 J-1.173
N3780 G1 X112.721 Y-34.359
N3790 G0 Z13.
N3800 X114.833 Y33.501
N3810 Z-7.15
N3820 G1 Z-13.5
N3830 X114.877 Y32.868
N3840 G3 X115.585 Y31.813 Z-13.5 I1.267 J0.086
N3850 G2 X118.643 Y30.123 Z-13.5 I-15.584 J-31.813
N3860 G3 X120.696 Y29.295 Z-13.5 I3.806 J6.471
N3870 X124.537 Y28.698 Z-13.5 I5.317 J21.561
N3880 X127.023 Y28.551 Z-13.5 I4.736 J58.969
N3890 G2 X130.306 Y27.033 Z-13.5 I-0.145 J-4.623
N3900 X131.72 Y24.817 Z-13.5 I-5.531 J-5.091
N3910 X132.721 Y21.316 Z-13.5 I-14.114 J-5.927
N3920 X133.228 Y16.149 Z-13.5 I-40.933 J-6.624
N3930 X133.344 Y12.164 Z-13.5 I-131.596 J-5.832
N3940 G3 X133.404 Y11.798 Z-13.5 I1.27 J0.021
N3950 X133.437 Y11.704 Z-13.5 I3.532 J1.168
N3960 G2 X134.22 Y-9.163 Z-13.5 I-33.436 J-11.704
N3970 G3 X133.69 Y-12.354 Z-13.5 I17.379 J-4.528
N3980 X133.45 Y-18.29 Z-13.5 I80.443 J-6.225
N3990 X133.422 Y-21.772 Z-13.5 I389.214 J-4.894
N4000 G2 X133.072 Y-23.745 Z-13.5 I-4.54 J-0.212
N4010 X131.359 Y-25.807 Z-13.5 I-4.704 J2.166
N4020 X128.434 Y-27.207 Z-13.5 I-5.632 J8.007
N4030 X124.237 Y-28.001 Z-13.5 I-6.201 J21.309
N4040 X121.808 Y-28.191 Z-13.5 I-5.09 J49.274
N4050 G3 X121.126 Y-28.437 Z-13.5 I0.072 J-1.268
N4060 G1 X120.918 Y-28.59
N4070 G2 X117.673 Y-30.703 Z-13.5 I-20.917 J28.59
N4080 G3 X117.036 Y-31.802 Z-13.5 I0.633 J-1.1
N4090 G1 X117.035 Y-32.437
N4100 G3 X117.942 Y-33.012 Z-13.4 I0.635 J-0.001
N4110 G1 X130.909 Y-26.856 F2400.
N4120 G3 X133.732 Y-23.813 Z-13.4 I-2.82 J5.447
N4130 X134.004 Y-22.784 Z-13.4 I-4.544 J1.752
N4140 G1 X136.416 Y-9.25
N4150 G3 X135.633 Y-8.523 Z-13.5 I-0.625 J0.112 F800.
N4160 G1 X135.018 Y-8.68
N4170 G3 X134.11 Y-9.567 Z-13.5 I0.314 J-1.231
N4180 G2 X132.518 Y-14.056 Z-13.5 I-34.109 J9.567
N4190 G3 X131.779 Y-16.723 Z-13.5 I10.039 J-4.219
N4200 X131.5 Y-19.136 Z-13.5 I27.554 J-4.405
N4210 G2 X131.076 Y-21.133 Z-13.5 I-6.11 J0.253
N4220 X129.191 Y-23.46 Z-13.5 I-5.129 J2.23
N4230 X126.38 Y-24.875 Z-13.5 I-5.827 J8.079
N4240 X125.075 Y-25.25 Z-13.5 I-5.091 J15.242
N4250 G3 X124.562 Y-25.529 Z-13.5 I0.311 J-1.182
N4260 X124.493 Y-25.594 Z-13.5 I2.708 J-2.917
N4270 G2 X121.123 Y-28.44 Z-13.5 I-24.492 J25.594
N4280 G3 X120.618 Y-29.605 Z-13.5 I0.757 J-1.019
N4290 G1 X120.691 Y-30.236
N4300 G3 X121.733 Y-30.647 Z-13.4 I0.631 J0.073
N4310 G1 X130.18 Y-23.472 F2400.
N4320 G3 X131.581 Y-21.558 Z-13.4 I-4.21 J4.551
N4330 G1 X134.685 Y-14.448
N4340 G3 X134.036 Y-13.562 Z-13.5 I-0.582 J0.254 F800.
N4350 G1 X133.404 Y-13.629
N4360 G3 X132.378 Y-14.377 Z-13.5 I0.134 J-1.263
N4370 G2 X124.539 Y-25.55 Z-13.5 I-32.377 J14.377
N4380 G3 X124.186 Y-26.77 Z-13.5 I0.88 J-0.917
N4390 G1 X124.337 Y-27.387
N4400 G0 Z13.
N4410 X118.3 Y31.741
N4420 Z-7.15
N4430 G1 Z-13.5
N4440 X118.276 Y31.106
N4450 G3 X118.868 Y29.983 Z-13.5 I1.269 J-0.048
N4460 G2 X121.327 Y28.287 Z-13.5 I-18.867 J-29.983
N4470 G3 X122.996 Y27.444 Z-13.5 I3.546 J4.95
N4480 X124.669 Y26.983 Z-13.5 I4.745 J13.928
N4490 G2 X127.064 Y25.908 Z-13.5 I-1.33 J-6.17
N4500 X129.108 Y23.42 Z-13.5 I-4.535 J-5.809
N4510 X130.319 Y19.981 Z-13.5 I-12.249 J-6.245
N4520 X130.689 Y17.883 Z-13.5 I-24.044 J-5.327
N4530 G3 X130.792 Y17.527 Z-13.5 I1.259 J0.171
N4540 X130.873 Y17.374 Z-13.5 I1.851 J0.882
N4550 G2 X133.416 Y11.764 Z-13.5 I-30.872 J-17.374
N4560 G3 X134.38 Y10.937 Z-13.5 I1.198 J0.421
N4570 G1 X135.004 Y10.82
N4580 G3 X135.689 Y11.729 Z-13.4 I0.117 J0.624
N4590 G1 X129.705 Y23.665 F2400.
N4600 G3 X127.312 Y26.513 Z-13.4 I-7.241 J-3.655
N4610 G1 X122.073 Y30.406
N4620 G3 X121.065 Y29.977 Z-13.5 I-0.378 J-0.51 F800.
N4630 G1 X120.984 Y29.347
N4640 G3 X121.474 Y28.176 Z-13.5 I1.26 J-0.161
N4650 G2 X130.842 Y17.429 Z-13.5 I-21.473 J-28.176
N4660 G3 X131.936 Y16.784 Z-13.5 I1.106 J0.625
N4670 G1 X132.571 Y16.778
N4680 G0 Z13.
N4690 X100.843 Y35.569
N4700 Z-7.15
N4710 G1 Z-13.5
N4720 G3 X101.906 Y34.875 Z-13.5 I1.133 J0.574
N4730 G2 X101.905 Y-34.872 Z-13.5 I-1.906 J-34.873
N4740 G1 X101.906 Y-34.883
N4750 G0 Z13.
N4760 X-104.99 Y-36.296
N4770 Z-7.15
N4780 G1 Z-13.5
N4790 X-105.207 Y-35.699
N4800 G3 X-106.179 Y-34.882 Z-13.5 I-1.193 J-0.434
N4810 G2 X-110.983 Y-33.68 Z-13.5 I6.18 J34.884
N4820 G3 X-114.093 Y-33.063 Z-13.5 I-4.424 J-14.153
N4830 X-119.692 Y-32.783 Z-13.5 I-6.03 J-64.415
N4840 X-133.642 Y-32.727 Z-13.5 I-11.004 J-1015.08
N4850 G2 X-134.766 Y-32.321 Z-13.5 I0.086 J1.994
N4860 X-136.199 Y-30.573 Z-13.5 I2.844 J3.795
N4870 X-137.035 Y-28.066 Z-13.5 I9.148 J4.443
N4880 X-137.538 Y-23.845 Z-13.5 I27.699 J5.439
N4890 X-137.704 Y-16.493 Z-13.5 I152.663 J7.129
N4900 G1 X-137.733 Y-5.536
N4910 X-137.724 Y5.421
N4920 X-137.726 Y28.598
N4930 G2 X-137.319 Y29.765 Z-13.5 I1.998 J-0.042
N4940 X-135.723 Y31.116 Z-13.5 I3.69 J-2.742
N4950 X-133.391 Y31.961 Z-13.5 I4.294 J-8.215
N4960 X-129.491 Y32.497 Z-13.5 I5.273 J-23.909
N4970 X-122.766 Y32.695 Z-13.5 I6.766 J-115.223
N4980 X-113.867 Y32.721 Z-13.5 I8.01 J-1232.806
N4990 G1 X-113.822
N5000 G3 X-113.454 Y32.775 Z-13.5 I0. J1.27
N5010 X-113.285 Y32.838 Z-13.5 I-0.611 J1.902
N5020 G2 X-106.688 Y34.786 Z-13.5 I13.283 J-32.839
N5030 G3 X-105.728 Y35.617 Z-13.5 I-0.239 J1.247
N5040 G1 X-105.52 Y36.217
N5050 G0 Z13.
N5060 X-110.373 Y-35.139
N5070 Z-7.15
N5080 G1 Z-13.5
N5090 X-110.498 Y-34.516
N5100 G3 X-111.336 Y-33.562 Z-13.5 I-1.245 J-0.25
N5110 G2 X-115.279 Y-31.961 Z-13.5 I11.337 J33.564
N5120 G3 X-117.884 Y-31.163 Z-13.5 I-4.185 J-9.012
N5130 X-122.137 Y-30.731 Z-13.5 I-5.428 J-32.285
N5140 X-130.023 Y-30.583 Z-13.5 I-7.55 J-191.732
N5150 G2 X-132.227 Y-29.77 Z-13.5 I0.027 J3.464
N5160 X-133.832 Y-27.688 Z-13.5 I3.812 J4.601
N5170 X-134.843 Y-24.53 Z-13.5 I11.566 J5.443
N5180 X-135.378 Y-19.675 Z-13.5 I34.015 J6.202
N5190 X-135.547 Y-11.375 Z-13.5 I188.52 J7.988
N5200 G1 X-135.576 Y2.439
N5210 X-135.566 Y16.253
N5220 X-135.567 Y24.826
N5230 G2 X-134.682 Y27.316 Z-13.5 I3.545 J0.142
N5240 X-132.687 Y28.826 Z-13.5 I4.561 J-3.951
N5250 X-129.53 Y29.841 Z-13.5 I5.441 J-11.509
N5260 X-124.675 Y30.377 Z-13.5 I6.2 J-33.875
N5270 X-118.291 Y30.534 Z-13.5 I6.897 J-151.385
N5280 G3 X-117.702 Y30.685 Z-13.5 I-0.012 J1.269
N5290 X-117.614 Y30.734 Z-13.5 I-1.763 J3.209
N5300 G2 X-113.571 Y32.721 Z-13.5 I17.612 J-30.735
N5310 G3 X-112.799 Y33.729 Z-13.5 I-0.487 J1.173
N5320 G1 X-112.716 Y34.358
N5330 G0 Z13.
N5340 X-114.834 Y-33.5
N5350 Z-7.15
N5360 G1 Z-13.5
N5370 X-114.877 Y-32.867
N5380 G3 X-115.586 Y-31.813 Z-13.5 I-1.267 J-0.086
N5390 G2 X-118.644 Y-30.122 Z-13.5 I15.587 J31.815
N5400 G3 X-120.697 Y-29.294 Z-13.5 I-3.807 J-6.477
N5410 X-124.538 Y-28.698 Z-13.5 I-5.318 J-21.577
N5420 X-127.025 Y-28.551 Z-13.5 I-4.735 J-58.986
N5430 G2 X-130.306 Y-27.033 Z-13.5 I0.147 J4.623
N5440 X-131.72 Y-24.817 Z-13.5 I5.531 J5.091
N5450 X-132.721 Y-21.316 Z-13.5 I14.114 J5.927
N5460 X-133.228 Y-16.149 Z-13.5 I40.933 J6.624
N5470 X-133.344 Y-12.165 Z-13.5 I131.585 J5.832
N5480 G3 X-133.404 Y-11.799 Z-13.5 I-1.27 J-0.021
N5490 X-133.423 Y-11.744 Z-13.5 I-1.982 J-0.647
N5500 G2 X-134.211 Y9.196 Z-13.5 I33.42 J11.743
N5510 G3 X-133.687 Y12.391 Z-13.5 I-17.62 J4.534
N5520 X-133.45 Y18.328 Z-13.5 I-81.437 J6.227
N5530 X-133.422 Y21.811 Z-13.5 I-394.461 J4.9
N5540 G2 X-132.98 Y23.941 Z-13.5 I4.437 J0.19
N5550 X-131.12 Y25.974 Z-13.5 I4.77 J-2.495
N5560 X-128.119 Y27.301 Z-13.5 I5.684 J-8.802
N5570 X-123.917 Y28.033 Z-13.5 I6.189 J-23.089
N5580 X-121.806 Y28.191 Z-13.5 I4.91 J-51.301
N5590 G3 X-121.124 Y28.437 Z-13.5 I-0.071 J1.268
N5600 G1 X-120.916 Y28.59
N5610 G2 X-117.669 Y30.703 Z-13.5 I20.914 J-28.591
N5620 G3 X-117.033 Y31.802 Z-13.5 I-0.634 J1.101
N5630 G1 X-117.032 Y32.437
N5640 G3 X-117.939 Y33.011 Z-13.4 I-0.635 J0.001
N5650 G1 X-130.912 Y26.854 F2400.
N5660 G3 X-133.633 Y24.047 Z-13.4 I2.902 J-5.536
N5670 X-133.977 Y22.946 Z-13.4 I4.525 J-2.016
N5680 G1 X-136.415 Y9.252
N5690 G3 X-135.633 Y8.526 Z-13.5 I0.625 J-0.111 F800.
N5700 G1 X-135.017 Y8.683
N5710 G3 X-134.109 Y9.57 Z-13.5 I-0.314 J1.23
N5720 G2 X-132.517 Y14.058 Z-13.5 I34.107 J-9.571
N5730 G3 X-131.778 Y16.727 Z-13.5 I-10.057 J4.22
N5740 X-131.5 Y19.14 Z-13.5 I-27.651 J4.412
N5750 G2 X-131.077 Y21.131 Z-13.5 I6.107 J-0.256
N5760 X-129.194 Y23.458 Z-13.5 I5.129 J-2.226
N5770 X-126.54 Y24.82 Z-13.5 I5.691 J-7.818
N5780 X-125.104 Y25.242 Z-13.5 I4.997 J-14.345
N5790 G3 X-124.567 Y25.524 Z-13.5 I-0.304 J1.234
N5800 X-124.482 Y25.603 Z-13.5 I-1.979 J2.187
N5810 G2 X-121.12 Y28.44 Z-13.5 I24.48 J-25.604
N5820 G3 X-120.616 Y29.605 Z-13.5 I-0.757 J1.019
N5830 G1 X-120.689 Y30.236
N5840 G3 X-121.73 Y30.647 Z-13.4 I-0.631 J-0.073
N5850 G1 X-130.207 Y23.444 F2400.
N5860 G3 X-131.571 Y21.583 Z-13.4 I4.215 J-4.52
N5870 G1 X-134.683 Y14.45
N5880 G3 X-134.034 Y13.565 Z-13.5 I0.582 J-0.253 F800.
N5890 G1 X-133.403 Y13.632
N5900 G3 X-132.376 Y14.379 Z-13.5 I-0.134 J1.263
N5910 G2 X-124.528 Y25.559 Z-13.5 I32.374 J-14.38
N5920 G3 X-124.174 Y26.779 Z-13.5 I-0.88 J0.917
N5930 G1 X-124.326 Y27.395
N5940 G0 Z13.
N5950 X-118.301 Y-31.74
N5960 Z-7.15
N5970 G1 Z-13.5
N5980 X-118.276 Y-31.105
N5990 G3 X-118.869 Y-29.982 Z-13.5 I-1.269 J0.048
N6000 G2 X-121.328 Y-28.286 Z-13.5 I18.87 J29.984
N6010 G3 X-122.998 Y-27.444 Z-13.5 I-3.547 J-4.955
N6020 X-124.67 Y-26.982 Z-13.5 I-4.751 J-13.957
N6030 G2 X-127.063 Y-25.908 Z-13.5 I1.33 J6.167
N6040 X-129.108 Y-23.42 Z-13.5 I4.533 J5.809
N6050 X-130.319 Y-19.981 Z-13.5 I12.248 J6.245
N6060 X-130.689 Y-17.883 Z-13.5 I24.044 J5.327
N6070 G3 X-130.792 Y-17.527 Z-13.5 I-1.259 J-0.171
N6080 X-130.873 Y-17.374 Z-13.5 I-1.851 J-0.882
N6090 G2 X-133.416 Y-11.764 Z-13.5 I30.874 J17.376
N6100 G3 X-134.38 Y-10.938 Z-13.5 I-1.198 J-0.422
N6110 G1 X-135.004 Y-10.821
N6120 G3 X-135.689 Y-11.73 Z-13.4 I-0.117 J-0.624
N6130 G1 X-129.705 Y-23.665 F2400.
N6140 G3 X-127.313 Y-26.513 Z-13.4 I7.241 J3.656
N6150 G1 X-122.074 Y-30.405
N6160 G3 X-121.066 Y-29.976 Z-13.5 I0.378 J0.51 F800.
N6170 G1 X-120.985 Y-29.346
N6180 G3 X-121.475 Y-28.174 Z-13.5 I-1.26 J0.161
N6190 G2 X-130.842 Y-17.429 Z-13.5 I21.476 J28.176
N6200 G3 X-131.936 Y-16.784 Z-13.5 I-1.106 J-0.625
N6210 G1 X-132.571 Y-16.778
N6220 G0 Z13.
N6230 X-100.814 Y-35.569
N6240 Z-7.15
N6250 G1 Z-13.5
N6260 G3 X-101.878 Y-34.876 Z-13.5 I-1.132 J-0.575
N6270 G2 X-101.936 Y34.872 Z-13.5 I1.878 J34.876
N6280 G1 Y34.883
N6290 G0 Z13.
N6300 G30 Z13. M5 M9
N6310 M30
%
