%
(top_plate)

(POSTPROCESSOR: top_plate)
(GENERATED BY SprutCAM)
(DATE: 2/12/2025)
(TIME: 2:04:45 AM)

(T# 1) (Dia 6.) (6mm Spot drill) (Hole machining 1)
(T# 2) (Dia 3.5) (#28 drill) (Hole machining 2)
(T# 3) (Dia 9.5) (.375 Drill) (Hole machining 3)
(T# 4) (Dia 6.35) (6.35mm Cylindrical mill) (Roughing waterline 2)
(T# 4) (Dia 6.35) (6.35mm Cylindrical mill) (Roughing waterline 1)
(T# 4) (Dia 6.35) (6.35mm Cylindrical mill) (Roughing waterline 3)
(T# 4) (Dia 6.35) (6.35mm Cylindrical mill) (Roughing waterline 4)
(T# 4) (Dia 6.35) (6.35mm Cylindrical mill) (Roughing waterline 5)

N10 G90 G64 G50 G54 G80 G17 G40 G49
N20 G21 (Metric)
(Hole machining 1)
N30 G30
N40 T1 G43 H1 M6
(6mm Spot drill)
N50 S5000 M3 M8
N60 G0 G94 X-100. Y25.
N70 Z10.
N80 G81 G98 Z-1. R0.61 F500.
N90 X-82.5
N100 X-68.354 Y22.674
N110 X-100. Y0.
N120 Y-25.
N130 X-82.5
N140 X-66.104 Y-24.118
N150 X-38.977 Y-19.016
N160 X-56.894 Y6.407
N170 X-42.261
N180 X-19.528
N190 X-4.894
N200 X4.894 Y-6.407
N210 X19.528
N220 X42.261
N230 X56.894
N240 X68.354 Y-22.674
N250 X82.5 Y-25.
N260 X100.
N270 Y0.
N280 Y25.
N290 X82.5
N300 X66.104 Y24.118
N310 X38.977 Y19.016
N320 G80
N330 G30 Z10. M5 M9

(Hole machining 2)
N340 T2 G43 H2 M6
(#28 drill)
N350 S5000 M3 M8
N360 G0 X100. Y25.
N370 Z10.
N380 G73 G98 Z-9.35 R-0.2415 Q2.625 F500.
N390 X82.5
N400 X66.104 Y24.118
N410 X100. Y-25.
N420 X82.5
N430 X68.354 Y-22.674 R-0.2315
N440 X56.894 Y-6.407
N450 X4.894
N460 X-4.894 Y6.407
N470 X-56.894
N480 X-68.354 Y22.674
N490 X-82.5 Y25. R-0.2415
N500 X-100.
N510 Y-25.
N520 X-82.5
N530 X-66.104 Y-24.118
N540 G80
N550 G30 Z10. M5 M9

(Hole machining 3)
N560 T3 G43 H3 M6
(.375 Drill)
N570 S3060 M3 M8
N580 G0 X-100. Y0.
N590 Z10.
N600 G83 G98 Z-9.35 R0.3659 Q2.85 F306.
N610 X-38.977 Y-19.016
N620 X-42.261 Y6.407
N630 X-19.528
N640 X19.528 Y-6.407
N650 X42.261
N660 X38.977 Y19.016
N670 X100. Y0.
N680 G80
N690 G30 Z10. M5 M9

(Roughing waterline 2)
N700 T4 G43 H4 M6
(6.35mm Cylindrical mill)
N710 S5113 M3 M8
N720 G0 X100.915 Y1.142
N730 Z10.
N740 Z-7.15
N750 G1 Z-13.5 F613.561
N760 X100.339 Y1.41
N770 G3 X99.074 Y1.3 Z-13.5 I-0.537 J-1.15
N780 G2 X98.316 Y0.91 Z-13.5 I-1.82 J2.602
N790 G3 X97.583 Y-0.202 Z-13.5 I0.726 J-1.276
N800 X98.577 Y-2.374 Z-13.5 I2.259 J-0.279
N810 X102.387 Y-1.684 Z-13.5 I1.555 J2.278
N820 X100.163 Y2.941 Z-13.5 I-2.376 J1.705
N830 X97.536 Y2.272 Z-13.5 I-0.403 J-3.905
N840 X96.284 Y-1.702 Z-13.5 I2.073 J-2.838
N850 X99.914 Y-4.439 Z-13.5 I3.826 J1.298
N860 X104.579 Y0.127 Z-13.5 I0.227 J4.433
N870 X101.669 Y4.286 Z-13.5 I-4.605 J-0.124
N880 X94.901 Y1.749 Z-13.5 I-2.031 J-4.879
N890 X95.351 Y-3.738 Z-13.5 I4.915 J-2.359
N900 X101.598 Y-6.092 Z-13.5 I4.855 J3.42
N910 X106.359 Y0.849 Z-13.5 I-1.457 J6.103
N920 X102.722 Y5.847 Z-13.5 I-6.457 J-0.876
N930 X92.471 Y-0.929 Z-13.5 I-3.121 J-6.42
N940 X97.804 Y-7.816 Z-13.5 I7.607 J0.382
N950 X107.668 Y-3.327 Z-13.5 I2.433 J7.737
N960 X105.124 Y6.672 Z-13.5 I-7.68 J3.369
N970 X92.338 Y4.991 Z-13.5 I-5.561 J-7.166
N980 X92.189 Y-6.106 Z-13.5 I7.472 J-5.65
N990 X103.328 Y-9.768 Z-13.5 I8.068 J5.768
N1000 X109.706 Y3.9 Z-13.5 I-3.189 J9.811
N1010 X100.681 Y10.619 Z-13.5 I-10.047 J-4.076
N1020 X88.349 Y-0.08 Z-13.5 I-1.087 J-11.204
N1030 X95.517 Y-11.41 Z-13.5 I11.718 J-0.519
N1040 X110.495 Y-6.881 Z-13.5 I4.76 J11.289
N1050 X109.055 Y8.806 Z-13.5 I-10.485 J6.947
N1060 X93.312 Y11.281 Z-13.5 I-9.511 J-9.189
N1070 X86.183 Y0.076 Z-13.5 I6.333 J-11.9
N1080 X86.794 Y-4.096 Z-13.5 I13.305 J-0.18
N1090 X86.174 Y-0.123 Z-13.5 I13.206 J4.096
N1100 X86.819 Y-1.217 Z-13.5 I1.27 J0.012
N1110 G1 X87.372 Y-1.529
N1120 X85.779 Y-1.752
N1130 X85.797 Y-1.9
N1140 X85.839 Y-2.173
N1150 G3 X85.781 Y-1.752 Z-13.5 I14.161 J2.173
N1160 G1 X85.793 Y-1.75
N1170 G0 Z10.
N1180 X39.899 Y20.168
N1190 Z-7.15
N1200 G1 Z-13.5
N1210 X39.323 Y20.435
N1220 G3 X38.058 Y20.321 Z-13.5 I-0.534 J-1.153
N1230 G2 X37.301 Y19.928 Z-13.5 I-1.828 J2.595
N1240 G3 X36.587 Y18.943 Z-13.5 I0.676 J-1.242
N1250 X37.39 Y16.771 Z-13.5 I2.185 J-0.426
N1260 X41.207 Y17.152 Z-13.5 I1.714 J2.139
N1270 X39.101 Y21.955 Z-13.5 I-2.226 J1.887
N1280 X36.692 Y21.403 Z-13.5 I-0.378 J-3.883
N1290 X36.502 Y21.239 Z-13.5 I0.731 J-1.038
N1300 X41.433 Y16.772 Z-13.5 I2.475 J-2.223
N1310 X36.464 Y21.197 Z-13.5 I-2.456 J2.244
N1320 X36.223 Y19.95 Z-13.5 I0.96 J-0.832
N1330 G1 X36.431 Y19.35
N1340 X35.186 Y19.551
N1350 G3 X42.754 Y18.398 Z-13.5 I3.791 J-0.535
N1360 X35.187 Y19.55 Z-13.5 I-3.777 J0.618
N1370 G1 X35.2 Y19.549
N1380 G0 Z10.
N1390 X-38.391 Y-17.683
N1400 Z-7.15
N1410 G1 Z-13.5
N1420 X-39.016 Y-17.573
N1430 G3 X-40.209 Y-18.009 Z-13.5 I-0.22 J-1.251
N1440 G2 X-40.84 Y-18.583 Z-13.5 I-2.434 J2.039
N1450 G3 X-41.26 Y-19.838 Z-13.5 I1.032 J-1.043
N1460 X-39.841 Y-21.639 Z-13.5 I2.232 J0.3
N1470 X-36.236 Y-20.003 Z-13.5 I1.008 J2.568
N1480 X-39.629 Y-16.148 Z-13.5 I-2.742 J1.008
N1490 X-41.74 Y-17.241 Z-13.5 I0.704 J-3.942
N1500 X-41.961 Y-17.545 Z-13.5 I0.905 J-0.891
N1510 X-36.003 Y-20.509 Z-13.5 I2.984 J-1.472
N1520 X-41.981 Y-17.586 Z-13.5 I-2.974 J1.493
N1530 X-41.88 Y-18.852 Z-13.5 I1.147 J-0.545
N1540 G1 X-41.52 Y-19.375
N1550 X-42.777 Y-19.493
N1560 X-42.758 Y-19.644
N1570 X-42.717 Y-19.832
N1580 G3 X-42.775 Y-19.493 Z-13.5 I3.74 J0.816
N1590 G1 X-42.761 Y-19.491
N1600 G0 Z10.
N1610 X-99.429 Y1.318
N1620 Z-7.15
N1630 G1 Z-13.5
N1640 X-100.055 Y1.427
N1650 G3 X-101.247 Y0.989 Z-13.5 I-0.217 J-1.252
N1660 G2 X-101.877 Y0.414 Z-13.5 I-2.438 J2.035
N1670 G3 X-102.28 Y-0.764 Z-13.5 I1.053 J-1.019
N1680 X-101.08 Y-2.517 Z-13.5 I2.195 J0.216
N1690 X-97.62 Y-1.659 Z-13.5 I1.236 J2.418
N1700 X-100.671 Y2.868 Z-13.5 I-2.381 J1.687
N1710 X-102.997 Y1.509 Z-13.5 I0.689 J-3.849
N1720 X-103.134 Y-2.63 Z-13.5 I2.767 J-2.164
N1730 X-98.741 Y-4.253 Z-13.5 I3.338 J2.278
N1740 X-95.849 Y1.904 Z-13.5 I-1.149 J4.297
N1750 X-99.788 Y4.595 Z-13.5 I-4.19 J-1.904
N1760 X-104.555 Y-3.658 Z-13.5 I-0.408 J-5.267
N1770 X-98.43 Y-6.036 Z-13.5 I4.799 J3.283
N1780 X-93.669 Y0.883 Z-13.5 I-1.411 J6.069
N1790 X-98.816 Y6.332 Z-13.5 I-6.397 J-0.888
N1800 X-107.054 Y-2.784 Z-13.5 I-1.424 J-6.993
N1810 X-100.167 Y-8.107 Z-13.5 I7.259 J2.275
N1820 X-91.758 Y-1.274 Z-13.5 I0.404 J8.095
N1830 X-97.008 Y7.857 Z-13.5 I-8.278 J1.315
N1840 X-108.881 Y2.335 Z-13.5 I-3.287 J-8.458
N1850 X-105.539 Y-8.25 Z-13.5 I8.878 J-3.017
N1860 X-93.81 Y-8.249 Z-13.5 I5.863 J8.012
N1870 X-92.004 Y6.728 Z-13.5 I-6.092 J8.332
N1880 X-102.672 Y10.316 Z-13.5 I-8.296 J-7.013
N1890 X-111.093 Y-3.674 Z-13.5 I2.436 J-10.995
N1900 X-100.777 Y-12.244 Z-13.5 I11.319 J3.13
N1910 X-87.838 Y-3.045 Z-13.5 I1.053 J12.218
N1920 X-94.099 Y11.162 Z-13.5 I-12.197 J3.107
N1930 X-110.051 Y8.491 Z-13.5 I-6.245 J-11.671
N1940 X-113.354 Y-3.56 Z-13.5 I9.869 J-9.184
N1950 X-86.635 Y3.537 Z-13.5 I13.356 J3.559
N1960 X-113.336 Y-3.639 Z-13.5 I-13.364 J-3.536
N1970 X-112.433 Y-4.533 Z-13.5 I1.226 J0.334
N1980 G1 X-111.819 Y-4.694
N1990 X-113.327 Y-5.255
N2000 X-113.242 Y-5.47
N2010 X-113.095 Y-5.802
N2020 G3 X-113.325 Y-5.254 Z-13.5 I13.096 J5.803
N2030 G1 X-113.315 Y-5.25
N2040 G0 Z10.

(Roughing waterline 1)
N2050 X19.174 Y-4.902
N2060 Z10.
N2070 Z-0.65
N2080 G1 Z-7.
N2090 X18.786 Y-5.044
N2100 G3 X17.973 Y-6.02 Z-7. I0.439 J-1.192
N2110 G2 X17.675 Y-6.918 Z-7. I-3.128 J0.54
N2120 G3 X17.926 Y-8.244 Z-7. I1.43 J-0.417
N2130 X19.787 Y-9.14 Z-7. I1.8 J1.359
N2140 X22.429 Y-6.614 Z-7. I-0.067 J2.715
N2150 X17.572 Y-4.212 Z-7. I-2.913 J0.221
N2160 X16.159 Y-6.595 Z-7. I2.397 J-3.032
N2170 X17.739 Y-10.05 Z-7. I3.444 J-0.514
N2180 X22.419 Y-9.777 Z-7. I2.15 J3.395
N2190 X23.171 Y-3.679 Z-7. I-2.764 J3.436
N2200 X21.108 Y-2.137 Z-7. I-3.578 J-2.635
N2210 X20.864 Y-2.091 Z-7. I-0.354 J-1.219
N2220 X20.691 Y-2.086 Z-7. I-0.142 J-2.
N2230 G1 X19.408
N2240 G3 X15.62 Y-4.556 Z-7. I0.118 J-4.321
N2250 X19.234 Y-10.723 Z-7. I3.91 J-1.851
N2260 G1 X22.219 Y-10.724
N2270 G3 X23.994 Y-10.052 Z-7. I-0.116 J2.986
N2280 X25.666 Y-7.29 Z-7. I-2.991 J3.697
N2290 X24.569 Y-2.522 Z-7. I-5.719 J1.194
N2300 X23.706 Y-2.091 Z-7. I-0.958 J-0.835
N2310 X23.548 Y-2.087 Z-7. I-0.127 J-2.125
N2320 G1 X20.754 Y-2.086
N2330 G3 X20.134 Y-2.857 Z-6.9 I0. J-0.635
N2340 G1 X21.751 Y-10.225
N2350 G3 X22.371 Y-10.724 Z-7. I0.62 J0.136
N2360 G1 X24.025 Y-10.725
N2370 G3 X25.609 Y-10.148 Z-7. I-0.104 J2.751
N2380 X27.211 Y-7.935 Z-7. I-2.878 J3.769
N2390 X27.314 Y-3.817 Z-7. I-6.284 J2.217
N2400 X26.868 Y-2.687 Z-7. I-5.124 J-1.368
N2410 X25.839 Y-2.089 Z-7. I-1.078 J-0.671
N2420 X25.663 Y-2.088 Z-7. I-0.131 J-7.612
N2430 G1 X23.612 Y-2.087
N2440 G3 X22.979 Y-2.771 Z-6.9 I0. J-0.635
N2450 G1 X23.546 Y-10.139
N2460 G3 X24.179 Y-10.725 Z-7. I0.633 J0.049
N2470 G1 X25.77 Y-10.726
N2480 G3 X27.368 Y-10.125 Z-7. I-0.139 J2.795
N2490 X28.902 Y-8.11 Z-7. I-2.963 J3.849
N2500 X29.156 Y-3.295 Z-7. I-6.657 J2.765
N2510 X28.803 Y-2.548 Z-7. I-2.268 J-0.616
N2520 X27.827 Y-2.088 Z-7. I-0.978 J-0.81
N2530 G1 X25.79
N2540 G3 X25.155 Y-2.732 Z-6.9 I0. J-0.635
N2550 G1 X25.267 Y-10.1
N2560 G3 X25.901 Y-10.726 Z-7. I0.634 J0.009
N2570 G1 X27.492
N2580 G3 X29.06 Y-10.165 Z-7. I-0.124 J2.816
N2590 X30.737 Y-8.023 Z-7. I-3.009 J4.084
N2600 X31.173 Y-3.482 Z-7. I-6.689 J2.934
N2610 X30.862 Y-2.664 Z-7. I-3.06 J-0.696
N2620 X29.821 Y-2.089 Z-7. I-1.063 J-0.695
N2630 X29.736 Y-2.089 Z-7. I-0.055 J-5.075
N2640 G1 X27.825 Y-2.088
N2650 G3 X27.19 Y-2.707 Z-6.9 I0. J-0.635
N2660 G1 X26.996 Y-10.074
N2670 G3 X27.631 Y-10.726 Z-7. I0.635 J-0.017
N2680 G1 X29.285 Y-10.727
N2690 G3 X30.974 Y-10.075 Z-7. I-0.188 J3.002
N2700 X32.628 Y-7.909 Z-7. I-3.339 J4.266
N2710 X33.149 Y-3.644 Z-7. I-6.635 J2.974
N2720 X32.804 Y-2.66 Z-7. I-3.185 J-0.563
N2730 X31.76 Y-2.09 Z-7. I-1.06 J-0.7
N2740 X31.681 Y-2.09 Z-7. I-0.049 J-6.687
N2750 G1 X29.8 Y-2.089
N2760 G3 X29.165 Y-2.689 Z-6.9 I-0.001 J-0.635
N2770 G1 X28.758 Y-10.057
N2780 G3 X29.391 Y-10.727 Z-7. I0.634 J-0.035
N2790 G1 X31.046 Y-10.728
N2800 G3 X32.728 Y-10.13 Z-7. I-0.113 J2.986
N2810 X34.403 Y-8.11 Z-7. I-3.15 J4.317
N2820 X35.177 Y-4.427 Z-7. I-6.771 J3.346
N2830 X34.816 Y-2.797 Z-7. I-4.763 J-0.202
N2840 X33.724 Y-2.091 Z-7. I-1.139 J-0.563
N2850 X33.614 Y-2.09 Z-7. I-0.079 J-2.988
N2860 G1 X31.745
N2870 G3 X31.111 Y-2.678 Z-6.9 I-0.001 J-0.635
N2880 G1 X30.566 Y-10.046
N2890 G3 X31.199 Y-10.728 Z-7. I0.633 J-0.047
N2900 G1 X32.916
N2910 G3 X34.611 Y-10.117 Z-7. I-0.147 J3.062
N2920 X35.079 Y-9.737 Z-7. I-2.613 J3.703
N2930 G2 X36.082 Y-9.414 Z-7. I0.878 J-1.005
N2940 X37.653 Y-9.631 Z-7. I-0.298 J-7.947
N2950 X38.281 Y-9.767 Z-7. I-13.413 J-63.461
N2960 G3 X40.626 Y-10.132 Z-7. I3.301 J13.488
N2970 X43.151 Y-9.7 Z-7. I0.372 J5.419
N2980 X45.249 Y-7.148 Z-7. I-1.424 J3.309
N2990 X42.243 Y-3.444 Z-7. I-3.002 J0.636
N3000 X41.469 Y-3.554 Z-7. I0.034 J-3.03
N3010 G2 X40.622 Y-3.467 Z-7. I-0.281 J1.444
N3020 X39.169 Y-2.657 Z-7. I2.093 J5.461
N3030 X38.723 Y-2.335 Z-7. I16.172 J22.922
N3040 G3 X38.039 Y-2.093 Z-7. I-0.748 J-1.027
N3050 X37.848 Y-2.092 Z-7. I-0.145 J-5.661
N3060 G1 X33.677 Y-2.09
N3070 G3 X33.044 Y-2.673 Z-6.9 I0. J-0.635
N3080 G1 X32.436 Y-10.041
N3090 G3 X33.068 Y-10.728 Z-7. I0.632 J-0.052
N3100 G1 X42.224 Y-10.732
N3110 G3 X42.578 Y-2.093 Z-7. I0.038 J4.325
N3120 G1 X37.975 Y-2.092
N3130 G3 X36.875 Y-2.726 Z-7. I0. J-1.27
N3140 G1 X36.462 Y-3.441
N3150 X36.463 Y-1.592
N3160 X19.401 Y-1.586
N3170 G3 X15.168 Y-4.341 Z-7. I0.125 J-4.82
N3180 X19.201 Y-11.222 Z-7. I4.362 J-2.066
N3190 G1 X42.222 Y-11.232
N3200 G3 X42.615 Y-1.594 Z-7. I0.04 J4.825
N3210 G1 X36.463 Y-1.592
N3220 Y-1.598
N3230 G0 Z10.
N3240 X-42.064 Y7.888
N3250 Z-0.65
N3260 G1 Z-7.
N3270 X-42.868 Y7.701
N3280 G3 X-43.795 Y6.833 Z-7. I0.288 J-1.237
N3290 G2 X-44.15 Y6.058 Z-7. I-3.038 J0.921
N3300 G3 X-44.034 Y4.75 Z-7. I1.372 J-0.537
N3310 X-41.978 Y3.653 Z-7. I1.938 J1.155
N3320 X-39.351 Y6.598 Z-7. I-0.122 J2.753
N3330 X-44.057 Y8.743 Z-7. I-2.924 J-0.181
N3340 X-45.642 Y6.513 Z-7. I2.155 J-3.211
N3350 X-43.792 Y2.563 Z-7. I3.44 J-0.797
N3360 X-39.137 Y3.228 Z-7. I1.854 J3.643
N3370 X-39.75 Y10.234 Z-7. I-3.06 J3.263
N3380 X-40.706 Y10.701 Z-7. I-2.013 J-2.914
N3390 X-40.951 Y10.731 Z-7. I-0.277 J-1.24
N3400 X-41.046 Y10.731 Z-7. I-0.065 J-3.818
N3410 G1 X-42.224 Y10.732
N3420 G3 X-46.435 Y7.532 Z-7. I-0.035 J-4.326
N3430 X-42.594 Y2.094 Z-7. I4.175 J-1.127
N3440 G1 X-39.61 Y2.093
N3450 G3 X-37.958 Y2.646 Z-7. I-0.041 J2.865
N3460 X-36.185 Y5.278 Z-7. I-2.707 J3.737
N3470 X-37.206 Y10.295 Z-7. I-5.678 J1.456
N3480 X-38.07 Y10.727 Z-7. I-0.957 J-0.835
N3490 X-38.226 Y10.73 Z-7. I-0.125 J-2.133
N3500 G1 X-40.983 Y10.731
N3510 G3 X-41.604 Y9.965 Z-6.9 I0. J-0.635
N3520 G1 X-40.046 Y2.596
N3530 G3 X-39.425 Y2.093 Z-7. I0.621 J0.132
N3540 G1 X-37.771 Y2.092
N3550 G3 X-36.108 Y2.722 Z-7. I-0.114 J2.811
N3560 X-34.603 Y4.813 Z-7. I-2.973 J3.726
N3570 X-34.415 Y8.796 Z-7. I-6.219 J2.29
N3580 X-34.913 Y10.13 Z-7. I-5.432 J-1.266
N3590 X-35.942 Y10.728 Z-7. I-1.078 J-0.671
N3600 X-36.118 Y10.729 Z-7. I-0.131 J-7.609
N3610 G1 X-38.163 Y10.73
N3620 G3 X-38.796 Y10.048 Z-6.9 I0. J-0.635
N3630 G1 X-38.248 Y2.68
N3640 G3 X-37.615 Y2.092 Z-7. I0.633 J0.047
N3650 G1 X-36.025
N3660 G3 X-34.416 Y2.696 Z-7. I-0.134 J2.798
N3670 X-32.823 Y4.858 Z-7. I-3.052 J3.917
N3680 X-32.633 Y9.54 Z-7. I-6.753 J2.618
N3690 X-32.98 Y10.269 Z-7. I-2.218 J-0.608
N3700 X-33.956 Y10.729 Z-7. I-0.978 J-0.81
N3710 G1 X-35.991
N3720 G3 X-36.626 Y10.085 Z-6.9 I0. J-0.635
N3730 G1 X-36.521 Y2.717
N3740 G3 X-35.886 Y2.091 Z-7. I0.635 J0.009
N3750 G1 X-34.296
N3760 G3 X-32.765 Y2.626 Z-7. I-0.114 J2.784
N3770 X-31.137 Y4.603 Z-7. I-2.904 J4.05
N3780 X-30.614 Y9.333 Z-7. I-6.579 J3.121
N3790 X-30.923 Y10.151 Z-7. I-3.054 J-0.688
N3800 X-31.964 Y10.728 Z-7. I-1.065 J-0.693
N3810 X-32.051 Y10.728 Z-7. I-0.057 J-4.786
N3820 G1 X-33.958 Y10.729
N3830 G3 X-34.593 Y10.111 Z-6.9 I0. J-0.635
N3840 G1 X-34.789 Y2.743
N3850 G3 X-34.155 Y2.091 Z-7. I0.634 J-0.017
N3860 G1 X-32.501 Y2.09
N3870 G3 X-30.844 Y2.72 Z-7. I-0.184 J2.981
N3880 X-29.132 Y4.968 Z-7. I-3.324 J4.307
N3890 X-28.66 Y9.27 Z-7. I-6.587 J2.899
N3900 X-28.983 Y10.156 Z-7. I-3.011 J-0.595
N3910 X-30.027 Y10.727 Z-7. I-1.061 J-0.699
N3920 X-30.107 Y10.727 Z-7. I-0.05 J-6.151
N3930 G1 X-31.987 Y10.728
N3940 G3 X-32.621 Y10.128 Z-6.9 I0. J-0.635
N3950 G1 X-33.032 Y2.761
N3960 G3 X-32.398 Y2.09 Z-7. I0.634 J-0.036
N3970 G1 X-30.744
N3980 G3 X-29.078 Y2.674 Z-7. I-0.108 J2.975
N3990 X-27.349 Y4.778 Z-7. I-3.173 J4.371
N4000 X-26.701 Y9.081 Z-7. I-6.528 J3.182
N4010 X-27.038 Y10.126 Z-7. I-3.458 J-0.538
N4020 X-28.066 Y10.725 Z-7. I-1.08 J-0.67
N4030 X-28.181 Y10.726 Z-7. I-0.084 J-2.855
N4040 G1 X-30.043 Y10.727
N4050 G3 X-30.677 Y10.139 Z-6.9 I0. J-0.635
N4060 G1 X-31.223 Y2.772
N4070 G3 X-30.59 Y2.09 Z-7. I0.633 J-0.047
N4080 G1 X-28.872 Y2.089
N4090 G3 X-27.183 Y2.696 Z-7. I-0.145 J3.059
N4100 X-26.719 Y3.07 Z-7. I-2.452 J3.514
N4110 G1 X-26.679 Y3.105
N4120 G2 X-25.728 Y3.4 Z-7. I0.841 J-1.027
N4130 X-24.163 Y3.188 Z-7. I-0.257 J-7.77
N4140 X-23.535 Y3.053 Z-7. I-12.398 J-58.959
N4150 G3 X-21.186 Y2.683 Z-7. I3.367 J13.736
N4160 X-18.749 Y3.063 Z-7. I0.39 J5.494
N4170 X-16.576 Y5.505 Z-7. I-1.344 J3.384
N4180 X-18.993 Y9.321 Z-7. I-2.984 J0.783
N4190 X-20.323 Y9.254 Z-7. I-0.518 J-2.929
N4200 G2 X-21.172 Y9.329 Z-7. I-0.307 J1.371
N4210 X-22.623 Y10.143 Z-7. I2.105 J5.45
N4220 X-23.086 Y10.479 Z-7. I16.842 J23.716
N4230 G3 X-23.769 Y10.723 Z-7. I-0.751 J-1.024
N4240 X-23.9 Y10.725 Z-7. I-0.1 J-2.46
N4250 G1 X-28.117 Y10.726
N4260 G3 X-28.75 Y10.144 Z-6.9 I0. J-0.635
N4270 G1 X-29.36 Y2.776
N4280 G3 X-28.727 Y2.089 Z-7. I0.633 J-0.052
N4290 G1 X-19.408 Y2.086
N4300 G3 X-19.234 Y10.723 Z-7. I-0.12 J4.323
N4310 G1 X-23.837 Y10.725
N4320 G3 X-24.937 Y10.09 Z-7. I0. J-1.27
N4330 G1 X-25.35 Y9.375
N4340 X-25.349 Y11.225
N4350 X-42.222 Y11.232
N4360 G3 X-46.915 Y7.672 Z-7. I-0.038 J-4.824
N4370 X-42.633 Y1.595 Z-7. I4.655 J-1.267
N4380 G1 X-19.401 Y1.586
N4390 G3 X-19.2 Y11.222 Z-7. I-0.127 J4.823
N4400 G1 X-25.349 Y11.225
N4410 Y11.218
N4420 G0 Z10.

(Roughing waterline 3)
N4430 X87.318 Y5.109
N4440 Z10.
N4450 Z1.35
N4460 G1 Z-5.
N4470 X86.325 Y4.36
N4480 G3 X86.001 Y3.878 Z-5. I0.535 J-0.71
N4490 X86.428 Y5.176 Z-5. I13.997 J-3.883
N4500 G2 X85.882 Y4.799 Z-5. I-0.543 J0.203
N4510 G3 X85.019 Y4.138 Z-5. I-0.004 J-0.889
N4520 X85.579 Y5.794 Z-5. I14.979 J-4.145
N4530 G2 X85.326 Y5.49 Z-5. I-0.59 J0.234
N4540 G1 X84.424 Y4.924
N4550 G3 X84.037 Y4.399 Z-5. I0.472 J-0.753
N4560 X84.587 Y6.051 Z-5. I15.963 J-4.401
N4570 G2 X84.337 Y5.751 Z-5. I-0.589 J0.236
N4580 G1 X83.439 Y5.183
N4590 G3 X83.055 Y4.659 Z-5. I0.475 J-0.752
N4600 X83.267 Y5.368 Z-5. I16.941 J-4.675
N4610 G2 X83.159 Y5.221 Z-5. I-0.274 J0.088
N4620 G3 X82.813 Y4.723 Z-5. I0.513 J-0.726
N4630 X117.188 Y-4.723 Z-5. I17.188 J-4.723
N4640 X82.813 Y4.723 Z-5. I-17.187 J4.723
N4650 X83.209 Y3.339 Z-5. I1.358 J-0.36
N4660 G0 Z10.
N4670 X41.451 Y17.031
N4680 Z1.35
N4690 G1 Z-5.
N4700 X42.159 Y16.853
N4710 G3 X43.21 Y17.413 Z-5. I0.216 J0.863
N4720 X42.512 Y16.188 Z-5. I-4.233 J1.603
N4730 G2 X42.911 Y16.412 Z-5. I0.489 J-0.405
N4740 G1 X43.456 Y16.49
N4750 G3 X44.166 Y17.067 Z-5. I-0.126 J0.88
N4760 X43.234 Y15.467 Z-5. I-5.189 J1.95
N4770 G2 X43.448 Y15.635 Z-5. I0.489 J-0.405
N4780 G1 X44.67 Y16.223
N4790 G3 X45.121 Y16.721 Z-5. I-0.385 J0.801
N4800 X44.252 Y15.119 Z-5. I-6.145 J2.296
N4810 G2 X44.479 Y15.308 Z-5. I0.509 J-0.38
N4820 G1 X45.635 Y15.881
N4830 G3 X46.076 Y16.375 Z-5. I-0.395 J0.797
N4840 X45.773 Y15.671 Z-5. I-7.101 J2.639
N4850 G2 X45.91 Y15.817 Z-5. I0.299 J-0.143
N4860 G3 X46.311 Y16.29 Z-5. I-0.435 J0.776
N4870 X31.641 Y21.745 Z-5. I-7.335 J2.727
N4880 X46.311 Y16.29 Z-5. I7.335 J-2.728
N4890 X45.987 Y17.759 Z-5. I-1.321 J0.478
N4900 G0 Z10.
N4910 X-35.637 Y-17.361
N4920 Z1.35
N4930 G1 Z-5.
N4940 G3 X-35.325 Y-17.789 Z-5. I1.272 J0.598
N4950 X-33.912 Y-16.766 Z-5. I0.607 J0.649
N4960 X-36.677 Y-18.046 Z-5. I-1.383 J-0.639
N4970 X-34.834 Y-17.192 Z-5. I0.921 J0.427
N4980 X-34.451 Y-19.053 Z-5. I-4.143 J-1.823
N4990 G2 X-34.409 Y-18.826 Z-5. I0.635 J0.001
N5000 G1 X-33.888 Y-17.454
N5010 G3 X-33.912 Y-16.764 Z-5. I-0.831 J0.316
N5020 X-33.509 Y-18.106 Z-5. I-5.065 J-2.253
N5030 G2 X-33.38 Y-17.62 Z-5. I0.628 J0.093
N5040 G1 X-33.098 Y-17.263
N5050 G3 X-32.99 Y-16.338 Z-5. I-0.698 J0.551
N5060 X-32.484 Y-18.093 Z-5. I-5.988 J-2.677
N5070 G2 X-32.456 Y-17.793 Z-5. I0.628 J0.093
N5080 G1 X-32.034 Y-16.576
N5090 G3 X-32.068 Y-15.911 Z-5. I-0.841 J0.291
N5100 X-31.788 Y-16.627 Z-5. I-6.907 J-3.111
N5110 G2 X-31.794 Y-16.427 Z-5. I0.309 J0.109
N5120 G3 X-31.841 Y-15.806 Z-5. I-0.854 J0.247
N5130 X-46.116 Y-22.226 Z-5. I-7.138 J-3.21
N5140 X-31.841 Y-15.806 Z-5. I7.137 J3.21
N5150 X-33.102 Y-14.992 Z-5. I-1.275 J-0.591
N5160 G0 Z10.
N5170 X-87.015 Y-4.256
N5180 Z1.35
N5190 G1 Z-5.
N5200 X-86.069 Y-3.445
N5210 G3 X-85.776 Y-2.948 Z-5. I-0.578 J0.675
N5220 X-86.115 Y-4.268 Z-5. I-14.225 J2.949
N5230 G2 X-85.597 Y-3.861 Z-5. I0.554 J-0.171
N5240 G3 X-84.781 Y-3.151 Z-5. I-0.055 J0.888
N5250 X-85.227 Y-4.83 Z-5. I-15.221 J3.147
N5260 G2 X-84.997 Y-4.517 Z-5. I0.602 J-0.202
N5270 G1 X-84.137 Y-3.898
N5280 G3 X-83.785 Y-3.354 Z-5. I-0.519 J0.722
N5290 X-84.224 Y-5.032 Z-5. I-16.217 J3.348
N5300 G2 X-83.986 Y-4.702 Z-5. I0.606 J-0.187
N5310 G1 X-83.146 Y-4.104
N5320 G3 X-82.79 Y-3.557 Z-5. I-0.515 J0.725
N5330 X-82.953 Y-4.272 Z-5. I-17.212 J3.554
N5340 G2 X-82.856 Y-4.12 Z-5. I0.279 J-0.071
N5350 G3 X-82.545 Y-3.607 Z-5. I-0.56 J0.691
N5360 X-117.454 Y3.61 Z-5. I-17.454 J3.608
N5370 X-82.545 Y-3.607 Z-5. I17.455 J-3.609
N5380 X-83.028 Y-2.242 Z-5. I-1.377 J0.281
N5390 G0 Z10.

(Roughing waterline 4)
N5400 X104.772 Y36.894
N5410 Z10.
N5420 Z5.55
N5430 G1 Z-13.5
N5440 X105.206 Y35.7
N5450 G3 X106.178 Y34.883 Z-13.5 I1.193 J0.433
N5460 G2 X111.223 Y33.601 Z-13.5 I-6.177 J-34.883
N5470 G3 X114.346 Y32.957 Z-13.5 I4.484 J13.844
N5480 X119.636 Y32.667 Z-13.5 I5.898 J59.223
N5490 X132.316 Y32.601 Z-13.5 I10.261 J754.488
N5500 G1 X132.951 Y32.6
N5510 X133.586
N5520 G2 X134.644 Y32.227 Z-13.5 I-0.062 J-1.859
N5530 X135.97 Y30.682 Z-13.5 I-2.628 J-3.596
N5540 X136.81 Y28.399 Z-13.5 I-8.04 J-4.255
N5550 X137.358 Y24.523 Z-13.5 I-23.375 J-5.282
N5560 X137.566 Y17.805 Z-13.5 I-111.17 J-6.804
N5570 G1 X137.59 Y11.929
N5580 X137.605 Y0.178
N5590 X137.597 Y-5.698
N5600 X137.599 Y-28.558
N5610 G2 X137.223 Y-29.648 Z-13.5 I-1.866 J0.035
N5620 X135.687 Y-30.963 Z-13.5 I-3.597 J2.644
N5630 X133.395 Y-31.809 Z-13.5 I-4.261 J8.014
N5640 X129.519 Y-32.358 Z-13.5 I-5.28 J23.339
N5650 X122.801 Y-32.566 Z-13.5 I-6.796 J111.002
N5660 X114.136 Y-32.593 Z-13.5 I-7.908 J1124.511
N5670 G3 X113.654 Y-32.688 Z-13.5 I0. J-1.27
N5680 G1 X113.354 Y-32.812
N5690 G2 X106.636 Y-34.798 Z-13.5 I-13.353 J32.812
N5700 G3 X105.674 Y-35.628 Z-13.5 I0.238 J-1.248
N5710 G1 X105.257 Y-36.827
N5720 G3 X105.959 Y-37.663 Z-13.4 I0.599 J-0.209
N5730 G1 X133.068 Y-33.195 F1840.683
N5740 G3 X136.017 Y-32.23 Z-13.4 I-2.362 J12.206
N5750 X138.036 Y-30.605 Z-13.4 I-2.232 J4.839
N5760 X138.869 Y-28.14 Z-13.4 I-3.612 J2.595
N5770 G1 X138.853 Y16.555
N5780 G3 X138.668 Y24.127 Z-13.4 I-177.407 J-0.552
N5790 X137.93 Y29.171 Z-13.4 I-26.046 J-1.232
N5800 X136.597 Y32.054 Z-13.4 I-8.448 J-2.158
N5810 X133.413 Y33.854 Z-13.4 I-3.579 J-2.613
N5820 G1 X111.236 Y36.427
N5830 G3 X110.539 Y35.677 Z-13.5 I-0.073 J-0.63 F613.561
N5840 G1 X110.779 Y34.43
N5850 G3 X111.609 Y33.469 Z-13.5 I1.247 J0.239
N5860 G2 X115.767 Y31.724 Z-13.5 I-11.608 J-33.469
N5870 G3 X118.415 Y30.917 Z-13.5 I4.286 J9.326
N5880 X122.999 Y30.466 Z-13.5 I5.66 J34.018
N5890 X129.943 Y30.333 Z-13.5 I7.051 J186.258
N5900 G2 X131.987 Y29.559 Z-13.5 I-0.087 J-3.317
N5910 X133.48 Y27.689 Z-13.5 I-3.629 J-4.428
N5920 X134.536 Y24.587 Z-13.5 I-10.794 J-5.403
N5930 X135.087 Y20.073 Z-13.5 I-30.761 J-6.05
N5940 X135.284 Y12.409 Z-13.5 I-148.989 J-7.667
N5950 X135.309 Y3.195 Z-13.5 I-1510.871 J-8.592
N5960 G3 X135.318 Y2.767 Z-13.5 I3.493 J-0.139
N5970 G2 X135.41 Y-1.053 Z-13.5 I-35.317 J-2.767
N5980 G3 X135.316 Y-11.184 Z-13.5 I389.481 J-8.699
N5990 G1 X135.311 Y-16.581
N6000 X135.313 Y-21.978
N6010 Y-24.835
N6020 G2 X134.548 Y-26.979 Z-13.5 I-3.302 J-0.031
N6030 X132.683 Y-28.475 Z-13.5 I-4.42 J3.6
N6040 X129.582 Y-29.534 Z-13.5 I-5.399 J10.745
N6050 X125.069 Y-30.087 Z-13.5 I-6.046 J30.652
N6060 X118.739 Y-30.272 Z-13.5 I-6.911 J127.818
N6070 G3 X118.15 Y-30.424 Z-13.5 I0.014 J-1.27
N6080 X118.049 Y-30.483 Z-13.5 I1.416 J-2.554
N6090 G2 X113.647 Y-32.691 Z-13.5 I-18.048 J30.483
N6100 G3 X112.877 Y-33.701 Z-13.5 I0.489 J-1.172
N6110 G1 X112.714 Y-34.961
N6120 G3 X113.524 Y-35.651 Z-13.4 I0.63 J-0.081
N6130 G1 X131.635 Y-30.3 F1840.683
N6140 G3 X134.579 Y-28.754 Z-13.4 I-3.079 J9.436
N6150 X136.517 Y-25.664 Z-13.4 I-3.226 J4.175
N6160 X136.582 Y-25.045 Z-13.4 I-4.379 J0.778
N6170 G1 X138.125 Y-0.702
N6180 G3 X137.201 Y-0.097 Z-13.5 I-0.634 J0.04 F613.561
N6190 G1 X136.072 Y-0.677
N6200 G3 X135.383 Y-1.744 Z-13.5 I0.58 J-1.13
N6210 G2 X133.933 Y-10.175 Z-13.5 I-35.382 J1.744
N6220 G3 X133.348 Y-13.352 Z-13.5 I15.825 J-4.56
N6230 X133.081 Y-18.971 Z-13.5 I69.192 J-6.093
N6240 X133.049 Y-21.819 Z-13.5 I283.443 J-4.628
N6250 G2 X131.784 Y-24.792 Z-13.5 I-4.244 J0.05
N6260 X129.718 Y-26.221 Z-13.5 I-4.854 J4.81
N6270 X126.27 Y-27.283 Z-13.5 I-5.876 J12.947
N6280 X122.372 Y-27.754 Z-13.5 I-5.972 J33.078
N6290 G3 X121.692 Y-28.008 Z-13.5 I0.086 J-1.267
N6300 G1 X121.328 Y-28.286
N6310 G2 X118.104 Y-30.451 Z-13.5 I-21.327 J28.286
N6320 G3 X117.483 Y-31.558 Z-13.5 I0.649 J-1.091
N6330 G1 X117.499 Y-32.828
N6340 G3 X118.422 Y-33.386 Z-13.4 I0.635 J0.008
N6350 G1 X130.906 Y-27.032 F1840.683
N6360 G3 X134.01 Y-23.606 Z-13.4 I-2.928 J5.772
N6370 X134.194 Y-22.968 Z-13.4 I-5.12 J1.82
N6380 G1 X136.755 Y-10.149
N6390 G3 X135.993 Y-9.405 Z-13.5 I-0.623 J0.125 F613.561
N6400 G1 X134.754 Y-9.684
N6410 G3 X133.82 Y-10.545 Z-13.5 I0.279 J-1.239
N6420 G2 X132.127 Y-14.928 Z-13.5 I-33.819 J10.545
N6430 G3 X131.33 Y-17.58 Z-13.5 I9.37 J-4.262
N6440 X131.112 Y-19.079 Z-13.5 I24.134 J-4.273
N6450 G2 X130.367 Y-21.329 Z-13.5 I-5.363 J0.528
N6460 X128.631 Y-23.114 Z-13.5 I-5.1 J3.224
N6470 X125.879 Y-24.418 Z-13.5 I-5.803 J8.692
N6480 G3 X125.361 Y-24.735 Z-13.5 I0.385 J-1.21
N6490 G1 X125.087 Y-25.013
N6500 G2 X121.681 Y-28.017 Z-13.5 I-25.086 J25.013
N6510 G3 X121.2 Y-29.192 Z-13.5 I0.777 J-1.004
N6520 G1 X121.37 Y-30.45
N6530 G3 X122.435 Y-30.827 Z-13.4 I0.63 J0.085
N6540 G1 X130.48 Y-23.237 F1840.683
N6550 G3 X131.533 Y-21.862 Z-13.4 I-4.613 J4.621
N6560 G1 X134.904 Y-15.351
N6570 G3 X134.291 Y-14.425 Z-13.5 I-0.563 J0.292 F613.561
N6580 G1 X133.025 Y-14.525
N6590 G3 X131.978 Y-15.245 Z-13.5 I0.099 J-1.266
N6600 G2 X125.355 Y-24.741 Z-13.5 I-31.977 J15.245
N6610 G3 X125.041 Y-25.972 Z-13.5 I0.909 J-0.887
N6620 G1 X125.385 Y-27.195
N6630 G3 X126.545 Y-27.342 Z-13.4 I0.611 J0.172
N6640 G1 X131.887 Y-18.162 F1840.683
N6650 G3 X136.697 Y0.723 Z-13.4 I-31.94 J18.19
N6660 G1 X136.52 Y15.802
N6670 G3 X136.197 Y22.187 Z-13.4 I-84.495 J-1.081
N6680 X135.441 Y26.209 Z-13.4 I-23.25 J-2.288
N6690 X133.953 Y29.344 Z-13.4 I-10.497 J-3.062
N6700 X131.283 Y31.379 Z-13.4 I-4.656 J-3.34
N6710 X130.666 Y31.536 Z-13.4 I-1.403 J-4.221
N6720 G1 X115.961 Y34.613
N6730 G3 X115.197 Y33.955 Z-13.5 I-0.13 J-0.622 F613.561
N6740 G1 X115.268 Y32.687
N6750 G3 X115.964 Y31.625 Z-13.5 I1.268 J0.072
N6760 G2 X119.109 Y29.83 Z-13.5 I-15.963 J-31.625
N6770 G3 X121.028 Y29.003 Z-13.5 I3.732 J6.018
N6780 X124.552 Y28.38 Z-13.5 I5.176 J18.995
N6790 X126.72 Y28.218 Z-13.5 I4.606 J47.212
N6800 G2 X129.951 Y26.725 Z-13.5 I-0.125 J-4.512
N6810 X131.336 Y24.551 Z-13.5 I-5.483 J-5.021
N6820 X132.33 Y21.083 Z-13.5 I-14.038 J-5.903
N6830 X132.841 Y15.934 Z-13.5 I-40.653 J-6.637
N6840 X132.934 Y13.264 Z-13.5 I-110.009 J-5.139
N6850 G3 X132.997 Y12.898 Z-13.5 I1.269 J0.03
N6860 X133.043 Y12.774 Z-13.5 I2.401 J0.824
N6870 G2 X135.309 Y2.88 Z-13.5 I-33.042 J-12.774
N6880 G3 X136.031 Y1.835 Z-13.5 I1.266 J0.103
N6890 G1 X137.179 Y1.292
N6900 G3 X138.069 Y2.009 Z-13.4 I0.272 J0.574
N6910 G1 X133.329 Y22.538 F1840.683
N6920 G3 X132.133 Y25.818 Z-13.4 I-12.815 J-2.817
N6930 X130.303 Y28.148 Z-13.4 I-6.957 J-3.581
N6940 X128.77 Y29.071 Z-13.4 I-3.905 J-4.749
N6950 G1 X119.694 Y32.642
N6960 G3 X118.827 Y32.085 Z-13.5 I-0.233 J-0.591 F613.561
N6970 G1 X118.759 Y30.817
N6980 G3 X119.334 Y29.685 Z-13.5 I1.268 J-0.068
N6990 G2 X121.841 Y27.892 Z-13.5 I-19.333 J-29.685
N7000 G3 X123.591 Y26.977 Z-13.5 I3.627 J4.808
N7010 X124.422 Y26.709 Z-13.5 I6.197 J17.791
N7020 G2 X126.807 Y25.458 Z-13.5 I-1.814 J-6.359
N7030 X128.552 Y23.249 Z-13.5 I-4.806 J-5.59
N7040 X129.845 Y19.533 Z-13.5 I-12.445 J-6.412
N7050 X129.93 Y19.115 Z-13.5 I-14.394 J-3.138
N7060 G3 X130.052 Y18.765 Z-13.5 I1.247 J0.239
N7070 X130.132 Y18.63 Z-13.5 I1.921 J1.043
N7080 G2 X133.02 Y12.834 Z-13.5 I-30.131 J-18.63
N7090 G3 X134.01 Y12.038 Z-13.5 I1.184 J0.46
N7100 G1 X135.265 Y11.845
N7110 G3 X135.915 Y12.784 Z-13.4 I0.097 J0.627
N7120 G1 X129.519 Y24.139 F1840.683
N7130 G3 X127.77 Y26.304 Z-13.4 I-7.628 J-4.373
N7140 G1 X122.78 Y30.578
N7150 G3 X121.739 Y30.189 Z-13.5 I-0.413 J-0.482 F613.561
N7160 G1 X121.553 Y28.932
N7170 G3 X122.019 Y27.751 Z-13.5 I1.256 J-0.186
N7180 G2 X130.098 Y18.684 Z-13.5 I-22.018 J-27.751
N7190 G3 X131.218 Y18.085 Z-13.5 I1.079 J0.67
N7200 G1 X132.487 Y18.125
N7210 G0 Z10.
N7220 X100.843 Y35.569
N7230 Z5.55
N7240 G1 Z-13.5
N7250 G3 X101.906 Y34.875 Z-13.5 I1.133 J0.574
N7260 G2 X101.905 Y-34.872 Z-13.5 I-1.906 J-34.873
N7270 G1 X101.906 Y-34.883
N7280 G0 Z10.

(Roughing waterline 5)
N7290 X-104.77 Y-36.894
N7300 Z10.
N7310 Z5.55
N7320 G1 Z-13.5
N7330 X-105.204 Y-35.7
N7340 G3 X-106.176 Y-34.883 Z-13.5 I-1.194 J-0.433
N7350 G2 X-111.221 Y-33.601 Z-13.5 I6.177 J34.885
N7360 G3 X-114.344 Y-32.957 Z-13.5 I-4.485 J-13.847
N7370 X-119.635 Y-32.667 Z-13.5 I-5.9 J-59.235
N7380 X-132.314 Y-32.601 Z-13.5 I-10.273 J-754.624
N7390 G1 X-132.949 Y-32.6
N7400 X-133.584
N7410 G2 X-134.647 Y-32.225 Z-13.5 I0.06 J1.86
N7420 X-136.044 Y-30.544 Z-13.5 I2.74 J3.698
N7430 X-136.884 Y-28.078 Z-13.5 I8.914 J4.413
N7440 X-137.401 Y-23.879 Z-13.5 I26.977 J5.45
N7450 X-137.575 Y-16.532 Z-13.5 I146.399 J7.16
N7460 G1 X-137.591 Y-10.975
N7470 X-137.602 Y0.14
N7480 X-137.597 Y5.698
N7490 X-137.599 Y28.558
N7500 G2 X-137.224 Y29.643 Z-13.5 I1.863 J-0.037
N7510 X-135.693 Y30.957 Z-13.5 I3.592 J-2.636
N7520 X-133.404 Y31.805 Z-13.5 I4.259 J-7.989
N7530 X-129.528 Y32.355 Z-13.5 I5.281 J-23.276
N7540 X-122.809 Y32.563 Z-13.5 I6.798 J-110.704
N7550 X-114.136 Y32.591 Z-13.5 I7.927 J-1122.539
N7560 G3 X-113.655 Y32.686 Z-13.5 I-0.001 J1.27
N7570 G1 X-113.354 Y32.81
N7580 G2 X-106.699 Y34.784 Z-13.5 I13.352 J-32.811
N7590 G3 X-105.739 Y35.615 Z-13.5 I-0.24 J1.247
N7600 G1 X-105.323 Y36.815
N7610 G3 X-106.026 Y37.65 Z-13.4 I-0.6 J0.208
N7620 G1 X-132.848 Y33.231 F1840.683
N7630 G3 X-136.023 Y32.224 Z-13.4 I2.299 J-12.756
N7640 X-138.036 Y30.601 Z-13.4 I2.21 J-4.801
N7650 X-138.869 Y28.137 Z-13.4 I3.612 J-2.594
N7660 G1 X-138.853 Y-16.555
N7670 G3 X-138.668 Y-24.127 Z-13.4 I177.41 J0.552
N7680 X-137.93 Y-29.171 Z-13.4 I26.048 J1.233
N7690 X-136.76 Y-31.832 Z-13.4 I9.029 J2.384
N7700 X-133.412 Y-33.854 Z-13.4 I3.765 J2.45
N7710 G1 X-111.234 Y-36.428
N7720 G3 X-110.537 Y-35.677 Z-13.5 I0.073 J0.631 F613.561
N7730 G1 X-110.777 Y-34.43
N7740 G3 X-111.608 Y-33.47 Z-13.5 I-1.247 J-0.239
N7750 G2 X-115.765 Y-31.724 Z-13.5 I11.609 J33.472
N7760 G3 X-118.414 Y-30.918 Z-13.5 I-4.287 J-9.325
N7770 X-122.997 Y-30.467 Z-13.5 I-5.66 J-34.014
N7780 X-129.942 Y-30.333 Z-13.5 I-7.054 J-186.246
N7790 G2 X-131.987 Y-29.559 Z-13.5 I0.087 J3.317
N7800 X-133.48 Y-27.689 Z-13.5 I3.629 J4.428
N7810 X-134.536 Y-24.587 Z-13.5 I10.794 J5.403
N7820 X-135.087 Y-20.073 Z-13.5 I30.762 J6.05
N7830 X-135.284 Y-12.409 Z-13.5 I148.99 J7.667
N7840 X-135.309 Y-3.195 Z-13.5 I1510.889 J8.592
N7850 G3 X-135.318 Y-2.769 Z-13.5 I-3.476 J0.138
N7860 G2 X-135.41 Y1.07 Z-13.5 I35.316 J2.768
N7870 G3 X-135.316 Y11.2 Z-13.5 I-391.147 J8.699
N7880 G1 X-135.311 Y16.597
N7890 X-135.313 Y21.994
N7900 Y24.852
N7910 G2 X-134.553 Y26.971 Z-13.5 I3.297 J0.013
N7920 X-132.691 Y28.469 Z-13.5 I4.418 J-3.586
N7930 X-129.591 Y29.529 Z-13.5 I5.399 J-10.718
N7940 X-125.077 Y30.084 Z-13.5 I6.048 J-30.582
N7950 X-118.74 Y30.27 Z-13.5 I6.916 J-127.637
N7960 G3 X-118.151 Y30.422 Z-13.5 I-0.014 J1.27
N7970 X-118.05 Y30.48 Z-13.5 I-1.417 J2.554
N7980 G2 X-113.648 Y32.689 Z-13.5 I18.048 J-30.481
N7990 G3 X-112.878 Y33.699 Z-13.5 I-0.489 J1.172
N8000 G1 X-112.715 Y34.958
N8010 G3 X-113.525 Y35.649 Z-13.4 I-0.63 J0.081
N8020 G1 X-131.644 Y30.295 F1840.683
N8030 G3 X-134.585 Y28.746 Z-13.4 I3.081 J-9.418
N8040 X-136.517 Y25.662 Z-13.4 I3.228 J-4.168
N8050 X-136.582 Y25.043 Z-13.4 I4.379 J-0.779
N8060 G1 X-138.125 Y0.72
N8070 G3 X-137.201 Y0.115 Z-13.5 I0.634 J-0.04 F613.561
N8080 G1 X-136.071 Y0.694
N8090 G3 X-135.382 Y1.761 Z-13.5 I-0.58 J1.13
N8100 G2 X-133.928 Y10.191 Z-13.5 I35.38 J-1.762
N8110 G3 X-133.346 Y13.37 Z-13.5 I-15.937 J4.563
N8120 X-133.081 Y18.99 Z-13.5 I-69.623 J6.094
N8130 X-133.049 Y21.838 Z-13.5 I-285.784 J4.636
N8140 G2 X-131.788 Y24.784 Z-13.5 I4.248 J-0.075
N8150 X-129.725 Y26.215 Z-13.5 I4.851 J-4.795
N8160 X-126.278 Y27.279 Z-13.5 I5.876 J-12.918
N8170 X-122.373 Y27.751 Z-13.5 I5.976 J-33.029
N8180 G3 X-121.693 Y28.005 Z-13.5 I-0.086 J1.267
N8190 G1 X-121.329 Y28.284
N8200 G2 X-118.105 Y30.448 Z-13.5 I21.327 J-28.285
N8210 G3 X-117.484 Y31.556 Z-13.5 I-0.649 J1.092
N8220 G1 X-117.5 Y32.826
N8230 G3 X-118.423 Y33.384 Z-13.4 I-0.635 J-0.008
N8240 G1 X-130.913 Y27.025 F1840.683
N8250 G3 X-134.038 Y23.518 Z-13.4 I2.911 J-5.74
N8260 X-134.22 Y22.839 Z-13.4 I5.249 J-1.766
N8270 G1 X-136.759 Y10.134
N8280 G3 X-135.997 Y9.39 Z-13.5 I0.623 J-0.125 F613.561
N8290 G1 X-134.758 Y9.669
N8300 G3 X-133.824 Y10.53 Z-13.5 I-0.279 J1.239
N8310 G2 X-132.12 Y14.943 Z-13.5 I33.822 J-10.531
N8320 G3 X-131.326 Y17.6 Z-13.5 I-9.451 J4.269
N8330 X-131.109 Y19.101 Z-13.5 I-24.933 J4.374
N8340 G2 X-130.423 Y21.24 Z-13.5 I5.38 J-0.546
N8350 X-128.637 Y23.108 Z-13.5 I5.13 J-3.119
N8360 X-125.88 Y24.415 Z-13.5 I5.807 J-8.684
N8370 G3 X-125.362 Y24.732 Z-13.5 I-0.385 J1.21
N8380 G1 X-125.133 Y24.965
N8390 G2 X-121.682 Y28.014 Z-13.5 I25.131 J-24.966
N8400 G3 X-121.201 Y29.189 Z-13.5 I-0.777 J1.004
N8410 G1 X-121.372 Y30.448
N8420 G3 X-122.437 Y30.824 Z-13.4 I-0.629 J-0.086
N8430 G1 X-130.452 Y23.263 F1840.683
N8440 G3 X-131.729 Y21.494 Z-13.4 I4.577 J-4.651
N8450 G1 X-134.91 Y15.336
N8460 G3 X-134.296 Y14.412 Z-13.5 I0.564 J-0.291 F613.561
N8470 G1 X-133.03 Y14.512
N8480 G3 X-131.984 Y15.232 Z-13.5 I-0.1 J1.266
N8490 G2 X-125.356 Y24.739 Z-13.5 I31.982 J-15.233
N8500 G3 X-125.042 Y25.969 Z-13.5 I-0.909 J0.887
N8510 G1 X-125.386 Y27.192
N8520 G3 X-126.546 Y27.339 Z-13.4 I-0.611 J-0.172
N8530 G1 X-131.888 Y18.16 F1840.683
N8540 G3 X-136.698 Y-0.726 Z-13.4 I31.939 J-18.189
N8550 G1 X-136.52 Y-15.802
N8560 G3 X-136.197 Y-22.187 Z-13.4 I84.496 J1.081
N8570 X-135.441 Y-26.209 Z-13.4 I23.25 J2.288
N8580 X-133.953 Y-29.344 Z-13.4 I10.497 J3.062
N8590 X-131.283 Y-31.379 Z-13.4 I4.656 J3.34
N8600 X-130.666 Y-31.536 Z-13.4 I1.403 J4.221
N8610 G1 X-115.963 Y-34.612
N8620 G3 X-115.198 Y-33.954 Z-13.5 I0.131 J0.622 F613.561
N8630 G1 X-115.27 Y-32.686
N8640 G3 X-115.965 Y-31.624 Z-13.5 I-1.268 J-0.072
N8650 G2 X-119.11 Y-29.829 Z-13.5 I15.966 J31.626
N8660 G3 X-121.03 Y-29.002 Z-13.5 I-3.733 J-6.027
N8670 X-124.555 Y-28.379 Z-13.5 I-5.177 J-19.018
N8680 X-126.723 Y-28.218 Z-13.5 I-4.606 J-47.266
N8690 G2 X-129.951 Y-26.725 Z-13.5 I0.128 J4.511
N8700 X-131.336 Y-24.551 Z-13.5 I5.483 J5.021
N8710 X-132.33 Y-21.083 Z-13.5 I14.038 J5.903
N8720 X-132.841 Y-15.934 Z-13.5 I40.653 J6.637
N8730 X-132.934 Y-13.264 Z-13.5 I110.011 J5.139
N8740 G3 X-132.997 Y-12.898 Z-13.5 I-1.269 J-0.03
N8750 X-133.043 Y-12.775 Z-13.5 I-2.4 J-0.824
N8760 G2 X-133.423 Y-11.744 Z-13.5 I33.044 J12.777
N8770 X-135.309 Y-2.882 Z-13.5 I33.42 J11.743
N8780 G3 X-136.031 Y-1.837 Z-13.5 I-1.266 J-0.103
N8790 G1 X-137.179 Y-1.294
N8800 G3 X-138.069 Y-2.011 Z-13.4 I-0.272 J-0.574
N8810 G1 X-133.329 Y-22.538 F1840.683
N8820 G3 X-132.133 Y-25.818 Z-13.4 I12.815 J2.817
N8830 X-130.303 Y-28.148 Z-13.4 I6.957 J3.581
N8840 X-128.77 Y-29.071 Z-13.4 I3.905 J4.749
N8850 G1 X-119.695 Y-32.641
N8860 G3 X-118.828 Y-32.084 Z-13.5 I0.232 J0.591 F613.561
N8870 G1 X-118.76 Y-30.816
N8880 G3 X-119.335 Y-29.683 Z-13.5 I-1.268 J0.068
N8890 G2 X-121.817 Y-27.91 Z-13.5 I19.336 J29.685
N8900 G3 X-123.326 Y-27.077 Z-13.5 I-3.45 J-4.466
N8910 X-124.413 Y-26.712 Z-13.5 I-4.834 J-12.595
N8920 G2 X-126.807 Y-25.458 Z-13.5 I1.811 J6.371
N8930 X-128.552 Y-23.249 Z-13.5 I4.805 J5.59
N8940 X-129.845 Y-19.534 Z-13.5 I12.445 J6.412
N8950 X-129.93 Y-19.115 Z-13.5 I14.398 J3.14
N8960 G3 X-130.052 Y-18.765 Z-13.5 I-1.247 J-0.239
N8970 X-130.132 Y-18.63 Z-13.5 I-1.921 J-1.043
N8980 G2 X-133.02 Y-12.834 Z-13.5 I30.133 J18.632
N8990 G3 X-134.01 Y-12.039 Z-13.5 I-1.183 J-0.46
N9000 G1 X-135.265 Y-11.846
N9010 G3 X-135.915 Y-12.785 Z-13.4 I-0.097 J-0.627
N9020 G1 X-129.519 Y-24.139 F1840.683
N9030 G3 X-127.77 Y-26.304 Z-13.4 I7.628 J4.373
N9040 G1 X-122.794 Y-30.567
N9050 G3 X-121.753 Y-30.178 Z-13.5 I0.413 J0.483 F613.561
N9060 G1 X-121.566 Y-28.922
N9070 G3 X-122.033 Y-27.74 Z-13.5 I-1.257 J0.187
N9080 G2 X-130.098 Y-18.684 Z-13.5 I22.034 J27.742
N9090 G3 X-131.218 Y-18.085 Z-13.5 I-1.079 J-0.67
N9100 G1 X-132.487 Y-18.125
N9110 G0 Z10.
N9120 X-100.804 Y-35.569
N9130 Z5.55
N9140 G1 Z-13.5
N9150 G3 X-101.868 Y-34.876 Z-13.5 I-1.132 J-0.575
N9160 G2 X-101.968 Y34.87 Z-13.5 I1.868 J34.876
N9170 G1 Y34.881
N9180 G0 Z10.
N9190 G30 Z10. M5 M9
N9200 M30
%
