%
(top_plate)

(POSTPROCESSOR: top_plate)
(GENERATED BY SprutCAM)
(DATE: 1/31/2024)
(TIME: 10:47:29 PM)

(T# 1) (Dia 6.) (6mm Spot drill) (Hole machining 1)
(T# 2) (Dia 3.5) (#28 drill) (Hole machining 2)
(T# 3) (Dia 9.5) (.375 Drill) (Hole machining 3)
(T# 4) (Dia 6.35) (6.35mm Cylindrical mill) (Roughing waterline 2)
(T# 4) (Dia 6.35) (6.35mm Cylindrical mill) (Roughing waterline 1)
(T# 4) (Dia 6.35) (6.35mm Cylindrical mill) (Roughing waterline 3)
(T# 4) (Dia 6.35) (6.35mm Cylindrical mill) (Roughing waterline 5)
(T# 4) (Dia 6.35) (6.35mm Cylindrical mill) (Roughing waterline 4)

N10 G90 G64 G50 G54 G80 G17 G40 G49
N20 G21 (Metric)
(Hole machining 1)
N30 G30
N40 T1 G43 H1 M6
(6mm Spot drill)
N50 S796 M3 M8
N60 G0 G94 X100. Y25.
N70 Z10.
N80 G81 G98 Z-1. R0.6 F200.
N90 X82.5
N100 X68.354 Y22.674
N110 X100. Y0.
N120 Y-25.
N130 X82.5
N140 X66.104 Y-24.118
N150 X38.977 Y-19.016
N160 X56.894 Y6.407
N170 X42.261
N180 X19.528
N190 X4.894
N200 X-4.894 Y-6.407
N210 X-19.528
N220 X-42.261
N230 X-56.894
N240 X-68.354 Y-22.674
N250 X-82.5 Y-25.
N260 X-100.
N270 Y0.
N280 Y25.
N290 X-82.5
N300 X-66.104 Y24.118
N310 X-38.977 Y19.016
N320 G80
N330 G30 Z10. M5 M9

(Hole machining 2)
N340 T2 G43 H2 M6
(#28 drill)
N350 S3500 M3 M8
N360 G0 X100. Y25.
N370 Z10.
N380 G83 G98 Z-8.0515 R-0.2415 Q2.625 F350.
N390 X82.5
N400 X68.354 Y22.674 R-0.2315
N410 X100. Y-25. R-0.2415
N420 X82.5
N430 X66.104 Y-24.118
N440 X56.894 Y6.407 R-0.2315
N450 X4.894
N460 X-4.894 Y-6.407
N470 X-56.894
N480 X-68.354 Y-22.674
N490 X-82.5 Y-25. R-0.2415
N500 X-100.
N510 Y25.
N520 X-82.5
N530 X-66.104 Y24.118
N540 G80
N550 G30 Z10. M5 M9

(Hole machining 3)
N560 T3 G43 H3 M6
(.375 Drill)
N570 S3060 M3 M8
N580 G0 X-100. Y0.
N590 Z10.
N600 G83 G98 Z-9.8541 R0.3659 Q2.85 F306.
N610 X-38.977 Y19.016
N620 X-42.261 Y-6.407
N630 X-19.528
N640 X19.528 Y6.407
N650 X42.261
N660 X38.977 Y-19.016
N670 X100. Y0.
N680 G80
N690 G30 Z10. M5 M9

(Roughing waterline 2)
N700 T4 G43 H4 M6
(6.35mm Cylindrical mill)
N710 S5113 M3 M8
N720 G0 X99.722 Y0.862
N730 Z10.
N740 Z-0.65
N750 G1 Z-7. F613.561
N760 X99.616 Y1.539
N770 G3 X98.62 Y1.959 Z-7. I-0.627 J-0.098
N780 X101.382 Y-1.956 Z-7. I1.381 J-1.958
N790 X98.62 Y1.959 Z-7. I-1.381 J1.957
N800 G2 X98.068 Y2.734 Z-7. I-0.276 J0.387
N810 G3 X98.92 Y3.168 Z-7. I1.928 J-2.736
N820 G2 X98.505 Y3.168 Z-7. I-0.208 J0.6
N830 G1 X97.515 Y3.51
N840 G3 X98.349 Y3.971 Z-7. I2.484 J-3.51
N850 G2 X97.88 Y3.956 Z-7. I-0.254 J0.582
N860 G1 X96.962 Y4.286
N870 G3 X97.786 Y4.764 Z-7. I3.038 J-4.285
N880 G2 X97.29 Y4.739 Z-7. I-0.277 J0.571
N890 G1 X96.41 Y5.062
N900 G3 X97.227 Y5.551 Z-7. I3.589 J-5.062
N910 G2 X96.736 Y5.524 Z-7. I-0.278 J0.572
N920 G1 X95.857 Y5.838
N930 G3 X96.669 Y6.336 Z-7. I4.142 J-5.838
N940 G2 X96.146 Y6.3 Z-7. I-0.301 J0.559
N950 G1 X95.304 Y6.613
N960 G3 X96.112 Y7.118 Z-7. I4.694 J-6.614
N970 G2 X95.593 Y7.081 Z-7. I-0.301 J0.559
N980 G1 X94.752 Y7.389
N990 G3 X95.556 Y7.9 Z-7. I5.256 J-7.381
N1000 G2 X95.039 Y7.862 Z-7. I-0.301 J0.559
N1010 G1 X94.199 Y8.165
N1020 G3 X95.001 Y8.68 Z-7. I5.806 J-8.161
N1030 G2 X94.449 Y8.633 Z-7. I-0.324 J0.546
N1040 G1 X93.647 Y8.941
N1050 G3 X94.446 Y9.458 Z-7. I6.352 J-8.942
N1060 G2 X93.896 Y9.411 Z-7. I-0.324 J0.546
N1070 G1 X93.094 Y9.717
N1080 G3 X93.892 Y10.237 Z-7. I6.904 J-9.719
N1090 G2 X93.343 Y10.189 Z-7. I-0.324 J0.546
N1100 G1 X92.541 Y10.492
N1110 G3 X93.337 Y11.015 Z-7. I7.461 J-10.49
N1120 G2 X92.79 Y10.967 Z-7. I-0.324 J0.546
N1130 G1 X91.989 Y11.268
N1140 G3 X92.401 Y11.55 Z-7. I8.012 J-11.267
N1150 G2 X91.699 Y11.675 Z-7. I-0.284 J0.438
N1160 G3 X108.297 Y-11.675 Z-7. I8.299 J-11.675
N1170 X91.699 Y11.675 Z-7. I-8.299 J11.675
N1180 X91.123 Y10.333 Z-7. I0.815 J-1.144
N1190 G0 Z10.
N1200 X39.871 Y-18.891
N1210 Z-0.65
N1220 G1 Z-7.
N1230 X40.555 Y-18.863
N1240 G3 X41.086 Y-17.924 Z-7. I-0.026 J0.634
N1250 X36.873 Y-20.106 Z-7. I-2.106 J-1.091
N1260 X41.086 Y-17.924 Z-7. I2.107 J1.091
N1270 G1 X41.922 Y-17.467
N1280 G3 X42.121 Y-17.926 Z-7. I-2.943 J-1.548
N1290 G2 X42.361 Y-17.228 Z-7. I0.548 J0.202
N1300 G3 X35.595 Y-20.792 Z-7. I-3.383 J-1.782
N1310 X42.361 Y-17.228 Z-7. I3.383 J1.782
N1320 X40.86 Y-16.522 Z-7. I-1.233 J-0.673
N1330 G0 Z10.
N1340 X-38.325 Y18.393
N1350 Z-0.65
N1360 G1 Z-7.
N1370 X-37.877 Y17.877
N1380 G3 X-36.825 Y18.02 Z-7. I0.479 J0.417
N1390 X-41.132 Y20.014 Z-7. I-2.153 J0.997
N1400 X-36.825 Y18.02 Z-7. I2.154 J-0.997
N1410 G1 X-35.965 Y17.61
N1420 G3 X-36.208 Y17.172 Z-7. I-3.022 J1.389
N1430 G2 X-35.514 Y17.394 Z-7. I0.474 J-0.286
N1440 G3 X-42.437 Y20.645 Z-7. I-3.462 J1.625
N1450 X-35.514 Y17.394 Z-7. I3.461 J-1.626
N1460 X-35.855 Y19.056 Z-7. I-1.268 J0.606
N1470 G0 Z10.
N1480 X-99.099 Y0.026
N1490 Z-0.65
N1500 G1 Z-7.
N1510 X-98.418 Y-0.066
N1520 G3 X-97.729 Y0.762 Z-7. I0.086 J0.629
N1530 X-102.275 Y-0.76 Z-7. I-2.273 J-0.761
N1540 X-97.729 Y0.762 Z-7. I2.273 J0.761
N1550 G1 X-96.824 Y1.06
N1560 G3 X-96.654 Y0.12 Z-7. I-3.175 J-1.062
N1570 G2 X-96.53 Y0.538 Z-7. I0.634 J0.039
N1580 G1 X-95.92 Y1.357
N1590 G3 X-95.721 Y0.426 Z-7. I-4.08 J-1.356
N1600 G2 X-95.599 Y0.868 Z-7. I0.632 J0.064
N1610 G1 X-95.015 Y1.655
N1620 G3 X-94.798 Y0.728 Z-7. I-4.985 J-1.655
N1630 G2 X-94.677 Y1.201 Z-7. I0.628 J0.091
N1640 G1 X-94.11 Y1.953
N1650 G3 X-93.879 Y1.026 Z-7. I-5.887 J-1.961
N1660 G2 X-93.758 Y1.536 Z-7. I0.623 J0.122
N1670 G1 X-93.206 Y2.251
N1680 G3 X-92.967 Y1.329 Z-7. I-6.794 J-2.25
N1690 G2 X-92.848 Y1.833 Z-7. I0.624 J0.119
N1700 G1 X-92.301 Y2.549
N1710 G3 X-92.054 Y1.629 Z-7. I-7.697 J-2.555
N1720 G2 X-91.937 Y2.13 Z-7. I0.623 J0.118
N1730 G1 X-91.396 Y2.847
N1740 G3 X-91.144 Y1.928 Z-7. I-8.601 J-2.858
N1750 G2 X-91.025 Y2.466 Z-7. I0.618 J0.146
N1760 G1 X-90.491 Y3.145
N1770 G3 X-90.235 Y2.227 Z-7. I-9.509 J-3.147
N1780 G2 X-90.118 Y2.764 Z-7. I0.618 J0.146
N1790 G1 X-89.587 Y3.443
N1800 G3 X-89.327 Y2.526 Z-7. I-10.414 J-3.443
N1810 G2 X-89.21 Y3.062 Z-7. I0.618 J0.146
N1820 G1 X-88.682 Y3.741
N1830 G3 X-88.419 Y2.825 Z-7. I-11.318 J-3.745
N1840 G2 X-88.303 Y3.359 Z-7. I0.618 J0.146
N1850 G1 X-87.777 Y4.038
N1860 G3 X-87.511 Y3.124 Z-7. I-12.219 J-4.053
N1870 G2 X-87.396 Y3.657 Z-7. I0.618 J0.145
N1880 G1 X-86.873 Y4.336
N1890 G3 X-86.724 Y3.859 Z-7. I-13.124 J-4.348
N1900 G2 X-86.398 Y4.493 Z-7. I0.503 J0.142
N1910 G3 X-113.603 Y-4.485 Z-7. I-13.602 J-4.489
N1920 X-86.398 Y4.493 Z-7. I13.603 J4.489
N1930 X-87.512 Y5.441 Z-7. I-1.334 J-0.44
N1940 G0 Z10.

(Roughing waterline 1)
N1950 X42.154 Y5.511
N1960 Z10.
N1970 Z-0.65
N1980 G1 Z-7.
N1990 X40.944
N2000 G2 X40.826 Y7.288 Z-7. I0. J0.893
N2010 X41.544 Y6.701 Z-6.9 I0.084 J-0.629
N2020 G1 X41.578 Y6.188
N2030 G2 X40.944 Y5.511 Z-7. I-0.634 J-0.042
N2040 G1 X40.222
N2050 G2 X40.219 Y7.296 Z-7. I0. J0.893
N2060 X40.856 Y6.662 Z-6.9 I0.002 J-0.635
N2070 G1 X40.857 Y6.147
N2080 G2 X40.222 Y5.511 Z-7. I-0.635 J-0.001
N2090 G1 X39.5
N2100 G2 X39.667 Y7.281 Z-7. I0.001 J0.893
N2110 X40.181 Y6.597 Z-6.9 I-0.118 J-0.624
N2120 G1 X40.133 Y6.086
N2130 G2 X39.5 Y5.511 Z-7. I-0.632 J0.06
N2140 G1 X38.779
N2150 G2 X39.002 Y7.268 Z-7. I0. J0.893
N2160 X39.473 Y6.573 Z-6.9 I-0.159 J-0.615
N2170 G1 X39.409 Y6.066
N2180 G2 X38.779 Y5.511 Z-7. I-0.63 J0.08
N2190 G1 X38.057
N2200 G2 X38.388 Y7.233 Z-7. I0. J0.893
N2210 X38.776 Y6.523 Z-6.9 I-0.235 J-0.59
N2220 G1 X38.681 Y6.026
N2230 G2 X38.057 Y5.511 Z-7. I-0.624 J0.12
N2240 G1 X37.335 Y5.512
N2250 G2 X37.667 Y7.233 Z-7. I0. J0.892
N2260 X38.054 Y6.523 Z-6.9 I-0.236 J-0.59
N2270 G1 X37.959 Y6.026
N2280 G2 X37.335 Y5.512 Z-7. I-0.624 J0.121
N2290 G1 X36.613
N2300 G2 X36.945 Y7.233 Z-7. I0. J0.892
N2310 X37.333 Y6.523 Z-6.9 I-0.236 J-0.59
N2320 G1 X37.237 Y6.027
N2330 G2 X36.613 Y5.512 Z-7. I-0.624 J0.12
N2340 G1 X35.892
N2350 G2 X36.223 Y7.233 Z-7. I0. J0.892
N2360 X36.611 Y6.523 Z-6.9 I-0.236 J-0.59
N2370 G1 X36.515 Y6.027
N2380 G2 X35.892 Y5.512 Z-7. I-0.623 J0.12
N2390 G1 X35.17
N2400 G2 X35.502 Y7.233 Z-7. I0. J0.892
N2410 X35.889 Y6.523 Z-6.9 I-0.236 J-0.59
N2420 G1 X35.793 Y6.027
N2430 G2 X35.17 Y5.512 Z-7. I-0.623 J0.12
N2440 G1 X34.448
N2450 G2 X34.78 Y7.233 Z-7. I0. J0.892
N2460 X35.167 Y6.523 Z-6.9 I-0.236 J-0.59
N2470 G1 X35.072 Y6.027
N2480 G2 X34.448 Y5.512 Z-7. I-0.624 J0.12
N2490 G1 X33.726
N2500 G2 X34.058 Y7.233 Z-7. I0. J0.893
N2510 X34.446 Y6.523 Z-6.9 I-0.236 J-0.589
N2520 G1 X34.35 Y6.027
N2530 G2 X33.726 Y5.512 Z-7. I-0.624 J0.12
N2540 G1 X33.005
N2550 G2 X33.337 Y7.233 Z-7. I0. J0.893
N2560 X33.724 Y6.523 Z-6.9 I-0.237 J-0.589
N2570 G1 X33.628 Y6.027
N2580 G2 X33.005 Y5.512 Z-7. I-0.623 J0.12
N2590 G1 X32.283
N2600 G2 X32.615 Y7.233 Z-7. I0. J0.893
N2610 X33.002 Y6.523 Z-6.9 I-0.236 J-0.589
N2620 G1 X32.906 Y6.027
N2630 G2 X32.283 Y5.512 Z-7. I-0.623 J0.12
N2640 G1 X31.561 Y5.513
N2650 G2 X31.893 Y7.233 Z-7. I0. J0.892
N2660 X32.28 Y6.523 Z-6.9 I-0.236 J-0.589
N2670 G1 X32.185 Y6.027
N2680 G2 X31.561 Y5.513 Z-7. I-0.624 J0.121
N2690 G1 X30.839
N2700 G2 X31.171 Y7.233 Z-7. I0. J0.892
N2710 X31.559 Y6.523 Z-6.9 I-0.236 J-0.589
N2720 G1 X31.463 Y6.027
N2730 G2 X30.839 Y5.513 Z-7. I-0.624 J0.121
N2740 G1 X30.118
N2750 G2 X30.45 Y7.233 Z-7. I0. J0.892
N2760 X30.837 Y6.523 Z-6.9 I-0.237 J-0.589
N2770 G1 X30.741 Y6.027
N2780 G2 X30.118 Y5.513 Z-7. I-0.623 J0.121
N2790 G1 X29.396
N2800 G2 X29.728 Y7.233 Z-7. I0. J0.892
N2810 X30.115 Y6.524 Z-6.9 I-0.236 J-0.589
N2820 G1 X30.019 Y6.028
N2830 G2 X29.396 Y5.513 Z-7. I-0.623 J0.12
N2840 G1 X28.674
N2850 G2 X29.006 Y7.233 Z-7. I0. J0.892
N2860 X29.393 Y6.524 Z-6.9 I-0.236 J-0.589
N2870 G1 X29.298 Y6.028
N2880 G2 X28.674 Y5.513 Z-7. I-0.624 J0.12
N2890 G1 X27.952
N2900 G2 X28.285 Y7.233 Z-7. I0. J0.892
N2910 X28.672 Y6.524 Z-6.9 I-0.237 J-0.589
N2920 G1 X28.576 Y6.028
N2930 G2 X27.952 Y5.513 Z-7. I-0.624 J0.12
N2940 G1 X27.231
N2950 G2 X27.563 Y7.234 Z-7. I0. J0.893
N2960 X27.95 Y6.524 Z-6.9 I-0.237 J-0.59
N2970 G1 X27.854 Y6.028
N2980 G2 X27.231 Y5.513 Z-7. I-0.623 J0.12
N2990 G1 X26.509
N3000 G2 X26.841 Y7.234 Z-7. I0. J0.893
N3010 X27.228 Y6.524 Z-6.9 I-0.236 J-0.59
N3020 G1 X27.132 Y6.028
N3030 G2 X26.509 Y5.513 Z-7. I-0.623 J0.12
N3040 G1 X25.787 Y5.514
N3050 G2 X25.209 Y5.726 Z-7. I0. J0.892
N3060 X25.137 Y5.798 Z-6.9 I0.412 J0.484
N3070 G1 X25.084 Y5.86
N3080 G2 X25.025 Y5.943 Z-7. I0.483 J0.412
N3090 X26.12 Y7.234 Z-7. I0.762 J0.463
N3100 X26.506 Y6.524 Z-6.9 I-0.237 J-0.59
N3110 G1 X26.411 Y6.028
N3120 G2 X25.787 Y5.514 Z-7. I-0.624 J0.121
N3130 G1 X25.065
N3140 G2 X24.579 Y5.658 Z-7. I0. J0.892
N3150 X24.417 Y5.81 Z-6.9 I0.346 J0.532
N3160 G1 X24.31 Y5.952
N3170 G2 X24.21 Y6.151 Z-7. I0.509 J0.38
N3180 X25.398 Y7.234 Z-7. I0.855 J0.255
N3190 X25.785 Y6.524 Z-6.9 I-0.237 J-0.59
N3200 G1 X25.689 Y6.028
N3210 G2 X25.065 Y5.514 Z-7. I-0.624 J0.121
N3220 G1 X24.344
N3230 G2 X23.957 Y5.602 Z-7. I0. J0.892
N3240 X23.712 Y5.811 Z-6.9 I0.275 J0.572
N3250 G1 X23.567 Y6.017
N3260 G2 X23.456 Y6.319 Z-7. I0.521 J0.364
N3270 X24.676 Y7.234 Z-7. I0.888 J0.087
N3280 X25.063 Y6.524 Z-6.9 I-0.236 J-0.589
N3290 G1 X24.967 Y6.028
N3300 G2 X24.344 Y5.514 Z-7. I-0.623 J0.121
N3310 G1 X23.622
N3320 G2 X23.287 Y5.579 Z-7. I0. J0.892
N3330 X22.972 Y5.856 Z-6.9 I0.239 J0.589
N3340 G1 X22.815 Y6.135
N3350 G2 X22.741 Y6.547 Z-7. I0.553 J0.312
N3360 X23.955 Y7.234 Z-7. I0.881 J-0.141
N3370 X24.341 Y6.524 Z-6.9 I-0.237 J-0.589
N3380 G1 X24.245 Y6.028
N3390 G2 X23.622 Y5.514 Z-7. I-0.623 J0.121
N3400 G1 X22.9
N3410 G2 X22.674 Y5.543 Z-7. I0. J0.892
N3420 X22.272 Y5.863 Z-6.9 I0.161 J0.615
N3430 G1 X22.096 Y6.201
N3440 G2 X22.063 Y6.713 Z-7. I0.563 J0.294
N3450 X23.233 Y7.234 Z-7. I0.837 J-0.307
N3460 X23.62 Y6.524 Z-6.9 I-0.237 J-0.589
N3470 G1 X23.524 Y6.028
N3480 G2 X22.9 Y5.514 Z-7. I-0.624 J0.121
N3490 G1 X22.178
N3500 G2 X22.064 Y5.522 Z-7. I0. J0.892
N3510 X21.565 Y5.894 Z-6.9 I0.082 J0.629
N3520 G1 X21.387 Y6.296
N3530 G2 X21.446 Y6.916 Z-7. I0.58 J0.257
N3540 X22.511 Y7.234 Z-7. I0.732 J-0.51
N3550 X22.898 Y6.524 Z-6.9 I-0.237 J-0.589
N3560 G1 X22.802 Y6.029
N3570 G2 X22.178 Y5.514 Z-7. I-0.624 J0.12
N3580 G1 X20.837 Y5.515
N3590 G2 X20.202 Y6.148 Z-7. I0. J0.635
N3600 G1 X20.201 Y6.662
N3610 G2 X20.836 Y7.298 Z-7. I0.635 J0.001
N3620 G1 X40.945 Y7.296
N3630 X40.946 Y8.439
N3640 X42.539 Y8.426
N3650 G2 X42.223 Y4.368 Z-7. I-0.277 J-2.02
N3660 G1 X19.285 Y4.384
N3670 G2 X19.525 Y8.442 Z-7. I0.24 J2.021
N3680 G1 X39.803 Y8.439
N3690 G3 X40.319 Y8.705 Z-7. I0. J0.635
N3700 G1 X40.946 Y9.582
N3710 X42.62 Y9.568
N3720 G2 X42.223 Y3.225 Z-7. I-0.358 J-3.162
N3730 G1 X19.239 Y3.24
N3740 G2 X19.525 Y9.585 Z-7. I0.285 J3.166
N3750 G1 X39.803 Y9.582
N3760 G3 X40.32 Y9.848 Z-7. I0. J0.635
N3770 G1 X40.946 Y10.725
N3780 X42.624 Y10.716
N3790 G2 X42.227 Y2.082 Z-7. I-0.362 J-4.31
N3800 G1 X19.19 Y2.097
N3810 G2 X19.525 Y10.728 Z-7. I0.333 J4.309
N3820 G1 X40.446 Y10.725
N3830 G3 X40.946 Y11.225 Z-7. I0. J0.5
N3840 G1 X42.673 Y11.214
N3850 G2 X42.222 Y1.582 Z-7. I-0.41 J-4.808
N3860 G1 X19.146 Y1.599
N3870 G2 X19.525 Y11.228 Z-7. I0.377 J4.807
N3880 G1 X40.946 Y11.225
N3890 G2 X42.167 Y10.515 Z-7. I0. J-1.405
N3900 G0 Z10.
N3910 X-19.654 Y-5.515
N3920 Z-0.65
N3930 G1 Z-7.
N3940 X-20.844
N3950 G3 X-21.017 Y-7.282 Z-7. I0. J-0.891
N3960 X-20.262 Y-6.72 Z-6.9 I0.123 J0.623
N3970 G1 X-20.212 Y-6.211
N3980 G3 X-20.844 Y-5.515 Z-7. I-0.632 J0.061
N3990 G1 X-21.566 Y-5.514
N4000 G3 X-21.568 Y-7.298 Z-7. I0. J-0.892
N4010 X-20.932 Y-6.664 Z-6.9 I0.001 J0.635
N4020 G1 X-20.931 Y-6.15
N4030 G3 X-21.566 Y-5.514 Z-7. I-0.635 J0.001
N4040 G1 X-22.288
N4050 G3 X-22.119 Y-7.282 Z-7. I0. J-0.892
N4060 X-21.607 Y-6.599 Z-6.9 I-0.12 J0.623
N4070 G1 X-21.655 Y-6.089
N4080 G3 X-22.288 Y-5.514 Z-7. I-0.633 J-0.06
N4090 G1 X-23.009
N4100 G3 X-22.731 Y-7.254 Z-7. I0. J-0.892
N4110 X-22.302 Y-6.55 Z-6.9 I-0.198 J0.604
N4120 G1 X-22.382 Y-6.049
N4130 G3 X-23.009 Y-5.514 Z-7. I-0.627 J-0.1
N4140 G1 X-23.731
N4150 G3 X-23.399 Y-7.234 Z-7. I0. J-0.892
N4160 X-23.012 Y-6.524 Z-6.9 I-0.236 J0.589
N4170 G1 X-23.108 Y-6.029
N4180 G3 X-23.731 Y-5.514 Z-7. I-0.623 J-0.12
N4190 G1 X-24.453
N4200 G3 X-24.12 Y-7.234 Z-7. I0. J-0.892
N4210 X-23.734 Y-6.524 Z-6.9 I-0.237 J0.589
N4220 G1 X-23.829 Y-6.028
N4230 G3 X-24.453 Y-5.514 Z-7. I-0.624 J-0.121
N4240 G1 X-25.174
N4250 G3 X-24.842 Y-7.234 Z-7. I0. J-0.892
N4260 X-24.455 Y-6.524 Z-6.9 I-0.237 J0.59
N4270 G1 X-24.551 Y-6.028
N4280 G3 X-25.174 Y-5.514 Z-7. I-0.623 J-0.121
N4290 G1 X-25.896
N4300 G3 X-25.564 Y-7.234 Z-7. I0. J-0.892
N4310 X-25.177 Y-6.524 Z-6.9 I-0.236 J0.59
N4320 G1 X-25.273 Y-6.028
N4330 G3 X-25.896 Y-5.514 Z-7. I-0.623 J-0.121
N4340 G1 X-26.618 Y-5.513
N4350 G3 X-26.286 Y-7.234 Z-7. I0. J-0.893
N4360 X-25.899 Y-6.524 Z-6.9 I-0.236 J0.59
N4370 G1 X-25.994 Y-6.028
N4380 G3 X-26.618 Y-5.513 Z-7. I-0.624 J-0.12
N4390 G1 X-27.339
N4400 G3 X-27.008 Y-7.234 Z-7. I-0.001 J-0.893
N4410 X-26.62 Y-6.524 Z-6.9 I-0.236 J0.59
N4420 G1 X-26.716 Y-6.028
N4430 G3 X-27.339 Y-5.513 Z-7. I-0.624 J-0.12
N4440 G1 X-28.061
N4450 G3 X-27.729 Y-7.234 Z-7. I0. J-0.892
N4460 X-27.342 Y-6.524 Z-6.9 I-0.237 J0.59
N4470 G1 X-27.438 Y-6.028
N4480 G3 X-28.061 Y-5.513 Z-7. I-0.623 J-0.12
N4490 G1 X-28.783
N4500 G3 X-28.451 Y-7.233 Z-7. I0. J-0.892
N4510 X-28.064 Y-6.524 Z-6.9 I-0.236 J0.589
N4520 G1 X-28.159 Y-6.028
N4530 G3 X-28.783 Y-5.513 Z-7. I-0.624 J-0.12
N4540 G1 X-29.505
N4550 G3 X-29.173 Y-7.233 Z-7. I0. J-0.892
N4560 X-28.785 Y-6.524 Z-6.9 I-0.236 J0.589
N4570 G1 X-28.881 Y-6.028
N4580 G3 X-29.505 Y-5.513 Z-7. I-0.624 J-0.12
N4590 G1 X-30.226
N4600 G3 X-29.895 Y-7.233 Z-7. I0. J-0.892
N4610 X-29.507 Y-6.524 Z-6.9 I-0.236 J0.589
N4620 G1 X-29.603 Y-6.028
N4630 G3 X-30.226 Y-5.513 Z-7. I-0.623 J-0.12
N4640 G1 X-30.948
N4650 G3 X-30.616 Y-7.233 Z-7. I0. J-0.892
N4660 X-30.229 Y-6.524 Z-6.9 I-0.236 J0.589
N4670 G1 X-30.325 Y-6.028
N4680 G3 X-30.948 Y-5.513 Z-7. I-0.623 J-0.12
N4690 G1 X-31.67
N4700 G3 X-31.338 Y-7.233 Z-7. I0. J-0.892
N4710 X-30.951 Y-6.524 Z-6.9 I-0.236 J0.589
N4720 G1 X-31.046 Y-6.027
N4730 G3 X-31.67 Y-5.513 Z-7. I-0.624 J-0.121
N4740 G1 X-32.391 Y-5.512
N4750 G3 X-32.06 Y-7.233 Z-7. I-0.001 J-0.893
N4760 X-31.672 Y-6.524 Z-6.9 I-0.236 J0.589
N4770 G1 X-31.768 Y-6.027
N4780 G3 X-32.391 Y-5.512 Z-7. I-0.623 J-0.12
N4790 G1 X-33.113
N4800 G3 X-32.782 Y-7.233 Z-7. I0. J-0.893
N4810 X-32.394 Y-6.524 Z-6.9 I-0.236 J0.589
N4820 G1 X-32.49 Y-6.027
N4830 G3 X-33.113 Y-5.512 Z-7. I-0.623 J-0.12
N4840 G1 X-33.835
N4850 G3 X-33.503 Y-7.233 Z-7. I0. J-0.893
N4860 X-33.116 Y-6.523 Z-6.9 I-0.236 J0.589
N4870 G1 X-33.211 Y-6.027
N4880 G3 X-33.835 Y-5.512 Z-7. I-0.624 J-0.12
N4890 G1 X-34.557
N4900 G3 X-34.225 Y-7.233 Z-7. I0. J-0.892
N4910 X-33.838 Y-6.523 Z-6.9 I-0.236 J0.59
N4920 G1 X-33.933 Y-6.027
N4930 G3 X-34.557 Y-5.512 Z-7. I-0.624 J-0.12
N4940 G1 X-35.278
N4950 G3 X-34.947 Y-7.233 Z-7. I0. J-0.892
N4960 X-34.559 Y-6.523 Z-6.9 I-0.236 J0.59
N4970 G1 X-34.655 Y-6.027
N4980 G3 X-35.278 Y-5.512 Z-7. I-0.623 J-0.12
N4990 G1 X-36.
N5000 G3 X-36.578 Y-5.724 Z-7. I0. J-0.892
N5010 X-36.65 Y-5.796 Z-6.9 I0.411 J-0.484
N5020 G1 X-36.703 Y-5.858
N5030 G3 X-36.763 Y-5.941 Z-7. I0.483 J-0.412
N5040 X-35.669 Y-7.233 Z-7. I0.763 J-0.463
N5050 X-35.281 Y-6.523 Z-6.9 I-0.236 J0.59
N5060 G1 X-35.377 Y-6.027
N5070 G3 X-36. Y-5.512 Z-7. I-0.623 J-0.12
N5080 G1 X-36.722
N5090 G3 X-37.208 Y-5.656 Z-7. I0. J-0.892
N5100 X-37.371 Y-5.808 Z-6.9 I0.346 J-0.532
N5110 G1 X-37.477 Y-5.95
N5120 G3 X-37.577 Y-6.149 Z-7. I0.508 J-0.38
N5130 X-36.391 Y-7.233 Z-7. I0.855 J-0.255
N5140 X-36.003 Y-6.523 Z-6.9 I-0.235 J0.59
N5150 G1 X-36.098 Y-6.027
N5160 G3 X-36.722 Y-5.512 Z-7. I-0.624 J-0.12
N5170 G1 X-37.443
N5180 G3 X-37.83 Y-5.6 Z-7. I-0.001 J-0.892
N5190 X-38.075 Y-5.808 Z-6.9 I0.275 J-0.572
N5200 G1 X-38.22 Y-6.015
N5210 G3 X-38.332 Y-6.317 Z-7. I0.52 J-0.364
N5220 X-37.112 Y-7.233 Z-7. I0.888 J-0.087
N5230 X-36.724 Y-6.523 Z-6.9 I-0.236 J0.59
N5240 G1 X-36.82 Y-6.027
N5250 G3 X-37.443 Y-5.512 Z-7. I-0.624 J-0.12
N5260 G1 X-38.165 Y-5.511
N5270 G3 X-38.5 Y-5.576 Z-7. I0. J-0.893
N5280 X-38.815 Y-5.853 Z-6.9 I0.238 J-0.589
N5290 G1 X-38.972 Y-6.132
N5300 G3 X-39.047 Y-6.544 Z-7. I0.552 J-0.312
N5310 X-37.834 Y-7.233 Z-7. I0.882 J0.14
N5320 X-37.446 Y-6.523 Z-6.9 I-0.236 J0.59
N5330 G1 X-37.542 Y-6.027
N5340 G3 X-38.165 Y-5.511 Z-7. I-0.623 J-0.119
N5350 G1 X-38.887
N5360 G3 X-39.113 Y-5.54 Z-7. I0. J-0.893
N5370 X-39.515 Y-5.86 Z-6.9 I0.161 J-0.615
N5380 G1 X-39.691 Y-6.198
N5390 G3 X-39.725 Y-6.71 Z-7. I0.562 J-0.294
N5400 X-38.556 Y-7.233 Z-7. I0.838 J0.306
N5410 X-38.168 Y-6.523 Z-6.9 I-0.236 J0.59
N5420 G1 X-38.263 Y-6.026
N5430 G3 X-38.887 Y-5.511 Z-7. I-0.624 J-0.12
N5440 G1 X-39.609
N5450 G3 X-39.723 Y-5.518 Z-7. I0. J-0.893
N5460 X-40.222 Y-5.89 Z-6.9 I0.081 J-0.63
N5470 G1 X-40.401 Y-6.292
N5480 G3 X-40.342 Y-6.912 Z-7. I0.581 J-0.258
N5490 X-39.278 Y-7.233 Z-7. I0.733 J0.508
N5500 X-38.89 Y-6.523 Z-6.9 I-0.235 J0.59
N5510 G1 X-38.985 Y-6.026
N5520 G3 X-39.609 Y-5.511 Z-7. I-0.624 J-0.12
N5530 G1 X-40.956
N5540 G3 X-41.591 Y-6.151 Z-7. I0. J-0.635
N5550 G1 X-41.587 Y-6.666
N5560 G3 X-40.952 Y-7.296 Z-7. I0.635 J0.005
N5570 G1 X-20.842 Y-7.298
N5580 Y-8.441
N5590 X-19.287 Y-8.429
N5600 G3 X-19.521 Y-4.372 Z-7. I-0.239 J2.022
N5610 G1 X-42.455 Y-4.376
N5620 G3 X-42.223 Y-8.439 Z-7. I0.191 J-2.027
N5630 G1 X-21.985 Y-8.441
N5640 G2 X-21.468 Y-8.707 Z-7. I0. J-0.635
N5650 G1 X-20.842 Y-9.584
N5660 X-19.214 Y-9.572
N5670 G3 X-19.521 Y-3.229 Z-7. I-0.312 J3.164
N5680 G1 X-42.568 Y-3.238
N5690 G3 X-42.224 Y-9.582 Z-7. I0.304 J-3.165
N5700 G1 X-21.985 Y-9.584
N5710 G2 X-21.468 Y-9.85 Z-7. I0. J-0.635
N5720 G1 X-20.842 Y-10.727
N5730 X-19.197 Y-10.717
N5740 G3 X-19.521 Y-2.086 Z-7. I-0.328 J4.31
N5750 G1 X-42.528 Y-2.09
N5760 G3 X-42.224 Y-10.725 Z-7. I0.262 J-4.314
N5770 G1 X-21.342 Y-10.727
N5780 G2 X-20.842 Y-11.227 Z-7. I0. J-0.5
N5790 G1 X-19.16 Y-11.215
N5800 G3 X-19.521 Y-1.586 Z-7. I-0.365 J4.808
N5810 G1 X-42.56 Y-1.591
N5820 G3 X-42.224 Y-11.225 Z-7. I0.294 J-4.813
N5830 G1 X-20.842 Y-11.227
N5840 G3 X-19.621 Y-10.517 Z-7. I0. J1.405
N5850 G0 Z10.

(Roughing waterline 3)
N5860 X36.317 Y-17.294
N5870 Z10.
N5880 Z1.35
N5890 G1 Z-5.
N5900 X35.439 Y-17.494
N5910 G3 X34.767 Y-18.177 Z-5. I0.198 J-0.867
N5920 X35.262 Y-16.864 Z-5. I4.211 J-0.837
N5930 G2 X34.879 Y-17.163 Z-5. I-0.552 J0.313
N5940 G1 X34.406 Y-17.294
N5950 G3 X33.773 Y-17.967 Z-5. I0.237 J-0.857
N5960 X34.443 Y-16.256 Z-5. I5.204 J-1.05
N5970 G2 X34.26 Y-16.448 Z-5. I-0.541 J0.333
N5980 G1 X33.148 Y-17.206
N5990 G3 X32.779 Y-17.756 Z-5. I0.501 J-0.734
N6000 X33.105 Y-16.662 Z-5. I6.2 J-1.253
N6010 G2 X32.888 Y-16.938 Z-5. I-0.587 J0.24
N6020 G1 X32.641 Y-17.115
N6030 G3 X32.29 Y-17.653 Z-5. I0.519 J-0.722
N6040 X45.665 Y-20.38 Z-5. I6.688 J-1.364
N6050 X32.29 Y-17.653 Z-5. I-6.687 J1.363
N6060 X32.856 Y-19.093 Z-5. I1.375 J-0.291
N6070 G0 Z10.
N6080 X-36.884 Y16.644
N6090 Z1.35
N6100 G1 Z-5.
N6110 X-36. Y16.587
N6120 G3 X-35.146 Y17.08 Z-5. I0.058 J0.887
N6130 X-35.983 Y15.939 Z-5. I-3.832 J1.935
N6140 G2 X-35.538 Y16.129 Z-5. I0.453 J-0.445
N6150 G1 X-35.022 Y16.135
N6160 G3 X-34.235 Y16.629 Z-5. I-0.01 J0.889
N6170 X-35.345 Y15.144 Z-5. I-4.742 J2.388
N6180 G2 X-35.124 Y15.278 Z-5. I0.432 J-0.465
N6190 G1 X-33.826 Y15.735
N6200 G3 X-33.324 Y16.179 Z-5. I-0.295 J0.838
N6210 X-33.935 Y15.197 Z-5. I-5.655 J2.835
N6220 G2 X-33.669 Y15.397 Z-5. I0.501 J-0.391
N6230 G1 X-33.345 Y15.525
N6240 G3 X-32.876 Y15.957 Z-5. I-0.328 J0.826
N6250 X-45.07 Y22.077 Z-5. I-6.097 J3.06
N6260 X-32.876 Y15.957 Z-5. I6.097 J-3.06
N6270 X-33.051 Y17.474 Z-5. I-1.26 J0.623
N6280 G0 Z10.

(Roughing waterline 5)
N6290 X87.045 Y4.327
N6300 Z10.
N6310 Z1.35
N6320 G1 Z-5.
N6330 X86.439 Y4.67
N6340 G3 X85.142 Y4.124 Z-5. I-0.438 J-0.774
N6350 G1 X85.14 Y4.115
N6360 G3 X87.902 Y3.382 Z-5. I1.381 J-0.367
N6370 X86.06 Y3.871 Z-5. I-0.921 J0.244
N6380 X86.602 Y5.457 Z-5. I13.938 J-3.878
N6390 G2 X86.35 Y5.155 Z-5. I-0.589 J0.236
N6400 G1 X85.528 Y4.64
N6410 G3 X85.14 Y4.115 Z-5. I0.471 J-0.753
N6420 X85.552 Y5.383 Z-5. I14.857 J-4.125
N6430 G2 X85.056 Y5.029 Z-5. I-0.511 J0.191
N6440 G3 X84.222 Y4.368 Z-5. I0.025 J-0.889
N6450 X84.748 Y5.951 Z-5. I15.778 J-4.369
N6460 G2 X84.499 Y5.652 Z-5. I-0.589 J0.237
N6470 G1 X83.684 Y5.135
N6480 G3 X83.301 Y4.612 Z-5. I0.476 J-0.751
N6490 X83.63 Y5.668 Z-5. I16.695 J-4.626
N6500 G2 X83.315 Y5.324 Z-5. I-0.554 J0.192
N6510 G3 X82.818 Y4.74 Z-5. I0.362 J-0.812
N6520 X117.179 Y-4.741 Z-5. I17.18 J-4.74
N6530 X82.818 Y4.74 Z-5. I-17.181 J4.741
N6540 X83.212 Y3.357 Z-5. I1.358 J-0.36
N6550 G0 Z10.
N6560 X-86.347 Y-0.606
N6570 Z1.35
N6580 G1 Z-5.
N6590 G3 X-85.651 Y0.013 Z-5. I-0.534 J1.3
N6600 X-85.541 Y0.484 Z-5. I-0.778 J0.431
N6610 X-85.558 Y-0.841 Z-5. I-14.459 J-0.476
N6620 G2 X-85.19 Y-0.355 Z-5. I0.545 J-0.03
N6630 G3 X-84.589 Y0.526 Z-5. I-0.287 J0.841
N6640 X-84.624 Y-1.145 Z-5. I-15.411 J-0.52
N6650 G2 X-84.474 Y-0.784 Z-5. I0.633 J-0.05
N6660 G1 X-83.848 Y-0.047
N6670 G3 X-83.638 Y0.568 Z-5. I-0.678 J0.575
N6680 X-83.664 Y-1.099 Z-5. I-16.362 J-0.571
N6690 G2 X-83.517 Y-0.739 Z-5. I0.633 J-0.05
N6700 G1 X-82.895 Y-0.003
N6710 G3 X-82.686 Y0.61 Z-5. I-0.679 J0.574
N6720 X-82.683 Y-0.495 Z-5. I-17.315 J-0.599
N6730 G2 X-82.486 Y-0.073 Z-5. I0.586 J-0.017
N6740 G3 X-82.187 Y0.632 Z-5. I-0.589 J0.666
N6750 X-117.814 Y-0.633 Z-5. I-17.813 J-0.632
N6760 X-82.187 Y0.632 Z-5. I17.814 J0.633
N6770 X-82.979 Y1.835 Z-5. I-1.404 J-0.062
N6780 G0 Z10.

(Roughing waterline 4)
N6790 X137.176 Y35.548
N6800 Z10.
N6810 Z-0.65
N6820 G1 Z-7.
N6830 X138.021 Y34.63
N6840 G2 X139.783 Y32.592 Z-7. I-34.404 J-31.532
N6850 G1 X139.792 Y32.581
N6860 X139.802 Y32.571
N6870 X140.988 Y31.267
N6880 G2 X140.011 Y30.457 Z-7. I-0.47 J-0.428
N6890 G1 X139.89 Y30.617
N6900 G3 X136.204 Y34.896 Z-7. I-38.758 J-29.661
N6910 G2 X136.167 Y34.939 Z-7. I0.457 J0.442
N6920 G1 X135.417 Y35.868
N6930 G3 X134.477 Y35.017 Z-7. I-0.494 J-0.399
N6940 G1 X134.6 Y34.896
N6950 G2 X139.891 Y28.698 Z-7. I-33.842 J-34.246
N6960 G1 X139.901 Y28.684
N6970 X139.911 Y28.671
N6980 X141.03 Y27.275
N6990 G2 X140.01 Y26.521 Z-7. I-0.495 J-0.397
N7000 G1 X139.891 Y26.695
N7010 G3 X132.956 Y34.896 Z-7. I-39.59 J-26.445
N7020 G2 X132.92 Y34.932 Z-7. I0.435 J0.463
N7030 G1 X132.029 Y35.914
N7040 G3 X131.136 Y35.014 Z-7. I-0.47 J-0.427
N7050 G1 X131.268 Y34.896
N7060 G2 X139.891 Y24.579 Z-7. I-31.014 J-34.683
N7070 G1 X139.892 Y24.577
N7080 X139.899 Y24.566
N7090 X139.906 Y24.556
N7100 X141.095 Y22.77
N7110 G2 X140.011 Y22.111 Z-7. I-0.529 J-0.352
N7120 G1 X139.891 Y22.327
N7130 G3 X129.528 Y34.896 Z-7. I-39.802 J-22.261
N7140 G1 X129.512 Y34.909
N7150 X129.497 Y34.924
N7160 X128.42 Y35.966
N7170 G3 X127.579 Y35.016 Z-7. I-0.442 J-0.456
N7180 G1 X127.728 Y34.896
N7190 G2 X139.891 Y19.882 Z-7. I-27.71 J-34.883
N7200 G1 X139.96 Y19.743
N7210 X139.968 Y19.729
N7220 X141.038 Y17.706
N7230 G2 X140.009 Y16.978 Z-7. I-0.562 J-0.297
N7240 X139.892 Y17.161 Z-7. I0.467 J0.431
N7250 G3 X125.849 Y34.896 Z-7. I-39.83 J-17.11
N7260 G1 X125.835 Y34.907
N7270 X125.82 Y34.918
N7280 X124.471 Y36.029
N7290 G3 X123.706 Y35.017 Z-7. I-0.403 J-0.491
N7300 G1 X123.879 Y34.896
N7310 G2 X139.892 Y14.022 Z-7. I-23.854 J-34.878
N7320 G3 X139.999 Y13.828 Z-7. I0.601 J0.205
N7330 G2 X140.111 Y13.618 Z-7. I-0.494 J-0.399
N7340 G1 X141.113 Y10.407
N7350 G2 X140.013 Y9.819 Z-7. I-0.606 J-0.189
N7360 X139.892 Y10.058 Z-7. I0.494 J0.399
N7370 G3 X121.79 Y34.896 Z-7. I-39.86 J-10.035
N7380 G1 X121.781 Y34.901
N7390 X121.773 Y34.907
N7400 X119.993 Y36.098
N7410 G3 X119.331 Y35.016 Z-7. I-0.353 J-0.527
N7420 G1 X119.547 Y34.896
N7430 G2 X139.892 Y2.911 Z-7. I-19.531 J-34.888
N7440 G3 X140.584 Y1.797 Z-7. I1.423 J0.111
N7450 G2 X140.894 Y1.248 Z-6.9 I-0.325 J-0.545
N7460 G1 X140.731 Y-31.207 F1840.683
N7470 G2 X140.588 Y-31.605 Z-7. I-0.635 J0.003 F613.561
N7480 G1 X139.783 Y-32.591
N7490 G2 X138.02 Y-34.63 Z-7. I-39.494 J32.352
N7500 G1 X138.005 Y-34.646
N7510 X137.991 Y-34.664
N7520 X137.04 Y-35.852
N7530 G2 X136.09 Y-35.012 Z-7. I-0.496 J0.397
N7540 G1 X136.207 Y-34.892
N7550 G3 X139.896 Y-30.605 Z-7. I-34.835 J33.707
N7560 G1 X139.908 Y-30.589
N7570 X139.92 Y-30.575
N7580 X141.012 Y-29.308
N7590 G3 X140.017 Y-28.521 Z-7. I-0.481 J0.415
N7600 G1 X139.896 Y-28.688
N7610 G2 X134.603 Y-34.892 Z-7. I-39.352 J28.215
N7620 G3 X134.564 Y-34.933 Z-7. I0.444 J-0.454
N7630 G1 X133.745 Y-35.89
N7640 G2 X132.83 Y-35.012 Z-7. I-0.482 J0.413
N7650 G1 X132.96 Y-34.892
N7660 G3 X139.896 Y-26.688 Z-7. I-32.874 J34.828
N7670 G1 X139.903 Y-26.677
N7680 X139.91 Y-26.667
N7690 X141.069 Y-25.081
N7700 G3 X140.016 Y-24.373 Z-7. I-0.512 J0.375
N7710 G1 X139.896 Y-24.568
N7720 G2 X131.271 Y-34.892 Z-7. I-39.67 J24.377
N7730 G1 X131.253 Y-34.908
N7740 X131.236 Y-34.925
N7750 X130.251 Y-35.94
N7760 G2 X129.386 Y-35.012 Z-7. I-0.455 J0.442
N7770 G1 X129.53 Y-34.892
N7780 G3 X139.895 Y-22.314 Z-7. I-29.385 J34.777
N7790 G1 X139.932 Y-22.247
N7800 X139.942 Y-22.229
N7810 X141.132 Y-20.225
N7820 G3 X140.016 Y-19.622 Z-7. I-0.546 J0.324
N7830 G1 X139.895 Y-19.869
N7840 G2 X127.728 Y-34.892 Z-7. I-39.812 J19.806
N7850 G1 X127.715 Y-34.902
N7860 X127.702 Y-34.914
N7870 X126.489 Y-35.997
N7880 G2 X125.69 Y-35.012 Z-7. I-0.423 J0.473
N7890 G1 X125.854 Y-34.892
N7900 G3 X139.895 Y-17.149 Z-7. I-25.814 J34.856
N7910 G1 X139.992 Y-16.923
N7920 X139.995 Y-16.917
N7930 X141.076 Y-14.472
N7940 G3 X140.012 Y-13.802 Z-7. I-0.581 J0.257
N7950 X139.895 Y-14.008 Z-7. I0.483 J-0.413
N7960 G2 X123.88 Y-34.892 Z-7. I-39.843 J13.97
N7970 G1 X123.86 Y-34.906
N7980 X122.315 Y-36.059
N7990 G2 X121.601 Y-35.01 Z-7. I-0.38 J0.508
N8000 G1 X121.793 Y-34.892
N8010 G3 X139.894 Y-10.054 Z-7. I-21.775 J34.884
N8020 G2 X140.014 Y-9.813 Z-7. I0.616 J-0.155
N8030 G3 X140.145 Y-9.514 Z-7. I-0.496 J0.397
N8040 G1 X141.155 Y-3.022
N8050 G3 X140.014 Y-2.55 Z-7. I-0.628 J0.098
N8060 X139.894 Y-2.884 Z-7. I0.513 J-0.374
N8070 G2 X119.55 Y-34.892 Z-7. I-39.879 J2.877
N8080 G1 X119.488 Y-34.926
N8090 X119.48 Y-34.931
N8100 X119.472 Y-34.935
N8110 X117.449 Y-36.128
N8120 G2 X116.847 Y-35.01 Z-7. I-0.322 J0.547
N8130 G1 X117.089 Y-34.892
N8140 G3 X117.087 Y34.896 Z-7. I-17.083 J34.894
N8150 G1 X116.943 Y34.967
N8160 X116.935 Y34.971
N8170 X114.827 Y36.049
N8180 G3 X114.109 Y35.015 Z-7. I-0.289 J-0.565
N8190 X114.298 Y34.896 Z-7. I0.429 J0.469
N8200 G2 X114.303 Y-34.892 Z-7. I-14.293 J-34.895
N8210 G1 X114.045 Y-34.996
N8220 X114.042 Y-34.997
N8230 X111.371 Y-36.085
N8240 G2 X110.72 Y-35.013 Z-7. I-0.24 J0.588
N8250 X110.938 Y-34.892 Z-7. I0.411 J-0.484
N8260 G3 X110.938 Y34.896 Z-7. I-10.935 J34.894
N8270 G2 X110.732 Y35.008 Z-7. I0.196 J0.604
N8280 G3 X110.48 Y35.134 Z-7. I-0.402 J-0.491
N8290 G1 X106.364 Y36.139
N8300 G3 X105.834 Y35.013 Z-7. I-0.15 J-0.617
N8310 X106.109 Y34.896 Z-7. I0.38 J0.509
N8320 G2 X106.123 Y-34.892 Z-7. I-6.107 J-34.895
N8330 G3 X105.843 Y-35.011 Z-7. I0.102 J-0.627
N8340 G2 X105.635 Y-35.115 Z-7. I-0.382 J0.507
N8350 G1 X102.12 Y-36.117
N8360 G2 X101.523 Y-35.032 Z-7. I-0.174 J0.611
N8370 X101.905 Y-34.872 Z-7. I0.423 J-0.474
N8380 G3 X101.906 Y34.875 Z-7. I-1.904 J34.874
N8390 G2 X100.727 Y35.62 Z-7. I0.062 J1.404
N8400 G0 Z10.
N8410 X-137.177 Y35.544
N8420 Z-0.65
N8430 G1 Z-7.
N8440 X-138.018 Y34.631
N8450 G3 X-139.784 Y32.587 Z-7. I31.859 J-29.302
N8460 G1 X-139.794 Y32.574
N8470 X-139.805 Y32.562
N8480 X-140.985 Y31.274
N8490 G3 X-140.017 Y30.454 Z-7. I0.468 J-0.429
N8500 G1 X-139.896 Y30.608
N8510 G2 X-136.207 Y34.892 Z-7. I38.724 J-29.619
N8520 G3 X-136.168 Y34.936 Z-7. I-0.456 J0.442
N8530 G1 X-135.418 Y35.866
N8540 G2 X-134.48 Y35.013 Z-7. I0.495 J-0.398
N8550 G1 X-134.605 Y34.892
N8560 G3 X-139.896 Y28.694 Z-7. I34.476 J-34.792
N8570 G1 X-139.914 Y28.67
N8580 X-141.042 Y27.25
N8590 G3 X-140.014 Y26.506 Z-7. I0.498 J-0.395
N8600 G1 X-139.896 Y26.686
N8610 G2 X-132.963 Y34.892 Z-7. I39.725 J-26.532
N8620 G3 X-132.927 Y34.928 Z-7. I-0.434 J0.463
N8630 G1 X-132.036 Y35.91
N8640 G2 X-131.143 Y35.009 Z-7. I0.47 J-0.427
N8650 G1 X-131.275 Y34.892
N8660 G3 X-139.896 Y24.569 Z-7. I31.142 J-34.77
N8670 G1 Y24.568
N8680 X-139.902 Y24.56
N8690 X-139.907 Y24.552
N8700 X-141.101 Y22.755
N8710 G3 X-140.015 Y22.098 Z-7. I0.529 J-0.352
N8720 G1 X-139.895 Y22.316
N8730 G2 X-129.534 Y34.892 Z-7. I39.84 J-22.267
N8740 G1 X-129.518 Y34.906
N8750 X-129.502 Y34.921
N8760 X-128.407 Y35.97
N8770 G2 X-127.576 Y35.012 Z-7. I0.439 J-0.458
N8780 G1 X-127.73 Y34.892
N8790 G3 X-139.895 Y19.874 Z-7. I27.685 J-34.862
N8800 G1 X-139.964 Y19.738
N8810 X-139.97 Y19.726
N8820 X-141.04 Y17.705
N8830 G3 X-140.013 Y16.976 Z-7. I0.561 J-0.298
N8840 X-139.895 Y17.158 Z-7. I-0.466 J0.431
N8850 G2 X-125.851 Y34.892 Z-7. I39.841 J-17.124
N8860 G1 X-125.837 Y34.902
N8870 X-125.824 Y34.913
N8880 X-124.479 Y36.023
N8890 G2 X-123.711 Y35.013 Z-7. I0.404 J-0.49
N8900 G1 X-123.884 Y34.892
N8910 G3 X-139.895 Y14.007 Z-7. I23.836 J-34.853
N8920 G2 X-140.001 Y13.817 Z-7. I-0.598 J0.212
N8930 G3 X-140.116 Y13.605 Z-7. I0.492 J-0.401
N8940 G1 X-141.114 Y10.406
N8950 G3 X-140.015 Y9.817 Z-7. I0.606 J-0.189
N8960 X-139.894 Y10.055 Z-7. I-0.493 J0.4
N8970 G2 X-121.793 Y34.892 Z-7. I39.863 J-10.038
N8980 G1 X-121.775 Y34.904
N8990 X-119.992 Y36.096
N9000 G2 X-119.334 Y35.012 Z-7. I0.353 J-0.527
N9010 G1 X-119.553 Y34.892
N9020 G3 X-139.894 Y2.866 Z-7. I19.529 J-34.876
N9030 G2 X-140.582 Y1.742 Z-7. I-1.423 J0.099
N9040 G3 X-140.891 Y1.194 Z-6.9 I0.326 J-0.545
N9050 G1 X-140.723 Y-31.209 F1840.683
N9060 G3 X-140.581 Y-31.606 Z-7. I0.635 J0.003 F613.561
N9070 G1 X-139.787 Y-32.587
N9080 G3 X-138.019 Y-34.631 Z-7. I36.777 J30.012
N9090 G1 X-138.004 Y-34.647
N9100 X-137.991 Y-34.664
N9110 X-137.042 Y-35.853
N9120 G3 X-136.088 Y-35.017 Z-7. I0.496 J0.396
N9130 G1 X-136.204 Y-34.896
N9140 G2 X-139.89 Y-30.614 Z-7. I34.92 J33.789
N9150 G1 X-139.901 Y-30.599
N9160 X-139.913 Y-30.586
N9170 X-141.007 Y-29.32
N9180 G2 X-140.011 Y-28.533 Z-7. I0.481 J0.415
N9190 G1 X-139.891 Y-28.701
N9200 G3 X-134.599 Y-34.896 Z-7. I39.615 J28.479
N9210 G2 X-134.564 Y-34.934 Z-7. I-0.448 J-0.45
N9220 G1 X-133.751 Y-35.888
N9230 G3 X-132.83 Y-35.016 Z-7. I0.483 J0.412
N9240 G1 X-132.956 Y-34.896
N9250 G2 X-139.891 Y-26.693 Z-7. I32.658 J34.64
N9260 G1 X-139.898 Y-26.682
N9270 X-139.906 Y-26.671
N9280 X-141.066 Y-25.086
N9290 G2 X-140.012 Y-24.381 Z-7. I0.512 J0.375
N9300 G1 X-139.891 Y-24.579
N9310 G3 X-131.27 Y-34.896 Z-7. I39.818 J24.512
N9320 G1 X-131.255 Y-34.909
N9330 X-131.241 Y-34.924
N9340 X-130.246 Y-35.947
N9350 G3 X-129.384 Y-35.017 Z-7. I0.455 J0.443
N9360 G1 X-129.528 Y-34.896
N9370 G2 X-139.891 Y-22.324 Z-7. I29.464 J34.843
N9380 G1 X-139.928 Y-22.257
N9390 X-139.938 Y-22.239
N9400 X-141.127 Y-20.237
N9410 G2 X-140.012 Y-19.632 Z-7. I0.546 J0.324
N9420 G1 X-139.891 Y-19.876
N9430 G3 X-127.725 Y-34.896 Z-7. I39.804 J19.805
N9440 G1 X-127.711 Y-34.907
N9450 X-127.699 Y-34.918
N9460 X-126.482 Y-36.002
N9470 G3 X-125.685 Y-35.015 Z-7. I0.422 J0.474
N9480 G1 X-125.849 Y-34.896
N9490 G2 X-139.892 Y-17.163 Z-7. I25.83 J34.881
N9500 G1 X-139.988 Y-16.945
N9510 X-141.072 Y-14.488
N9520 G2 X-140.01 Y-13.817 Z-7. I0.581 J0.257
N9530 X-139.892 Y-14.022 Z-7. I-0.481 J-0.414
N9540 G3 X-123.88 Y-34.896 Z-7. I39.886 J14.018
N9550 G1 X-123.871 Y-34.902
N9560 X-123.862 Y-34.909
N9570 X-122.325 Y-36.059
N9580 G3 X-121.605 Y-35.014 Z-7. I0.381 J0.509
N9590 G1 X-121.791 Y-34.896
N9600 G2 X-139.892 Y-10.057 Z-7. I21.773 J34.883
N9610 G3 X-140.012 Y-9.812 Z-7. I-0.617 J-0.15
N9620 G2 X-140.143 Y-9.514 Z-7. I0.496 J0.396
N9630 G1 X-141.154 Y-3.023
N9640 G2 X-140.014 Y-2.551 Z-7. I0.627 J0.098
N9650 X-139.893 Y-2.883 Z-7. I-0.513 J-0.374
N9660 G3 X-119.55 Y-34.896 Z-7. I39.887 J2.877
N9670 G1 X-119.491 Y-34.93
N9680 X-119.483 Y-34.934
N9690 X-117.445 Y-36.132
N9700 G3 X-116.844 Y-35.014 Z-7. I0.322 J0.548
N9710 G1 X-117.086 Y-34.896
N9720 G2 X-117.092 Y34.892 Z-7. I17.08 J34.896
N9730 G1 X-116.94 Y34.965
N9740 X-116.933 Y34.968
N9750 X-116.926 Y34.972
N9760 X-114.836 Y36.044
N9770 G2 X-114.116 Y35.012 Z-7. I0.29 J-0.566
N9780 X-114.303 Y34.892 Z-7. I-0.43 J0.466
N9790 G3 X-114.297 Y-34.896 Z-7. I14.297 J-34.893
N9800 G1 X-114.045 Y-34.999
N9810 X-114.043 Y-35.
N9820 X-111.36 Y-36.09
N9830 G3 X-110.712 Y-35.017 Z-7. I0.239 J0.588
N9840 X-110.933 Y-34.896 Z-7. I-0.409 J-0.485
N9850 G2 X-110.942 Y34.892 Z-7. I10.929 J34.896
N9860 G3 X-110.735 Y35.005 Z-7. I-0.195 J0.604
N9870 G2 X-110.484 Y35.13 Z-7. I0.402 J-0.492
N9880 G1 X-106.374 Y36.134
N9890 G2 X-105.84 Y35.01 Z-7. I0.151 J-0.617
N9900 X-106.111 Y34.892 Z-7. I-0.383 J0.507
N9910 G3 X-106.104 Y-34.896 Z-7. I6.106 J-34.893
N9920 G2 X-105.828 Y-35.015 Z-7. I-0.107 J-0.625
N9930 G3 X-105.619 Y-35.119 Z-7. I0.383 J0.507
N9940 G1 X-102.09 Y-36.12
N9950 G3 X-101.494 Y-35.036 Z-7. I0.174 J0.61
N9960 X-101.878 Y-34.876 Z-7. I-0.422 J-0.474
N9970 G2 X-101.936 Y34.872 Z-7. I1.877 J34.876
N9980 G3 X-100.753 Y35.618 Z-7. I-0.059 J1.404
N9990 G0 Z10.
N10000 G30 Z10. M5 M9
N10010 M30
%
