%
(top_plate)

(POSTPROCESSOR: wtfmate)
(GENERATED BY SprutCAM)
(DATE: 1/31/2024)
(TIME: 8:33:45 PM)

(T# 1) (Dia 6.) (6mm Spot drill) (Hole machining 1)
(T# 104) (Dia 3.5) (#28 drill) (Hole machining 2)
(T# 164) (Dia 9.5) (9.5mm Drill) (Hole machining 3)

N10 G90 G64 G50 G54 G80 G17 G40 G49
N20 G21 (Metric)
(Hole machining 1)
N30 G30
N40 T1 G43 H1 M6
(6mm Spot drill)
N50 S796 M3 M8
N60 G0 G94 X100. Y25.
N70 Z10.
N80 G81 G98 Z-1. R0.6 F200.
N90 X82.5
N100 X68.354 Y22.674
N110 X100. Y0.
N120 Y-25.
N130 X82.5
N140 X66.104 Y-24.118
N150 X38.977 Y-19.016
N160 X56.894 Y6.407
N170 X42.261
N180 X19.528
N190 X4.894
N200 X-4.894 Y-6.407
N210 X-19.528
N220 X-42.261
N230 X-56.894
N240 X-68.354 Y-22.674
N250 X-82.5 Y-25.
N260 X-100.
N270 Y0.
N280 Y25.
N290 X-82.5
N300 X-66.104 Y24.118
N310 X-38.977 Y19.016
N320 G80
N330 G30 Z10. M5 M9

(Hole machining 2)
N340 T104 G43 H104 M6
(#28 drill)
N350 S3500 M3 M8
N360 G0 X100. Y25.
N370 Z10.
N380 G83 G98 Z-8.0515 R-0.2415 Q2.625 F350.
N390 X82.5
N400 X68.354 Y22.674 R-0.2315
N410 X100. Y-25. R-0.2415
N420 X82.5
N430 X66.104 Y-24.118
N440 X56.894 Y6.407 R-0.2315
N450 X4.894
N460 X-4.894 Y-6.407
N470 X-56.894
N480 X-68.354 Y-22.674
N490 X-82.5 Y-25. R-0.2415
N500 X-100.
N510 Y25.
N520 X-82.5
N530 X-66.104 Y24.118
N540 G80
N550 G30 Z10. M5 M9

(Hole machining 3)
N560 T164 G43 H164 M6
(9.5mm Drill)
N570 S3060 M3 M8
N580 G0 X-100. Y0.
N590 Z10.
N600 G83 G98 Z-9.8541 R0.3659 Q2.85 F306.
N610 X-38.977 Y19.016
N620 X-42.261 Y-6.407
N630 X-19.528
N640 X19.528 Y6.407
N650 X42.261
N660 X38.977 Y-19.016
N670 X100. Y0.
N680 G80
N690 G30 Z10. M5 M9
N700 M30
%
