%
(top_plate)

(POSTPROCESSOR: top_plate)
(GENERATED BY SprutCAM)
(DATE: 4/8/2025)
(TIME: 7:04:44 PM)

(T# 1) (Dia 6.) (6mm Spot drill) (Hole machining 1)
(T# 2) (Dia 3.5) (#28 drill) (Hole machining 2)
(T# 3) (Dia 9.5) (.375 Drill) (Hole machining 3)
(T# 4) (Dia 6.35) (6.35mm Cylindrical mill) (Roughing waterline 2)

N10 G90 G64 G50 G54 G80 G17 G40 G49
N20 G21 (Metric)
(Hole machining 1)
N30 G30
N40 T1 G43 H1 M6
(6mm Spot drill)
N50 S5000 M3 M8
N60 G0 G94 X100. Y25.
N70 Z10.
N80 G81 G98 Z-1. R0.6 F500.
N90 X82.5
N100 X68.354 Y22.674
N110 X59.394 Y6.407
N120 X100. Y0.
N130 Y-25.
N140 X82.5
N150 X66.104 Y-24.118
N160 X38.977 Y-19.016
N170 X42.261 Y6.407
N180 X19.528
N190 X6.894
N200 X-6.894 Y-6.407
N210 X-19.528
N220 X-42.261
N230 X-59.394
N240 X-68.354 Y-22.674
N250 X-82.5 Y-25.
N260 X-100.
N270 Y0.
N280 Y25.
N290 X-82.5
N300 X-66.104 Y24.118
N310 X-38.977 Y19.016
N320 G80
N330 G30 Z10. M5 M9

(Hole machining 2)
N340 T2 G43 H2 M6
(#28 drill)
N350 S5000 M3 M8
N360 G0 X100. Y25.
N370 Z10.
N380 G73 G98 Z-8.35 R0.35 Q2.625 F500.
N390 X82.5
N400 X68.354 Y22.674
N410 X59.394 Y6.407
N420 X100. Y-25.
N430 X82.5
N440 X66.104 Y-24.118
N450 X6.894 Y6.407
N460 X-6.894 Y-6.407
N470 X-59.394
N480 X-68.354 Y-22.674
N490 X-82.5 Y-25.
N500 X-100.
N510 Y25.
N520 X-82.5
N530 X-66.104 Y24.118
N540 G80
N550 G30 Z10. M5 M9

(Hole machining 3)
N560 T3 G43 H3 M6
(.375 Drill)
N570 S3060 M3 M8
N580 G0 X100. Y0.
N590 Z10.
N600 G83 G98 Z-9.35 R0.95 Q2.85 F306.
N610 X38.977 Y-19.016
N620 X42.261 Y6.407
N630 X19.528
N640 X-19.528 Y-6.407
N650 X-42.261
N660 X-38.977 Y19.016
N670 X-100. Y0.
N680 G80
N690 G30 Z10. M5 M9

(Roughing waterline 2)
N700 T4 G43 H4 M6
(6.35mm Cylindrical mill)
N710 S5113 M3 M8
N720 G0 X-104.545 Y-37.187
N730 Z10.
N740 Z0.97
N750 G1 Z-13. F613.561
N760 X-105.091 Y-35.696
N770 G3 X-106.066 Y-34.882 Z-13. I-1.192 J-0.437
N780 G2 X-111.716 Y-33.411 Z-13. I6.066 J34.883
N790 G3 X-114.883 Y-32.73 Z-13. I-4.613 J-13.752
N800 X-120.192 Y-32.42 Z-13. I-5.981 J-56.769
N810 X-132.559 Y-32.347 Z-13. I-10.125 J-668.642
N820 G1 X-133.035
N830 X-133.511
N840 G2 X-134.438 Y-32.03 Z-13. I0.023 J1.581
N850 X-135.757 Y-30.469 Z-13. I2.563 J3.503
N860 X-136.559 Y-28.24 Z-13. I8.17 J4.199
N870 X-137.098 Y-24.409 Z-13. I23.648 J5.279
N880 X-137.31 Y-17.708 Z-13. I110.328 J6.845
N890 G1 X-137.335 Y-12.071
N900 X-137.352 Y-0.796
N910 X-137.343 Y4.841
N920 X-137.345 Y28.336
N930 G2 X-136.96 Y29.536 Z-13. I1.709 J0.113
N940 X-135.331 Y30.826 Z-13. I3.581 J-2.848
N950 X-132.6 Y31.698 Z-13. I4.551 J-9.548
N960 X-128.12 Y32.177 Z-13. I5.625 J-31.398
N970 X-119.838 Y32.328 Z-13. I7.735 J-196.561
N980 X-114.687 Y32.339 Z-13. I5.939 J-1659.937
N990 G3 X-114.206 Y32.434 Z-13. I-0.001 J1.27
N1000 X-114.122 Y32.47 Z-13. I-1.719 J4.093
N1010 G2 X-106.519 Y34.803 Z-13. I14.122 J-32.469
N1020 G3 X-105.555 Y35.63 Z-13. I-0.234 J1.248
N1030 G1 X-105.028 Y37.127
N1040 G3 X-105.735 Y37.964 Z-12.9 I-0.599 J0.211
N1050 G1 X-133.131 Y33.221 F1840.683
N1060 G3 X-136.276 Y32.125 Z-12.9 I2.234 J-11.472
N1070 X-138.933 Y27.982 Z-12.9 I2.172 J-4.316
N1080 G1 X-138.917 Y-16.16
N1090 G3 X-138.735 Y-23.882 Z-12.9 I188.643 J0.586
N1100 X-138.125 Y-28.55 Z-12.9 I30.053 J1.55
N1110 X-136.821 Y-31.787 Z-12.9 I10.248 J2.249
N1120 X-133.307 Y-33.914 Z-12.9 I3.984 J2.615
N1130 G1 X-111.674 Y-36.562
N1140 G3 X-110.972 Y-35.821 Z-13. I0.077 J0.63 F613.561
N1150 G1 X-111.249 Y-34.258
N1160 G3 X-112.067 Y-33.286 Z-13. I-1.251 J-0.222
N1170 G2 X-116.481 Y-31.336 Z-13. I12.067 J33.287
N1180 G3 X-119.011 Y-30.496 Z-13. I-4.276 J-8.642
N1190 X-123.293 Y-30.001 Z-13. I-5.558 J-29.34
N1200 X-129.606 Y-29.837 Z-13. I-6.752 J-137.962
N1210 G2 X-131.554 Y-29.121 Z-13. I0.002 J3.016
N1220 X-133.038 Y-27.221 Z-13. I3.568 J4.314
N1230 X-134.041 Y-24.177 Z-13. I11.038 J5.326
N1240 X-134.597 Y-19.384 Z-13. I32.64 J6.212
N1250 X-134.78 Y-11.418 Z-13. I169.625 J7.881
N1260 X-134.796 Y-6.662 Z-13. I1057.146 J6.1
N1270 G1 X-134.803 Y-6.536
N1280 G3 X-134.829 Y-6.371 Z-13. I-2.082 J-0.246
N1290 G2 X-135.177 Y4.03 Z-13. I34.829 J6.372
N1300 G3 X-134.876 Y9.343 Z-13. I-58.501 J5.98
N1310 X-134.806 Y21.71 Z-13. I-688.634 J10.073
N1320 G1 Y24.726
N1330 G2 X-134.105 Y26.545 Z-13. I2.992 J-0.108
N1340 X-132.211 Y28.032 Z-13. I4.302 J-3.53
N1350 X-129.169 Y29.039 Z-13. I5.321 J-10.976
N1360 X-124.376 Y29.596 Z-13. I6.208 J-32.508
N1370 X-119.557 Y29.748 Z-13. I6.127 J-118.264
N1380 G3 X-118.968 Y29.902 Z-13. I-0.018 J1.27
N1390 X-118.844 Y29.977 Z-13. I-1.137 J2.018
N1400 G2 X-114.18 Y32.445 Z-13. I18.844 J-29.976
N1410 G3 X-113.426 Y33.467 Z-13. I-0.508 J1.164
N1420 G1 X-113.249 Y35.045
N1430 G3 X-114.077 Y35.72 Z-12.9 I-0.632 J0.071
N1440 G1 X-131.596 Y30.025 F1840.683
N1450 G3 X-134.502 Y28.417 Z-12.9 I3.092 J-9.021
N1460 X-136.293 Y25.543 Z-12.9 I3.267 J-4.031
N1470 G1 X-136.359 Y25.154
N1480 X-138.227 Y3.569
N1490 G3 X-137.35 Y2.928 Z-13. I0.632 J-0.055 F613.561
N1500 G1 X-135.885 Y3.539
N1510 G3 X-135.114 Y4.548 Z-13. I-0.489 J1.172
N1520 G2 X-133.353 Y11.885 Z-13. I35.114 J-4.547
N1530 G3 X-132.663 Y15.049 Z-13. I-13.688 J4.645
N1540 X-132.343 Y20.356 Z-13. I-55.683 J6.012
N1550 X-132.324 Y21.305 Z-13. I-151.121 J3.595
N1560 G2 X-131.21 Y24.03 Z-13. I3.894 J-0.002
N1570 X-129.291 Y25.405 Z-13. I4.627 J-4.431
N1580 X-125.926 Y26.484 Z-13. I5.777 J-12.229
N1590 X-123.418 Y26.853 Z-13. I5.265 J-27.091
N1600 G3 X-122.75 Y27.133 Z-13. I-0.137 J1.262
N1610 G1 X-122.396 Y27.425
N1620 G2 X-118.898 Y29.944 Z-13. I22.396 J-27.424
N1630 G3 X-118.306 Y31.068 Z-13. I-0.677 J1.074
N1640 G1 X-118.369 Y32.654
N1650 G3 X-119.327 Y33.175 Z-12.9 I-0.634 J-0.025
N1660 G1 X-130.761 Y26.404 F1840.683
N1670 G3 X-133.103 Y24.163 Z-12.9 I3.388 J-5.885
N1680 X-133.733 Y22.725 Z-12.9 I4.815 J-2.965
N1690 G1 X-136.496 Y11.918
N1700 G3 X-135.772 Y11.135 Z-13. I0.616 J-0.157 F613.561
N1710 G1 X-134.208 Y11.406
N1720 G3 X-133.232 Y12.219 Z-13. I-0.216 J1.251
N1730 G2 X-131.263 Y16.624 Z-13. I33.232 J-12.218
N1740 G3 X-130.551 Y18.579 Z-13. I-7.817 J3.953
N1750 G2 X-129.464 Y20.841 Z-13. I5.587 J-1.292
N1760 X-127.457 Y22.491 Z-13. I5.307 J-4.411
N1770 G3 X-127.164 Y22.717 Z-13. I-0.621 J1.108
N1780 X-127.065 Y22.83 Z-13. I-1.643 J1.539
N1790 G2 X-122.739 Y27.142 Z-13. I27.065 J-22.829
N1800 G3 X-123.639 Y28.03 Z-12.9 I-0.408 J0.487
N1810 G1 X-132.206 Y17.528
N1820 G3 X-131.155 Y16.825 Z-13. I0.492 J-0.401
N1830 G2 X-127.106 Y22.782 Z-13. I31.155 J-16.824
N1840 G3 X-126.884 Y24.032 Z-13. I-0.972 J0.817
N1850 G1 X-127.426 Y25.524
N1860 G3 X-128.591 Y25.591 Z-12.9 I-0.597 J-0.216
N1870 G1 X-133.55 Y15.591 F1840.683
N1880 G3 X-136.976 Y-1.372 Z-12.9 I33.604 J-15.613
N1890 G1 X-136.234 Y-18.629
N1900 G3 X-135.678 Y-24.122 Z-12.9 I42.675 J1.546
N1910 X-134.368 Y-28.122 Z-12.9 I14.673 J2.592
N1920 X-132.022 Y-30.733 Z-12.9 I6.166 J3.181
N1930 X-130.536 Y-31.324 Z-12.9 I2.48 J4.071
N1940 G1 X-116.737 Y-34.534
N1950 G3 X-115.959 Y-33.895 Z-13. I0.144 J0.618 F613.561
N1960 G1 X-116.011 Y-32.308
N1970 G3 X-116.682 Y-31.23 Z-13. I-1.269 J-0.042
N1980 G2 X-119.995 Y-29.22 Z-13. I16.682 J31.231
N1990 G3 X-121.781 Y-28.376 Z-13. I-3.71 J-5.543
N2000 X-125.312 Y-27.672 Z-13. I-5.249 J-17.123
N2010 X-126.238 Y-27.58 Z-13. I-4.065 J-36.018
N2020 G2 X-129.211 Y-26.189 Z-13. I0.185 J4.268
N2030 X-130.47 Y-24.287 Z-13. I5.097 J4.742
N2040 X-131.509 Y-20.905 Z-13. I12.936 J5.824
N2050 X-132.059 Y-15.792 Z-13. I37.736 J6.645
N2060 X-132.088 Y-15.188 Z-13. I76.524 J4.025
N2070 G3 X-132.16 Y-14.824 Z-13. I-1.269 J-0.059
N2080 X-132.228 Y-14.662 Z-13. I-1.896 J-0.706
N2090 G2 X-134.817 Y-6.434 Z-13. I32.228 J14.663
N2100 G3 X-135.642 Y-5.468 Z-13. I-1.249 J-0.231
N2110 G1 X-137.138 Y-4.937
N2120 G3 X-137.957 Y-5.722 Z-12.9 I-0.212 J-0.598
N2130 G1 X-132.491 Y-23.471 F1840.683
N2140 G3 X-130.899 Y-26.648 Z-12.9 I9.848 J2.947
N2150 X-128.614 Y-28.592 Z-12.9 I5.194 J3.789
N2160 G1 X-120.707 Y-32.323
N2170 G3 X-119.803 Y-31.802 Z-13. I0.271 J0.574 F613.561
N2180 G1 X-119.67 Y-30.22
N2190 G3 X-120.211 Y-29.071 Z-13. I-1.266 J0.106
N2200 G2 X-122.833 Y-27.06 Z-13. I20.211 J29.072
N2210 G3 X-124.019 Y-26.313 Z-13. I-3.523 J-4.277
N2220 G2 X-127.517 Y-22.892 Z-13. I3.338 J6.912
N2230 X-128.054 Y-21.725 Z-13. I10.001 J5.31
N2240 G1 X-128.083 Y-21.648
N2250 G3 X-128.195 Y-21.424 Z-13. I-1.187 J-0.452
N2260 X-128.295 Y-21.284 Z-13. I-1.725 J-1.125
N2270 G2 X-132.202 Y-14.719 Z-13. I28.295 J21.285
N2280 G3 X-133.237 Y-13.983 Z-13. I-1.155 J-0.528
N2290 G1 X-134.817 Y-13.833
N2300 G3 X-135.384 Y-14.847 Z-12.9 I-0.06 J-0.632
N2310 G1 X-124. Y-29.941 F1840.683
N2320 G3 X-122.869 Y-29.674 Z-13. I0.507 J0.383 F613.561
N2330 G1 X-122.579 Y-28.114
N2340 G3 X-123.002 Y-26.916 Z-13. I-1.248 J0.232
N2350 G2 X-128.148 Y-21.478 Z-13. I23.002 J26.917
N2360 G3 X-129.32 Y-20.988 Z-13. I-1.01 J-0.77
N2370 G1 X-130.895 Y-21.191
N2380 G0 Z10.
N2390 X-100.398 Y-35.556
N2400 Z0.97
N2410 G1 Z-13.
N2420 G3 X-101.47 Y-34.875 Z-13. I-1.126 J-0.588
N2430 G2 X-101.563 Y34.872 Z-13. I1.47 J34.875
N2440 G1 Y34.882
N2450 G0 Z10.
N2460 X-99.26 Y1.295
N2470 Z0.97
N2480 G1 Z-13.
N2490 X-100.042 Y1.435
N2500 G3 X-101.236 Y1.004 Z-13. I-0.224 J-1.25
N2510 G2 X-101.868 Y0.432 Z-13. I-2.427 J2.047
N2520 G3 X-102.281 Y-0.856 Z-13. I1.043 J-1.045
N2530 X-100.954 Y-2.583 Z-13. I2.218 J0.331
N2540 X-97.29 Y-1.069 Z-13. I1.103 J2.52
N2550 X-100.73 Y2.858 Z-13. I-2.718 J1.09
N2560 X-103.172 Y1.279 Z-13. I0.714 J-3.78
N2570 X-103.1 Y-2.687 Z-13. I2.927 J-1.931
N2580 X-98.843 Y-4.283 Z-13. I3.307 J2.346
N2590 X-95.649 Y1.419 Z-13. I-1.028 J4.321
N2600 X-99.721 Y4.598 Z-13. I-4.386 J-1.42
N2610 X-104.981 Y1.603 Z-13. I-0.459 J-5.31
N2620 X-103.825 Y-4.543 Z-13. I4.872 J-2.266
N2630 X-97.635 Y-5.806 Z-13. I4.094 J4.269
N2640 X-94.018 Y2.303 Z-13. I-2.22 J5.852
N2650 X-98.685 Y6.311 Z-13. I-6.048 J-2.321
N2660 X-106.935 Y-3.161 Z-13. I-1.553 J-6.976
N2670 X-100.313 Y-8.101 Z-13. I7.145 J2.67
N2680 X-91.773 Y-1.436 Z-13. I0.562 J8.084
N2690 X-96.84 Y7.798 Z-13. I-8.25 J1.479
N2700 X-109.005 Y1.98 Z-13. I-3.454 J-8.407
N2710 X-105.473 Y-8.304 Z-13. I9.004 J-2.656
N2720 X-93.51 Y-8.035 Z-13. I5.803 J8.084
N2730 X-92.225 Y7.001 Z-13. I-6.39 J8.119
N2740 X-102.729 Y10.31 Z-13. I-8.075 J-7.304
N2750 X-111.007 Y-3.998 Z-13. I2.492 J-10.991
N2760 X-100.737 Y-12.253 Z-13. I11.241 J3.47
N2770 X-87.818 Y-3.021 Z-13. I1.019 J12.23
N2780 X-94.106 Y11.177 Z-13. I-12.211 J3.083
N2790 X-110.259 Y8.275 Z-13. I-6.236 J-11.698
N2800 X-111.091 Y-8.667 Z-13. I10.139 J-8.99
N2810 X-95.823 Y-13.956 Z-13. I11.418 J8.28
N2820 X-85.506 Y2.896 Z-13. I-3.969 J14.014
N2830 X-96.653 Y14.504 Z-13. I-14.662 J-2.923
N2840 X-111.046 Y10.646 Z-13. I-3.679 J-15.051
N2850 X-112.991 Y8.18 Z-13. I10.04 J-9.917
N2860 X-111.23 Y10.467 Z-13. I12.991 J-8.18
N2870 X-111.515 Y9.229 Z-13. I0.929 J-0.866
N2880 G1 X-111.051 Y7.712
N2890 X-112.994 Y9.08
N2900 G3 X-84.153 Y0.389 Z-13. I12.994 J-9.08
N2910 X-112.994 Y9.08 Z-13. I-15.847 J-0.389
N2920 G1 X-112.984 Y9.073
N2930 X-112.964 Y9.065 Z-12.994
N2940 X-86.697 Y-1.677 Z-5.164 F1840.683
N2950 G3 X-86.125 Y-1.632 Z-5. I0.241 J0.587 F613.561
N2960 G1 X-84.77 Y-0.804
N2970 G3 X-84.163 Y0.311 Z-5. I-0.662 J1.084
N2980 G2 X-83.655 Y2.112 Z-5. I3.174 J0.078
N2990 G3 X-83.181 Y3.813 Z-5. I-3.565 J1.91
N3000 G1 X-83.172 Y3.941
N3010 X-83.171 Y4.005
N3020 G3 X-83.188 Y4.256 Z-5. I-1.269 J0.039
N3030 X-116.828 Y-4.212 Z-5. I-16.815 J-4.253
N3040 X-83.165 Y4.184 Z-5. I16.828 J4.212
N3050 X-84.047 Y5.098 Z-5. I-1.233 J-0.307
N3060 G1 X-85.572 Y5.537
N3070 X-83.315 Y6.344
N3080 X-83.424 Y6.632
N3090 X-83.609 Y7.061
N3100 G3 X-83.318 Y6.343 Z-5. I-16.391 J-7.061
N3110 G1 X-83.328 Y6.339
N3120 G0 Z10.
N3130 X-38.269 Y20.27
N3140 Z0.97
N3150 G1 Z-13.
N3160 X-39.049 Y20.413
N3170 G3 X-40.246 Y19.988 Z-13. I-0.23 J-1.249
N3180 G2 X-40.803 Y19.473 Z-13. I-2.417 J2.058
N3190 G3 X-41.257 Y18.301 Z-13. I0.952 J-1.043
N3200 X-39.909 Y16.432 Z-13. I2.217 J0.178
N3210 X-36.324 Y17.827 Z-13. I1.085 J2.516
N3220 X-39.667 Y21.882 Z-13. I-2.66 J1.212
N3230 X-42.082 Y20.376 Z-13. I0.686 J-3.789
N3240 X-41.906 Y16.118 Z-13. I2.899 J-2.013
N3250 X-37.538 Y14.814 Z-13. I3.146 J2.57
N3260 X-34.708 Y20.629 Z-13. I-1.326 J4.242
N3270 X-38.873 Y23.62 Z-13. I-4.321 J-1.622
N3280 X-42.028 Y22.783 Z-13. I-0.286 J-5.282
N3290 X-35.932 Y15.244 Z-13. I3.051 J-3.768
N3300 X-42.082 Y22.74 Z-13. I-3.045 J3.772
N3310 X-42.519 Y21.548 Z-13. I0.814 J-0.975
N3320 G1 X-42.248 Y19.984
N3330 X-44.116 Y20.501
N3340 G3 X-44.115 Y20.5 Z-13. I5.139 J-1.485
N3350 G1 X-44.104 Y20.497
N3360 X-44.085 Y20.489 Z-12.982
N3370 X-36.148 Y17.107 Z-5.535
N3380 G3 X-35.555 Y17.157 Z-5. I0.249 J0.584
N3390 G1 X-34.221 Y18.018
N3400 G3 X-33.64 Y19.147 Z-5. I-0.688 J1.067
N3410 G2 X-33.356 Y20.626 Z-5. I3.171 J0.156
N3420 G3 X-33.329 Y22.336 Z-5. I-2.685 J0.898
N3430 X-34.785 Y24.617 Z-5. I-4.537 J-1.292
N3440 X-38.918 Y26.204 Z-5. I-4.211 J-4.793
N3450 X-46.104 Y17.774 Z-5. I-0.121 J-7.175
N3460 X-32.097 Y16.756 Z-5. I7.131 J1.248
N3470 X-31.777 Y17.636 Z-5. I-29.963 J11.415
N3480 G1 X-31.768 Y17.661
N3490 X-31.734 Y17.783
N3500 G3 X-46.213 Y20.302 Z-5. I-7.244 J1.235
N3510 X-31.737 Y17.756 Z-5. I7.236 J-1.286
N3520 X-32.174 Y18.948 Z-5. I-1.251 J0.217
N3530 G1 X-33.392 Y19.966
N3540 X-31.24 Y20.339
N3550 G3 X-46.681 Y17.512 Z-5. I-7.737 J-1.323
N3560 X-31.24 Y20.339 Z-5. I7.704 J1.504
N3570 G1 X-31.251 Y20.338
N3580 G0 Z10.
N3590 X-18.869 Y-5.052
N3600 Z0.97
N3610 G1 Z-13.
N3620 X-19.658 Y-4.965
N3630 G3 X-20.821 Y-5.475 Z-13. I-0.14 J-1.262
N3640 G2 X-21.413 Y-6.088 Z-13. I-2.558 J1.881
N3650 G3 X-21.753 Y-7.379 Z-13. I1.096 J-0.978
N3660 X-20.096 Y-9.124 Z-13. I2.232 J0.46
N3670 X-16.723 Y-7.211 Z-13. I0.714 J2.671
N3680 X-20.328 Y-3.574 Z-13. I-2.805 J0.825
N3690 X-22.453 Y-4.867 Z-13. I0.92 J-3.903
N3700 X-22.438 Y-9.304 Z-13. I2.73 J-2.21
N3710 X-19.849 Y-10.751 Z-13. I3.064 J2.445
N3720 X-19.574 Y-10.754 Z-13. I0.206 J6.494
N3730 G1 X-19.527
N3740 G3 X-19.209 Y-2.07 Z-13. I-0.001 J4.348
N3750 G1 X-20.098
N3760 G3 X-24.414 Y-4.796 Z-13. I0.05 J-4.859
N3770 X-23.864 Y-10.309 Z-13. I4.722 J-2.313
N3780 X-23.004 Y-10.748 Z-13. I0.964 J0.827
N3790 X-22.71 Y-10.752 Z-13. I0.225 J5.284
N3800 G1 X-19.765 Y-10.754
N3810 G3 X-19.131 Y-10.07 Z-12.9 I0.001 J0.635
N3820 G1 X-19.7 Y-2.656
N3830 G3 X-20.333 Y-2.07 Z-13. I-0.633 J-0.049
N3840 G1 X-22.749 Y-2.068
N3850 G3 X-24.681 Y-2.78 Z-13. I0.096 J-3.239
N3860 X-26.396 Y-5.178 Z-13. I3.156 J-4.069
N3870 X-26.181 Y-10.022 Z-13. I6.119 J-2.156
N3880 X-25.103 Y-10.749 Z-13. I1.149 J0.541
N3890 X-24.906 Y-10.751 Z-13. I0.152 J5.214
N3900 G1 X-22.901 Y-10.752
N3910 G3 X-22.265 Y-10.114 Z-12.9 I0.001 J0.635
N3920 G1 X-22.301 Y-2.7
N3930 G3 X-22.936 Y-2.068 Z-13. I-0.635 J-0.003
N3940 G1 X-24.717
N3950 G3 X-26.337 Y-2.631 Z-13. I0.11 J-2.927
N3960 X-28.082 Y-4.844 Z-13. I2.964 J-4.132
N3970 X-28.381 Y-9.505 Z-13. I6.623 J-2.765
N3980 X-28.092 Y-10.195 Z-13. I2.716 J0.734
N3990 X-27.164 Y-10.744 Z-13. I1.05 J0.715
N4000 X-26.979 Y-10.75 Z-13. I0.154 J1.927
N4010 G1 X-25.033 Y-10.751
N4020 G3 X-24.398 Y-10.13 Z-12.9 I0. J0.635
N4030 G1 X-24.234 Y-2.717
N4040 G3 X-24.869 Y-2.068 Z-13. I-0.635 J0.014
N4050 G1 X-26.523 Y-2.067
N4060 G3 X-28.13 Y-2.611 Z-13. I0.082 J-2.885
N4070 X-29.864 Y-4.737 Z-13. I3.001 J-4.217
N4080 X-30.42 Y-9.152 Z-13. I6.667 J-3.083
N4090 X-30.067 Y-10.172 Z-13. I3.387 J0.602
N4100 X-29.026 Y-10.749 Z-13. I1.064 J0.693
N4110 X-28.94 Y-10.749 Z-13. I0.057 J4.768
N4120 G1 X-27.042 Y-10.75
N4130 G3 X-26.408 Y-10.146 Z-12.9 I0. J0.635
N4140 G1 X-26.053 Y-2.732
N4150 G3 X-26.687 Y-2.067 Z-13. I-0.634 J0.03
N4160 G1 X-28.341 Y-2.066
N4170 G3 X-29.981 Y-2.628 Z-13. I0.093 J-2.943
N4180 X-31.758 Y-4.813 Z-13. I3.126 J-4.358
N4190 X-32.344 Y-9.188 Z-13. I6.548 J-3.105
N4200 X-32.002 Y-10.175 Z-13. I3.185 J0.551
N4210 X-30.96 Y-10.748 Z-13. I1.062 J0.696
N4220 X-30.877 Y-10.749 Z-13. I0.053 J5.523
N4230 G1 X-29.003
N4240 G3 X-28.369 Y-10.157 Z-12.9 I0. J0.635
N4250 G1 X-27.868 Y-2.744
N4260 G3 X-28.501 Y-2.066 Z-13. I-0.633 J0.043
N4270 G1 X-30.219 Y-2.065
N4280 G3 X-31.881 Y-2.661 Z-13. I0.155 J-3.049
N4290 X-33.642 Y-4.818 Z-13. I3.201 J-4.411
N4300 X-34.269 Y-9.198 Z-13. I6.469 J-3.16
N4310 X-33.949 Y-10.146 Z-13. I3.332 J0.594
N4320 X-32.922 Y-10.747 Z-13. I1.079 J0.668
N4330 X-32.807 Y-10.748 Z-13. I0.085 J2.84
N4340 G1 X-30.941 Y-10.749
N4350 G3 X-30.308 Y-10.165 Z-12.9 I0. J0.635
N4360 G1 X-29.708 Y-2.751
N4370 G3 X-30.34 Y-2.065 Z-13. I-0.633 J0.051
N4380 G1 X-32.058 Y-2.064
N4390 G3 X-33.749 Y-2.654 Z-13. I0.121 J-3.063
N4400 X-35.531 Y-4.801 Z-13. I3.189 J-4.46
N4410 X-36.176 Y-8.289 Z-13. I5.799 J-2.877
N4420 X-35.881 Y-10.02 Z-13. I4.097 J-0.192
N4430 X-34.802 Y-10.745 Z-13. I1.148 J0.543
N4440 X-34.67 Y-10.747 Z-13. I0.101 J2.442
N4450 G1 X-32.87 Y-10.748
N4460 G3 X-32.238 Y-10.169 Z-12.9 I0. J0.635
N4470 G1 X-31.576 Y-2.756
N4480 G3 X-32.209 Y-2.064 Z-13. I-0.633 J0.057
N4490 G1 X-33.926 Y-2.063
N4500 G3 X-35.454 Y-2.531 Z-13. I0.079 J-2.987
N4510 G2 X-36.565 Y-2.786 Z-13. I-1.14 J2.426
N4520 X-38.291 Y-2.693 Z-13. I-0.338 J9.885
N4530 G3 X-40.708 Y-2.521 Z-13. I-2.531 J-18.43
N4540 X-43.196 Y-3.069 Z-13. I-0.021 J-5.829
N4550 X-45.214 Y-5.436 Z-13. I1.586 J-3.395
N4560 X-43.032 Y-9.278 Z-13. I2.994 J-0.84
N4570 X-42.272 Y-9.374 Z-13. I0.763 J2.979
N4580 G2 X-41.143 Y-9.715 Z-13. I-0.231 J-2.801
N4590 X-39.869 Y-10.515 Z-13. I-4.807 J-9.07
N4600 G3 X-39.181 Y-10.744 Z-13. I0.728 J1.04
N4610 X-39.078 Y-10.745 Z-13. I0.073 J3.273
N4620 G1 X-34.733 Y-10.747
N4630 G3 X-34.101 Y-10.166 Z-12.9 I0. J0.635
N4640 G1 X-33.468 Y-2.752
N4650 G3 X-34.101 Y-2.063 Z-13. I-0.633 J0.054
N4660 G1 X-42.261 Y-2.06
N4670 G3 X-42.58 Y-10.743 Z-13. I0. J-4.347
N4680 G1 X-39.141 Y-10.745
N4690 G3 X-38.041 Y-10.11 Z-13. I0. J1.27
N4700 G1 X-37.247 Y-8.736
N4710 X-37.248 Y-11.245
N4720 X-19.528 Y-11.254
N4730 G3 X-19.173 Y-1.571 Z-13. I0. J4.848
N4740 G1 X-42.261 Y-1.56
N4750 G3 X-42.616 Y-11.242 Z-13. I0. J-4.847
N4760 G1 X-37.248 Y-11.245
N4770 Y-11.239
N4780 G0 Z10.
N4790 X42.867 Y7.813
N4800 Z0.97
N4810 G1 Z-13.
N4820 X42.074 Y7.864
N4830 G3 X40.936 Y7.302 Z-13. I-0.082 J-1.267
N4840 G2 X40.372 Y6.663 Z-13. I-2.641 J1.762
N4850 G3 X40.068 Y5.383 Z-13. I1.09 J-0.934
N4860 X41.792 Y3.681 Z-13. I2.216 J0.52
N4870 X45.092 Y5.722 Z-13. I0.617 J2.691
N4880 X41.314 Y9.199 Z-13. I-2.838 J0.708
N4890 X39.132 Y7.63 Z-13. I1.071 J-3.789
N4900 X39.532 Y3.326 Z-13. I2.967 J-1.895
N4910 X42.165 Y2.06 Z-13. I2.9 J2.659
N4920 X42.261 Y2.06 Z-13. I0.057 J4.816
N4930 X42.368 Y10.754 Z-13. I0. J4.347
N4940 G1 X41.733
N4950 G3 X37.356 Y7.922 Z-13. I0.058 J-4.889
N4960 X37.963 Y2.491 Z-13. I4.758 J-2.217
N4970 X38.829 Y2.064 Z-13. I0.952 J0.84
N4980 X39.042 Y2.061 Z-13. I0.167 J4.308
N4990 G1 X42.188 Y2.06
N5000 G3 X42.821 Y2.752 Z-12.9 I0. J0.635
N5010 G1 X42.142 Y10.176
N5020 G3 X41.51 Y10.754 Z-13. I-0.632 J-0.057
N5030 G1 X39.094
N5040 G3 X37.151 Y10.052 Z-13. I0.078 J-3.256
N5050 X35.313 Y7.333 Z-13. I3.239 J-4.17
N5060 X35.641 Y2.781 Z-13. I6.256 J-1.838
N5070 X36.726 Y2.064 Z-13. I1.144 J0.551
N5080 X36.848 Y2.062 Z-13. I0.091 J2.644
N5090 G1 X38.915 Y2.061
N5100 G3 X39.55 Y2.698 Z-12.9 I0. J0.635
N5110 G1 X39.535 Y10.12
N5120 G3 X38.9 Y10.754 Z-13. I-0.635 J-0.001
N5130 G1 X37.118
N5140 G3 X35.48 Y10.19 Z-13. I0.095 J-2.941
N5150 X33.746 Y8.011 Z-13. I2.989 J-4.157
N5160 X33.483 Y3.17 Z-13. I6.519 J-2.782
N5170 X33.892 Y2.424 Z-13. I1.725 J0.459
N5180 X34.664 Y2.068 Z-13. I0.886 J0.909
N5190 X34.841 Y2.063 Z-13. I0.146 J1.97
N5200 G1 X36.785 Y2.062
N5210 G3 X37.42 Y2.682 Z-12.9 I0. J0.635
N5220 G1 X37.602 Y10.103
N5230 G3 X36.968 Y10.754 Z-13. I-0.634 J0.016
N5240 G1 X35.25
N5250 G3 X33.574 Y10.132 Z-13. I0.154 J-2.986
N5260 X31.866 Y7.894 Z-13. I3.197 J-4.212
N5270 X31.427 Y3.538 Z-13. I6.689 J-2.874
N5280 X31.756 Y2.636 Z-13. I3.132 J0.634
N5290 X32.799 Y2.064 Z-13. I1.062 J0.698
N5300 X32.88 Y2.064 Z-13. I0.052 J5.868
N5310 G1 X34.778 Y2.063
N5320 G3 X35.412 Y2.669 Z-12.9 I0. J0.635
N5330 G1 X35.754 Y10.089
N5340 G3 X35.12 Y10.754 Z-13. I-0.634 J0.03
N5350 G1 X33.465
N5360 G3 X31.806 Y10.174 Z-13. I0.101 J-2.953
N5370 X30.087 Y8.072 Z-13. I3.145 J-4.325
N5380 X29.468 Y3.642 Z-13. I6.553 J-3.174
N5390 X29.8 Y2.661 Z-13. I3.415 J0.608
N5400 X30.83 Y2.066 Z-13. I1.076 J0.674
N5410 X31.003 Y2.065 Z-13. I0.129 J8.103
N5420 G1 X32.817 Y2.064
N5430 G3 X33.451 Y2.659 Z-12.9 I0. J0.635
N5440 G1 X33.92 Y10.079
N5450 G3 X33.286 Y10.754 Z-13. I-0.634 J0.04
N5460 G1 X31.632
N5470 G3 X29.994 Y10.2 Z-13. I0.093 J-2.975
N5480 X28.119 Y7.889 Z-13. I3.173 J-4.49
N5490 X27.529 Y3.715 Z-13. I6.575 J-3.059
N5500 X27.874 Y2.657 Z-13. I3.418 J0.53
N5510 X28.907 Y2.066 Z-13. I1.074 J0.679
N5520 X29.011 Y2.066 Z-13. I0.073 J3.297
N5530 G1 X30.876 Y2.065
N5540 G3 X31.509 Y2.65 Z-12.9 I0. J0.635
N5550 G1 X32.093 Y10.069
N5560 G3 X31.46 Y10.754 Z-13. I-0.633 J0.05
N5570 G1 X29.742
N5580 G3 X28.036 Y10.143 Z-13. I0.146 J-3.097
N5590 X26.219 Y7.881 Z-13. I3.311 J-4.52
N5600 X25.585 Y4.502 Z-13. I6.03 J-2.88
N5610 X25.709 Y3.35 Z-13. I3.621 J-0.194
N5620 X25.967 Y2.661 Z-13. I2.616 J0.589
N5630 X26.998 Y2.067 Z-13. I1.076 J0.676
N5640 X27.106 Y2.067 Z-13. I0.078 J3.101
N5650 G1 X28.947 Y2.066
N5660 G3 X29.58 Y2.646 Z-12.9 I0. J0.635
N5670 G1 X30.219 Y10.064
N5680 G3 X29.586 Y10.754 Z-13. I-0.633 J0.055
N5690 G1 X27.869
N5700 G3 X26.358 Y10.282 Z-13. I0.094 J-2.961
N5710 G2 X25.262 Y10.02 Z-13. I-1.129 J2.292
N5720 X23.455 Y10.12 Z-13. I-0.34 J10.244
N5730 G3 X21.044 Y10.291 Z-13. I-2.469 J-17.683
N5740 X18.537 Y9.718 Z-13. I0.004 J-5.793
N5750 X16.493 Y6.942 Z-13. I1.578 J-3.302
N5760 X19.506 Y3.441 Z-13. I3.047 J-0.425
N5770 G2 X20.704 Y3.061 Z-13. I-0.264 J-2.917
N5780 X21.906 Y2.3 Z-13. I-5.118 J-9.4
N5790 G3 X22.593 Y2.069 Z-13. I0.73 J1.039
N5800 X22.699 Y2.069 Z-13. I0.076 J3.178
N5810 G1 X27.042 Y2.067
N5820 G3 X27.675 Y2.645 Z-12.9 I0.001 J0.635
N5830 G1 X28.333 Y10.063
N5840 G3 X27.701 Y10.754 Z-13. I-0.632 J0.056
N5850 G1 X19.528
N5860 G3 X19.209 Y2.07 Z-13. I0. J-4.348
N5870 G1 X22.635 Y2.069
N5880 G3 X23.736 Y2.703 Z-13. I0.001 J1.27
N5890 G1 X24.53 Y4.078
N5900 X24.529 Y1.569
N5910 X42.261 Y1.56
N5920 G3 X42.618 Y11.242 Z-13. I0. J4.847
N5930 G1 X19.528 Y11.254
N5940 G3 X19.173 Y1.571 Z-13. I0. J-4.848
N5950 G1 X24.529 Y1.569
N5960 Y1.575
N5970 G0 Z10.
N5980 X40.043 Y-17.931
N5990 Z0.97
N6000 G1 Z-13.
N6010 X39.323 Y-17.597
N6020 G3 X38.058 Y-17.711 Z-13. I-0.534 J-1.153
N6030 G2 X37.301 Y-18.104 Z-13. I-1.829 J2.595
N6040 G3 X36.587 Y-19.089 Z-13. I0.676 J-1.242
N6050 X37.39 Y-21.26 Z-13. I2.185 J-0.426
N6060 X41.207 Y-20.88 Z-13. I1.714 J2.138
N6070 X39.101 Y-16.077 Z-13. I-2.226 J1.887
N6080 X36.438 Y-16.8 Z-13. I-0.382 J-3.859
N6090 X35.357 Y-20.984 Z-13. I2.158 J-2.789
N6100 X39.215 Y-23.449 Z-13. I3.736 J1.596
N6110 X43.439 Y-18.031 Z-13. I-0.123 J4.452
N6120 X40.337 Y-14.625 Z-13. I-4.516 J-0.997
N6130 X37.044 Y-14.572 Z-13. I-1.726 J-4.944
N6140 X40.886 Y-23.473 Z-13. I1.932 J-4.446
N6150 X36.971 Y-14.602 Z-13. I-1.909 J4.457
N6160 X36.233 Y-15.636 Z-13. I0.526 J-1.156
N6170 G1 X36.079 Y-17.216
N6180 X34.443 Y-16.179
N6190 G3 X42.273 Y-23.228 Z-13. I4.534 J-2.837
N6200 X34.443 Y-16.179 Z-13. I-3.296 J4.212
N6210 G1 X34.452 Y-16.185
N6220 X34.47 Y-16.196 Z-12.982
N6230 X41.71 Y-20.875 Z-5.622
N6240 G3 X42.399 Y-20.875 Z-5. I0.345 J0.534
N6250 G1 X43.733 Y-20.015
N6260 G3 X44.313 Y-18.885 Z-5. I-0.688 J1.068
N6270 G2 X44.598 Y-17.407 Z-5. I3.171 J0.156
N6280 G3 X44.625 Y-15.696 Z-5. I-2.685 J0.898
N6290 X43.169 Y-13.416 Z-5. I-4.538 J-1.292
N6300 X39.035 Y-11.829 Z-5. I-4.211 J-4.792
N6310 X31.85 Y-20.258 Z-5. I-0.12 J-7.174
N6320 X45.857 Y-21.276 Z-5. I7.131 J1.247
N6330 X46.177 Y-20.397 Z-5. I-29.965 J11.415
N6340 G1 X46.185 Y-20.372
N6350 X46.219 Y-20.25
N6360 G3 X31.741 Y-17.73 Z-5. I-7.243 J1.236
N6370 X46.217 Y-20.277 Z-5. I7.236 J-1.286
N6380 X45.78 Y-19.084 Z-5. I-1.251 J0.218
N6390 G1 X44.561 Y-18.067
N6400 X46.714 Y-17.693
N6410 G3 X31.21 Y-20.15 Z-5. I-7.737 J-1.323
N6420 X46.714 Y-17.693 Z-5. I7.767 J1.134
N6430 G1 X46.703 Y-17.695
N6440 G0 Z10.
N6450 X101.057 Y1.073
N6460 Z0.97
N6470 G1 Z-13.
N6480 X100.338 Y1.409
N6490 G3 X99.073 Y1.299 Z-13. I-0.537 J-1.15
N6500 G2 X98.315 Y0.909 Z-13. I-1.819 J2.603
N6510 G3 X97.583 Y-0.202 Z-13. I0.727 J-1.275
N6520 X98.577 Y-2.374 Z-13. I2.259 J-0.279
N6530 X102.161 Y-1.949 Z-13. I1.55 J2.257
N6540 X100.035 Y2.949 Z-13. I-2.163 J1.972
N6550 X97.356 Y2.132 Z-13. I-0.299 J-3.821
N6560 X96.371 Y-1.946 Z-13. I2.275 J-2.707
N6570 X100.585 Y-4.425 Z-13. I3.765 J1.58
N6580 X104.136 Y1.967 Z-13. I-0.479 J4.449
N6590 X101.001 Y4.51 Z-13. I-4.266 J-2.054
N6600 X94.604 Y-2.209 Z-13. I-1.366 J-5.104
N6610 X99.829 Y-6.238 Z-13. I5.541 J1.784
N6620 X106.408 Y-0.097 Z-13. I0.342 J6.229
N6630 X102.669 Y5.872 Z-13. I-6.505 J0.081
N6640 X92.487 Y-1.253 Z-13. I-3.069 J-6.451
N6650 X98.119 Y-7.908 Z-13. I7.609 J0.728
N6660 X107.795 Y-3.017 Z-13. I2.108 J7.846
N6670 X105.072 Y6.709 Z-13. I-7.823 J3.054
N6680 X92.47 Y5.163 Z-13. I-5.512 J-7.204
N6690 X92.062 Y-5.922 Z-13. I7.319 J-5.819
N6700 X103.114 Y-9.829 Z-13. I8.188 J5.577
N6710 X109.78 Y3.696 Z-13. I-2.97 J9.869
N6720 X100.895 Y10.594 Z-13. I-10.115 J-3.858
N6730 X88.333 Y-0.44 Z-13. I-1.305 J-11.182
N6740 X95.853 Y-11.546 Z-13. I11.745 J-0.146
N6750 X110.692 Y-6.569 Z-13. I4.418 J11.439
N6760 X108.996 Y8.862 Z-13. I-10.693 J6.633
N6770 X93.238 Y11.243 Z-13. I-9.456 J-9.247
N6780 X86.765 Y-4.677 Z-13. I6.445 J-11.897
N6790 X99.55 Y-14.546 Z-13. I13.435 J4.188
N6800 X114.698 Y-1.532 Z-13. I0.678 J14.534
N6810 X107.23 Y13.004 Z-13. I-14.862 J1.551
N6820 X91.833 Y12.997 Z-13. I-7.692 J-13.439
N6830 X108.162 Y-13.002 Z-13. I8.166 J-12.998
N6840 X91.775 Y12.962 Z-13. I-8.162 J13.002
N6850 X91.186 Y11.836 Z-13. I0.68 J-1.072
N6860 G1 X91.253 Y10.25
N6870 X89.7 Y12.05
N6880 G3 X89.701 Y12.05 Z-13. I10.3 J-12.05
N6890 G1 X89.708 Y12.04
N6900 X89.727 Y12.03 Z-12.994
N6910 X113.225 Y-1.639 Z-5.196 F1840.683
N6920 G3 X113.875 Y-1.632 Z-5. I0.319 J0.549 F613.561
N6930 G1 X115.23 Y-0.804
N6940 G3 X115.837 Y0.311 Z-5. I-0.662 J1.084
N6950 G2 X116.345 Y2.112 Z-5. I3.174 J0.078
N6960 G3 X116.819 Y3.813 Z-5. I-3.565 J1.91
N6970 G1 X116.828 Y3.941
N6980 X116.829 Y4.005
N6990 G3 X116.812 Y4.256 Z-5. I-1.269 J0.039
N7000 X83.172 Y-4.212 Z-5. I-16.815 J-4.253
N7010 X116.835 Y4.184 Z-5. I16.828 J4.212
N7020 X115.953 Y5.098 Z-5. I-1.233 J-0.307
N7030 G1 X114.428 Y5.537
N7040 X116.685 Y6.344
N7050 X116.576 Y6.632
N7060 X116.391 Y7.061
N7070 G3 X116.682 Y6.343 Z-5. I-16.391 J-7.061
N7080 G1 X116.672 Y6.339
N7090 G0 Z10.
N7100 X104.544 Y37.187
N7110 Z0.97
N7120 G1 Z-13.
N7130 X105.091 Y35.696
N7140 G3 X106.066 Y34.882 Z-13. I1.192 J0.438
N7150 G2 X111.716 Y33.411 Z-13. I-6.065 J-34.884
N7160 G3 X114.883 Y32.73 Z-13. I4.613 J13.748
N7170 X120.192 Y32.42 Z-13. I5.981 J56.754
N7180 X132.559 Y32.347 Z-13. I10.125 J668.462
N7190 G1 X133.035
N7200 X133.511
N7210 G2 X134.435 Y32.032 Z-13. I-0.022 J-1.579
N7220 X135.684 Y30.6 Z-13. I-2.454 J-3.401
N7230 X136.559 Y28.24 Z-13. I-7.813 J-4.237
N7240 X137.098 Y24.409 Z-13. I-23.648 J-5.279
N7250 X137.31 Y17.708 Z-13. I-110.325 J-6.845
N7260 G1 X137.335 Y12.071
N7270 X137.352 Y0.796
N7280 X137.343 Y-4.841
N7290 X137.345 Y-28.336
N7300 G2 X136.96 Y-29.536 Z-13. I-1.709 J-0.113
N7310 X135.331 Y-30.826 Z-13. I-3.581 J2.848
N7320 X132.6 Y-31.698 Z-13. I-4.551 J9.548
N7330 X128.12 Y-32.177 Z-13. I-5.625 J31.398
N7340 X119.838 Y-32.328 Z-13. I-7.735 J196.561
N7350 X114.687 Y-32.339 Z-13. I-5.939 J1659.937
N7360 G3 X114.206 Y-32.434 Z-13. I0.001 J-1.27
N7370 X114.121 Y-32.47 Z-13. I1.719 J-4.094
N7380 G2 X106.519 Y-34.803 Z-13. I-14.121 J32.47
N7390 G3 X105.555 Y-35.63 Z-13. I0.234 J-1.248
N7400 G1 X105.027 Y-37.127
N7410 G3 X105.734 Y-37.964 Z-12.9 I0.599 J-0.211
N7420 G1 X133.131 Y-33.221 F1840.683
N7430 G3 X136.276 Y-32.125 Z-12.9 I-2.225 J11.445
N7440 X138.933 Y-27.982 Z-12.9 I-2.172 J4.316
N7450 G1 X138.917 Y16.16
N7460 G3 X138.735 Y23.882 Z-12.9 I-188.637 J-0.586
N7470 X138.125 Y28.551 Z-12.9 I-30.055 J-1.55
N7480 X136.821 Y31.787 Z-12.9 I-10.177 J-2.221
N7490 X133.307 Y33.914 Z-12.9 I-3.984 J-2.615
N7500 G1 X111.656 Y36.568
N7510 G3 X110.954 Y35.827 Z-13. I-0.077 J-0.63 F613.561
N7520 G1 X111.232 Y34.264
N7530 G3 X112.05 Y33.292 Z-13. I1.251 J0.222
N7540 G2 X116.522 Y31.315 Z-13. I-12.049 J-33.294
N7550 G3 X119.063 Y30.485 Z-13. I4.291 J8.832
N7560 X123.349 Y29.998 Z-13. I5.563 J29.852
N7570 X129.662 Y29.836 Z-13. I6.753 J140.256
N7580 G2 X131.554 Y29.121 Z-13. I-0.058 J-3.014
N7590 X133.038 Y27.221 Z-13. I-3.568 J-4.314
N7600 X134.041 Y24.177 Z-13. I-11.038 J-5.326
N7610 X134.597 Y19.384 Z-13. I-32.641 J-6.213
N7620 X134.78 Y11.418 Z-13. I-169.627 J-7.881
N7630 X134.796 Y6.668 Z-13. I-1056.302 J-6.097
N7640 G1 X134.803 Y6.542
N7650 G3 X134.829 Y6.377 Z-13. I2.081 J0.246
N7660 G2 X135.28 Y3.014 Z-13. I-34.828 J-6.379
N7670 X135.183 Y-3.991 Z-13. I-35.28 J-3.014
N7680 G3 X134.877 Y-9.302 Z-13. I57.649 J-5.979
N7690 X134.806 Y-21.669 Z-13. I678.828 J-10.074
N7700 G1 Y-23.098
N7710 Y-24.526
N7720 G2 X134.031 Y-26.631 Z-13. I-3.082 J-0.062
N7730 X132.21 Y-28.031 Z-13. I-4.276 J3.68
N7740 X129.169 Y-29.038 Z-13. I-5.319 J10.96
N7750 X124.376 Y-29.596 Z-13. I-6.208 J32.472
N7760 X119.557 Y-29.748 Z-13. I-6.126 J118.157
N7770 G3 X118.968 Y-29.902 Z-13. I0.018 J-1.27
N7780 X118.844 Y-29.977 Z-13. I1.137 J-2.018
N7790 G2 X114.18 Y-32.445 Z-13. I-18.844 J29.977
N7800 G3 X113.426 Y-33.467 Z-13. I0.508 J-1.164
N7810 G1 X113.249 Y-35.045
N7820 G3 X114.076 Y-35.72 Z-12.9 I0.631 J-0.071
N7830 G1 X131.596 Y-30.023 F1840.683
N7840 G3 X134.506 Y-28.411 Z-12.9 I-3.092 J9.011
N7850 X136.293 Y-25.532 Z-12.9 I-3.305 J4.045
N7860 G1 X136.358 Y-25.146
N7870 X138.229 Y-3.561
N7880 G3 X137.352 Y-2.92 Z-13. I-0.633 J0.055 F613.561
N7890 G1 X135.887 Y-3.531
N7900 G3 X135.116 Y-4.54 Z-13. I0.488 J-1.172
N7910 G2 X133.357 Y-11.878 Z-13. I-35.116 J4.54
N7920 G3 X132.664 Y-15.04 Z-13. I13.635 J-4.643
N7930 X132.344 Y-20.347 Z-13. I55.498 J-6.012
N7940 X132.324 Y-21.295 Z-13. I150.625 J-3.594
N7950 G2 X131.209 Y-24.029 Z-13. I-3.9 J-0.004
N7960 X129.29 Y-25.404 Z-13. I-4.628 J4.431
N7970 X125.925 Y-26.484 Z-13. I-5.777 J12.225
N7980 X123.418 Y-26.852 Z-13. I-5.264 J27.08
N7990 G3 X122.75 Y-27.133 Z-13. I0.137 J-1.263
N8000 G1 X122.397 Y-27.425
N8010 G2 X118.898 Y-29.944 Z-13. I-22.397 J27.425
N8020 G3 X118.306 Y-31.068 Z-13. I0.677 J-1.074
N8030 G1 X118.369 Y-32.654
N8040 G3 X119.327 Y-33.175 Z-12.9 I0.634 J0.025
N8050 G1 X130.761 Y-26.403 F1840.683
N8060 G3 X133.104 Y-24.16 Z-12.9 I-3.389 J5.884
N8070 X133.732 Y-22.724 Z-12.9 I-4.743 J2.931
N8080 G1 X136.499 Y-11.91
N8090 G3 X135.775 Y-11.127 Z-13. I-0.615 J0.157 F613.561
N8100 G1 X134.211 Y-11.398
N8110 G3 X133.236 Y-12.211 Z-13. I0.217 J-1.251
N8120 G2 X131.267 Y-16.617 Z-13. I-33.236 J12.211
N8130 G3 X130.554 Y-18.569 Z-13. I7.78 J-3.948
N8140 G2 X129.464 Y-20.841 Z-13. I-5.603 J1.29
N8150 X127.458 Y-22.49 Z-13. I-5.307 J4.412
N8160 G3 X127.165 Y-22.715 Z-13. I0.621 J-1.108
N8170 X127.066 Y-22.829 Z-13. I1.643 J-1.539
N8180 G2 X122.739 Y-27.142 Z-13. I-27.066 J22.829
N8190 G3 X123.639 Y-28.03 Z-12.9 I0.408 J-0.486
N8200 G1 X132.21 Y-17.52
N8210 G3 X131.159 Y-16.817 Z-13. I-0.492 J0.401
N8220 G2 X127.107 Y-22.78 Z-13. I-31.159 J16.817
N8230 G3 X126.885 Y-24.031 Z-13. I0.972 J-0.818
N8240 G1 X127.427 Y-25.523
N8250 G3 X128.593 Y-25.589 Z-12.9 I0.597 J0.217
N8260 G1 X133.552 Y-15.589 F1840.683
N8270 G3 X136.977 Y1.377 Z-12.9 I-33.606 J15.612
N8280 G1 X136.234 Y18.629
N8290 G3 X135.678 Y24.122 Z-12.9 I-42.676 J-1.546
N8300 X134.368 Y28.122 Z-12.9 I-14.673 J-2.592
N8310 X132.257 Y30.582 Z-12.9 I-6.302 J-3.272
N8320 X130.754 Y31.265 Z-12.9 I-2.764 J-4.086
N8330 G1 X116.778 Y34.514
N8340 G3 X115.999 Y33.876 Z-13. I-0.144 J-0.618 F613.561
N8350 G1 X116.05 Y32.289
N8360 G3 X116.72 Y31.21 Z-13. I1.269 J0.04
N8370 G2 X120.004 Y29.214 Z-13. I-16.719 J-31.212
N8380 G3 X121.807 Y28.368 Z-13. I3.728 J5.6
N8390 X125.341 Y27.669 Z-13. I5.253 J17.279
N8400 X126.268 Y27.577 Z-13. I4.065 J36.314
N8410 G2 X129.211 Y26.189 Z-13. I-0.206 J-4.251
N8420 X130.471 Y24.287 Z-13. I-5.099 J-4.742
N8430 X131.509 Y20.905 Z-13. I-12.94 J-5.824
N8440 X132.059 Y15.792 Z-13. I-37.744 J-6.645
N8450 X132.088 Y15.191 Z-13. I-76.227 J-4.009
N8460 G3 X132.16 Y14.827 Z-13. I1.269 J0.059
N8470 X132.228 Y14.664 Z-13. I1.895 J0.705
N8480 G2 X134.818 Y6.44 Z-13. I-32.227 J-14.666
N8490 G3 X135.642 Y5.474 Z-13. I1.248 J0.231
N8500 G1 X137.138 Y4.943
N8510 G3 X137.957 Y5.729 Z-12.9 I0.212 J0.599
N8520 G1 X132.491 Y23.471 F1840.683
N8530 G3 X130.9 Y26.648 Z-12.9 I-9.85 J-2.947
N8540 X128.643 Y28.579 Z-12.9 I-5.203 J-3.795
N8550 G1 X120.7 Y32.328
N8560 G3 X119.796 Y31.807 Z-13. I-0.271 J-0.574 F613.561
N8570 G1 X119.663 Y30.225
N8580 G3 X120.204 Y29.076 Z-13. I1.266 J-0.106
N8590 G2 X122.826 Y27.066 Z-13. I-20.203 J-29.078
N8600 G3 X124.09 Y26.275 Z-13. I3.66 J4.441
N8610 G2 X127.548 Y22.836 Z-13. I-3.379 J-6.856
N8620 X128.079 Y21.666 Z-13. I-10.146 J-5.3
N8630 G1 X128.084 Y21.652
N8640 G3 X128.195 Y21.427 Z-13. I1.189 J0.446
N8650 X128.298 Y21.282 Z-13. I1.692 J1.092
N8660 G2 X132.202 Y14.722 Z-13. I-28.297 J-21.284
N8670 G3 X133.237 Y13.985 Z-13. I1.155 J0.528
N8680 G1 X134.817 Y13.835
N8690 G3 X135.384 Y14.85 Z-12.9 I0.06 J0.632
N8700 G1 X123.995 Y29.946 F1840.683
N8710 G3 X122.863 Y29.679 Z-13. I-0.507 J-0.383 F613.561
N8720 G1 X122.574 Y28.118
N8730 G3 X122.998 Y26.921 Z-13. I1.249 J-0.231
N8740 G2 X128.149 Y21.478 Z-13. I-22.997 J-26.923
N8750 G3 X129.321 Y20.989 Z-13. I1.01 J0.77
N8760 G1 X130.896 Y21.191
N8770 G0 Z10.
N8780 X100.398 Y35.556
N8790 Z0.97
N8800 G1 Z-13.
N8810 G3 X101.47 Y34.875 Z-13. I1.126 J0.588
N8820 G2 X101.563 Y-34.872 Z-13. I-1.47 J-34.875
N8830 G1 Y-34.882
N8840 G0 Z10.
N8850 G30 Z10. M5 M9
N8860 M30
%
