%
(large_pulley_bottom)

(POSTPROCESSOR: top_plate)
(GENERATED BY SprutCAM)
(DATE: 3/18/2025)
(TIME: 2:46:08 AM)

(T# 4) (Dia 6.35) (6.35mm Cylindrical mill) (Finishing waterline 1)
(T# 4) (Dia 6.35) (6.35mm Cylindrical mill) (Face Milling 1)

N10 G90 G64 G50 G54 G80 G17 G40 G49
N20 G21 (Metric)
(Finishing waterline 1)
N30 G30
N40 T4 G43 H4 M6
(6.35mm Cylindrical mill)
N50 S5113 M3
N60 G0 G94 X-18.769 Y-5.195
N70 Z52.15
N80 Z32.85
N90 G1 Z26.5 F613.56
N100 G3 X-18.018 Y-2.377 Z26.5 I-3.026 J2.315
N110 G2 X-18.018 Y-2.377 Z26.5 I18.018 J2.377
N120 G3 X-19.486 Y0.142 Z26.5 I-3.775 J-0.513
N130 G0 Z52.15

(Face Milling 1)
N140 X-7.056 Y16.937
N150 Z53.15
N160 Z48.5
N170 G1 Z42.15
N180 G3 X-5.65 Y16.743 Z42.15 I0.897 J1.31
N190 G2 X-2.085 Y15.635 Z42.15 I1.02 J-3.007
N200 G3 X-0.55 Y14.355 Z42.15 I4.419 J3.739
N210 X1.292 Y13.441 Z42.15 I7.112 J12.028
N220 X2.49 Y12.941 Z42.15 I39.015 J91.755
N230 G2 X5.739 Y11.404 Z42.15 I-10.084 J-25.503
N240 X10.302 Y7.314 Z42.15 I-6.854 J-12.238
N250 X-3.497 Y-12.12 Z42.15 I-10.306 J-7.298
N260 X-6.223 Y10.979 Z42.15 I3.496 J12.123
N270 G1 X-6.184 Y11.002
N280 G2 X-4.558 Y10.955 Z42.15 I0.773 J-1.415
N290 G3 X-0.77 Y9.198 Z42.15 I43.616 J89.137
N300 G2 X2.247 Y7.749 Z42.15 I-14.779 J-34.631
N310 X5.085 Y5.638 Z42.15 I-5.717 J-10.648
N320 X7.368 Y1.098 Z42.15 I-5.751 J-5.736
N330 X-6.321 Y-3.895 Z42.15 I-7.364 J-1.072
N340 X-5.788 Y4.653 Z42.15 I6.332 J3.896
N350 G1 X-5.759 Y4.688
N360 G2 X-3.933 Y5.143 Z42.15 I1.222 J-1.013
N370 X-0.736 Y3.732 Z42.15 I-6.594 J-19.27
N380 X1.008 Y2.399 Z42.15 I-3.324 J-6.156
N390 X1.875 Y0.677 Z42.15 I-2.356 J-2.265
N400 X1.167 Y-1.269 Z42.15 I-2.065 J-0.351
N410 X0.519 Y-1.606 Z42.15 I-1.161 J1.443
N420 X-1.623 Y-1.785 Z42.15 I-1.467 J4.648
N430 X-3.341 Y-1.403 Z42.15 I1.37 J10.219
N440 G1 X-3.952 Y-1.228
N450 G0 Z53.15
N460 G30 Z53.15 M5
N470 M30
%
