%
(bottom plate)

(POSTPROCESSOR: top_plate)
(GENERATED BY SprutCAM)
(DATE: 2/1/2024)
(TIME: 8:50:42 PM)

(T# 1) (Dia 6.) (6mm Spot drill) (Hole machining 1)
(T# 2) (Dia 3.5) (#28 drill) (Hole machining 3)
(T# 3) (Dia 9.5) (.375 Drill) (Hole machining 4)
(T# 4) (Dia 6.35) (6.35mm Cylindrical mill) (Roughing waterline 1)
(T# 4) (Dia 6.35) (6.35mm Cylindrical mill) (Roughing waterline 2)
(T# 4) (Dia 6.35) (6.35mm Cylindrical mill) (Roughing waterline 3)
(T# 4) (Dia 6.35) (6.35mm Cylindrical mill) (Roughing waterline 4)

N10 G90 G64 G50 G54 G80 G17 G40 G49
N20 G21 (Metric)
(Hole machining 1)
N30 G30
N40 T1 G43 H1 M6
(6mm Spot drill)
N50 S3500 M3
N60 G0 G94 X-100. Y0.
N70 Z10.
N80 G81 G98 Z-1.5 R0.6 F200.
N90 X-68.354 Y22.674
N100 X-57.74 Y-8.187
N110 X-66.104 Y-24.118
N120 X-38.977 Y-19.016
N130 X38.977 Y19.016
N140 X66.104 Y24.118
N150 X57.74 Y8.187
N160 X68.354 Y-22.674
N170 X100. Y0.
N180 G80
N190 G30 Z10. M5

(Hole machining 3)
N200 T2 G43 H2 M6
(#28 drill)
N210 S4000 M3 M8
N220 G0 X68.354 Y-22.674
N230 Z10.
N240 G83 G98 Z-7.4015 R-0.5415 Q2.45 F400.
N250 X57.74 Y8.187
N260 X66.104 Y24.118
N270 X-68.354 Y22.674
N280 X-57.74 Y-8.187
N290 X-66.104 Y-24.118
N300 G80
N310 G30 Z10. M5 M9

(Hole machining 4)
N320 T3 G43 H3 M6
(.375 Drill)
N330 S3060 M3 M8
N340 G0 X-100. Y0.
N350 Z10.
N360 G83 G98 Z-9.8541 R0.0659 Q6.555 F306.
N370 X-38.977 Y-19.016 Z-7.
N380 X38.977 Y19.016
N390 X100. Y0. Z-9.8541
N400 G80
N410 G30 Z10. M5 M9

(Roughing waterline 1)
N420 T4 G43 H4 M6
(6.35mm Cylindrical mill)
N430 S3060 M3 M8
N440 G0 X100.392 Y1.156
N450 Z10.
N460 Z-0.65
N470 G1 Z-7. F612.
N480 G3 X99.358 Y1.452 Z-7. I-0.873 J-1.101
N490 X99.062 Y1.338 Z-7. I0.073 J-0.631
N500 X100.939 Y-1.335 Z-7. I0.939 J-1.337
N510 X99.062 Y1.338 Z-7. I-0.938 J1.336
N520 G2 X98.473 Y2.165 Z-7. I-0.294 J0.414
N530 G3 X99.4 Y2.58 Z-7. I1.524 J-2.166
N540 G2 X99.041 Y2.595 Z-7. I-0.153 J0.616
N550 G1 X97.883 Y2.993
N560 G3 X98.787 Y3.458 Z-7. I2.114 J-2.994
N570 G2 X98.381 Y3.457 Z-7. I-0.204 J0.602
N580 G1 X97.294 Y3.821
N590 G3 X98.182 Y4.314 Z-7. I2.704 J-3.822
N600 G2 X97.721 Y4.296 Z-7. I-0.253 J0.582
N610 G1 X96.704 Y4.648
N620 G3 X97.582 Y5.159 Z-7. I3.295 J-4.647
N630 G2 X97.094 Y5.132 Z-7. I-0.277 J0.572
N640 G1 X96.115 Y5.476
N650 G3 X96.986 Y5.999 Z-7. I3.885 J-5.475
N660 G2 X96.503 Y5.969 Z-7. I-0.278 J0.571
N670 G1 X95.525 Y6.303
N680 G3 X96.391 Y6.835 Z-7. I4.474 J-6.303
N690 G2 X95.877 Y6.796 Z-7. I-0.301 J0.559
N700 G1 X94.936 Y7.131
N710 G3 X95.797 Y7.67 Z-7. I5.063 J-7.131
N720 G2 X95.287 Y7.629 Z-7. I-0.301 J0.559
N730 G1 X94.347 Y7.958
N740 G3 X95.209 Y8.507 Z-7. I5.663 J-7.949
N750 G2 X94.696 Y8.463 Z-7. I-0.307 J0.556
N760 G1 X93.757 Y8.786
N770 G3 X94.612 Y9.335 Z-7. I6.247 J-8.782
N780 G2 X94.07 Y9.284 Z-7. I-0.324 J0.546
N790 G1 X93.168 Y9.613
N800 G3 X94.02 Y10.165 Z-7. I6.83 J-9.614
N810 G2 X93.48 Y10.114 Z-7. I-0.324 J0.546
N820 G1 X92.578 Y10.441
N830 G3 X93.429 Y10.996 Z-7. I7.42 J-10.442
N840 G2 X92.89 Y10.944 Z-7. I-0.324 J0.546
N850 G1 X91.989 Y11.268
N860 G3 X92.401 Y11.55 Z-7. I8.012 J-11.267
N870 G2 X91.699 Y11.675 Z-7. I-0.284 J0.438
N880 G3 X108.297 Y-11.675 Z-7. I8.299 J-11.675
N890 X91.699 Y11.675 Z-7. I-8.299 J11.675
N900 X91.123 Y10.333 Z-7. I0.815 J-1.144
N910 G0 Z10.
N920 X41.004 Y21.03
N930 Z6.45
N940 G1 Z0.1
N950 G3 X36.668 Y17.332 Z-2.189 I-2.027 J-2.014
N960 X36.668 Y17.332 Z-7. I2.309 J1.684
N970 X36.668 Y17.332 Z-7. I2.309 J1.684
N980 X38.068 Y16.238 Z-7. I2.387 J1.609
N990 X39.904 Y16.173 Z-7. I1.017 J2.786
N1000 X41.979 Y18.359 Z-7. I-0.859 J2.893
N1010 X41.087 Y21.364 Z-7. I-3.04 J0.733
N1020 X37.993 Y22.103 Z-7. I-2.188 J-2.314
N1030 X35.726 Y19.704 Z-7. I0.937 J-3.157
N1040 G1 X38.708 Y19.073
N1050 G3 X39.246 Y18.957 Z-7. I0.269 J-0.058
N1060 X38.708 Y19.073 Z-7. I-0.269 J0.058
N1070 G1 X37.714 Y19.284
N1080 G3 X38.298 Y20.115 Z-7. I1.263 J-0.268
N1090 G2 X38.179 Y20.054 Z-7. I-0.347 J0.532
N1100 G1 X36.72 Y19.494
N1110 G3 X37.141 Y20.418 Z-7. I2.259 J-0.472
N1120 G2 X36.919 Y20.249 Z-7. I-0.486 J0.409
N1130 G1 X35.726 Y19.704
N1140 G3 X35.862 Y20.185 Z-7. I3.258 J-0.666
N1150 G2 X35.236 Y19.808 Z-7. I-0.575 J0.247
N1160 G3 X42.714 Y18.217 Z-7. I3.739 J-0.796
N1170 X35.236 Y19.808 Z-7. I-3.739 J0.795
N1180 X35.943 Y18.28 Z-7. I1.375 J-0.291
N1190 G0 Z10.
N1200 X-38.014 Y-16.326
N1210 Z6.45
N1220 G1 Z0.1
N1230 G3 X-40.335 Y-21.53 Z-2.189 I-0.963 J-2.69
N1240 X-40.335 Y-21.53 Z-7. I1.358 J2.514
N1250 X-40.335 Y-21.53 Z-7. I1.358 J2.514
N1260 X-38.594 Y-21.915 Z-7. I1.461 J2.479
N1270 X-36.905 Y-21.174 Z-7. I-0.289 J2.952
N1280 X-35.987 Y-18.302 Z-7. I-2.032 J2.232
N1290 X-38.098 Y-15.984 Z-7. I-3.057 J-0.663
N1300 X-41.205 Y-16.664 Z-7. I-0.963 J-3.036
N1310 X-42.204 Y-19.811 Z-7. I2.217 J-2.436
N1320 G1 X-39.245 Y-19.082
N1330 G3 X-38.708 Y-18.952 Z-7. I0.269 J0.065
N1340 X-39.245 Y-19.082 Z-7. I-0.268 J-0.065
N1350 G1 X-40.231 Y-19.325
N1360 G3 X-40.067 Y-18.322 Z-7. I1.255 J0.309
N1370 G2 X-40.147 Y-18.429 Z-7. I-0.543 J0.328
N1380 G1 X-41.218 Y-19.568
N1390 G3 X-41.24 Y-18.552 Z-7. I2.241 J0.558
N1400 G2 X-41.367 Y-18.801 Z-7. I-0.615 J0.157
N1410 G1 X-42.204 Y-19.811
N1420 G3 X-42.29 Y-19.318 Z-7. I3.224 J0.818
N1430 G2 X-42.69 Y-19.93 Z-7. I-0.626 J-0.029
N1440 G3 X-35.263 Y-18.111 Z-7. I3.714 J0.909
N1450 X-42.69 Y-19.93 Z-7. I-3.713 J-0.91
N1460 X-41.389 Y-20.998 Z-7. I1.365 J0.336
N1470 G0 Z10.
N1480 X-99.677 Y-1.164
N1490 Z-0.65
N1500 G1 Z-7.
N1510 G3 X-98.654 Y-0.834 Z-7. I0.112 J1.4
N1520 X-98.475 Y-0.584 Z-7. I-0.412 J0.484
N1530 X-101.519 Y0.586 Z-7. I-1.522 J0.585
N1540 X-98.475 Y-0.584 Z-7. I1.522 J-0.585
N1550 G2 X-97.531 Y-0.958 Z-7. I0.472 J-0.187
N1560 G3 X-98.073 Y-1.817 Z-7. I-2.469 J0.959
N1570 G2 X-97.777 Y-1.644 Z-7. I0.456 J-0.441
N1580 G1 X-96.586 Y-1.332
N1590 G3 X-97.083 Y-2.218 Z-7. I-3.414 J1.332
N1600 G2 X-96.728 Y-1.98 Z-7. I0.51 J-0.378
N1610 G1 X-95.641 Y-1.706
N1620 G3 X-96.112 Y-2.606 Z-7. I-4.359 J1.707
N1630 G2 X-95.743 Y-2.346 Z-7. I0.526 J-0.356
N1640 G1 X-94.697 Y-2.08
N1650 G3 X-95.151 Y-2.989 Z-7. I-5.303 J2.081
N1660 G2 X-94.763 Y-2.705 Z-7. I0.541 J-0.332
N1670 G1 X-93.752 Y-2.454
N1680 G3 X-94.193 Y-3.369 Z-7. I-6.251 J2.448
N1690 G2 X-93.785 Y-3.06 Z-7. I0.555 J-0.309
N1700 G1 X-92.807 Y-2.828
N1710 G3 X-93.241 Y-3.747 Z-7. I-7.193 J2.83
N1720 G2 X-92.836 Y-3.438 Z-7. I0.555 J-0.308
N1730 G1 X-91.863 Y-3.202
N1740 G3 X-92.288 Y-4.125 Z-7. I-8.141 J3.195
N1750 G2 X-91.887 Y-3.817 Z-7. I0.555 J-0.308
N1760 G1 X-90.918 Y-3.576
N1770 G3 X-91.338 Y-4.501 Z-7. I-9.087 J3.567
N1780 G2 X-90.913 Y-4.166 Z-7. I0.568 J-0.284
N1790 G1 X-89.974 Y-3.95
N1800 G3 X-90.39 Y-4.877 Z-7. I-10.027 J3.95
N1810 G2 X-89.966 Y-4.542 Z-7. I0.568 J-0.284
N1820 G1 X-89.029 Y-4.324
N1830 G3 X-89.442 Y-5.252 Z-7. I-10.972 J4.325
N1840 G2 X-89.02 Y-4.918 Z-7. I0.568 J-0.284
N1850 G1 X-88.084 Y-4.698
N1860 G3 X-88.494 Y-5.628 Z-7. I-11.919 J4.694
N1870 G2 X-88.073 Y-5.294 Z-7. I0.568 J-0.284
N1880 G1 X-87.14 Y-5.072
N1890 G3 X-87.331 Y-5.534 Z-7. I-12.866 J5.061
N1900 G2 X-86.675 Y-5.256 Z-7. I0.477 J-0.213
N1910 G3 X-113.322 Y5.264 Z-7. I-13.323 J5.26
N1920 X-86.675 Y-5.256 Z-7. I13.324 J-5.26
N1930 X-86.923 Y-3.814 Z-7. I-1.306 J0.517
N1940 G0 Z10.

(Roughing waterline 2)
N1950 X36.118 Y20.378
N1960 Z10.
N1970 Z1.35
N1980 G1 Z-5.
N1990 X35.366 Y20.353
N2000 G3 X34.765 Y19.845 Z-5. I0.022 J-0.635
N2010 X43.179 Y18.183 Z-5. I4.207 J-0.831
N2020 X34.765 Y19.845 Z-5. I-4.207 J0.831
N2030 G1 X33.77 Y20.049
N2040 G3 X34.061 Y21.022 Z-5. I5.208 J-1.028
N2050 G2 X33.725 Y20.67 Z-5. I-0.592 J0.229
N2060 G1 X32.774 Y20.252
N2070 G3 X32.891 Y20.738 Z-5. I6.205 J-1.233
N2080 G2 X32.285 Y20.352 Z-5. I-0.524 J0.154
N2090 G3 X45.672 Y17.679 Z-5. I6.693 J-1.337
N2100 X32.285 Y20.352 Z-5. I-6.694 J1.336
N2110 X32.856 Y18.919 Z-5. I1.376 J-0.281
N2120 G0 Z10.
N2130 X-35.896 Y-18.293
N2140 Z1.35
N2150 G1 Z-5.
N2160 X-35.325 Y-17.819
N2170 G3 X-35.17 Y-17.032 Z-5. I-0.405 J0.489
N2180 X-42.781 Y-20.994 Z-5. I-3.805 J-1.981
N2190 X-35.17 Y-17.032 Z-5. I3.806 J1.981
N2200 G1 X-34.274 Y-16.553
N2210 G3 X-33.891 Y-17.495 Z-5. I-4.704 J-2.463
N2220 G2 X-33.852 Y-17.028 Z-5. I0.608 J0.184
N2230 G1 X-33.377 Y-16.075
N2240 G3 X-33.162 Y-16.527 Z-5. I-5.598 J-2.946
N2250 G2 X-32.936 Y-15.84 Z-5. I0.512 J0.212
N2260 G3 X-45.019 Y-22.189 Z-5. I-6.041 J-3.174
N2270 X-32.936 Y-15.84 Z-5. I6.042 J3.175
N2280 X-34.271 Y-15.099 Z-5. I-1.24 J-0.661
N2290 G0 Z10.

(Roughing waterline 3)
N2300 X86.875 Y3.798
N2310 Z10.
N2320 Z1.5
N2330 G1 Z-4.85
N2340 X86.341 Y4.364
N2350 G3 X85.265 Y4.091 Z-4.85 I-0.462 J-0.436
N2360 X114.726 Y-4.089 Z-4.85 I14.73 J-4.09
N2370 X85.265 Y4.091 Z-4.85 I-14.731 J4.09
N2380 G2 X84.283 Y4.352 Z-4.85 I-0.491 J0.13
N2390 G3 X84.585 Y5.322 Z-4.85 I15.713 J-4.367
N2400 G2 X84.198 Y4.931 Z-4.85 I-0.6 J0.207
N2410 G1 X83.301 Y4.612
N2420 G3 X83.441 Y5.092 Z-4.85 I16.699 J-4.612
N2430 G2 X82.818 Y4.74 Z-4.85 I-0.501 J0.16
N2440 G3 X117.172 Y-4.738 Z-4.85 I17.177 J-4.739
N2450 X82.818 Y4.74 Z-4.85 I-17.177 J4.739
N2460 X83.213 Y3.357 Z-4.85 I1.358 J-0.36
N2470 G0 Z10.
N2480 X-86.336 Y0.261
N2490 Z1.5
N2500 G1 Z-4.85
N2510 X-85.649 Y-0.108
N2520 G3 X-84.714 Y0.464 Z-4.85 I0.3 J0.56
N2530 X-115.284 Y-0.463 Z-4.85 I-15.285 J-0.463
N2540 X-84.714 Y0.464 Z-4.85 I15.285 J0.464
N2550 G1 X-83.698 Y0.484
N2560 G3 X-83.701 Y-0.532 Z-4.85 I-16.302 J-0.472
N2570 G2 X-83.435 Y-0.034 Z-4.85 I0.635 J-0.018
N2580 G1 X-82.683 Y0.504
N2590 G3 X-82.676 Y0.004 Z-4.85 I-17.318 J-0.485
N2600 G2 X-82.183 Y0.514 Z-4.85 I0.513 J-0.002
N2610 G3 X-117.822 Y-0.517 Z-4.85 I-17.819 J-0.515
N2620 X-82.183 Y0.514 Z-4.85 I17.82 J0.516
N2630 X-82.969 Y1.748 Z-4.85 I-1.405 J-0.027
N2640 G0 Z10.

(Roughing waterline 4)
N2650 X138.448 Y35.159
N2660 Z10.
N2670 Z-0.65
N2680 G1 Z-7.
N2690 G3 X138.794 Y34.146 Z-7. I1.403 J-0.087
N2700 G1 X139.404 Y33.443
N2710 G3 X139.61 Y33.281 Z-7. I0.488 J0.407
N2720 G2 X139.788 Y33.151 Z-7. I-0.281 J-0.57
N2730 G1 X140.967 Y31.919
N2740 G2 X140.011 Y31.086 Z-7. I-0.458 J-0.439
N2750 G1 X139.89 Y31.238
N2760 G3 X136.734 Y34.896 Z-7. I-38.958 J-30.42
N2770 X136.648 Y34.955 Z-7. I-0.181 J-0.175
N2780 G1 X135.481 Y35.43
N2790 G3 X135.203 Y35.015 Z-7. I-0.096 J-0.236
N2800 G1 X135.321 Y34.896
N2810 G2 X139.891 Y29.562 Z-7. I-35.209 J-34.792
N2820 G3 X139.948 Y29.496 Z-7. I0.507 J0.383
N2830 G1 X140.981 Y28.463
N2840 G2 X140.011 Y27.651 Z-7. I-0.449 J-0.449
N2850 G1 X139.891 Y27.823
N2860 G3 X133.876 Y34.896 Z-7. I-39.771 J-27.729
N2870 X133.792 Y34.951 Z-7. I-0.178 J-0.18
N2880 G1 X132.545 Y35.448
N2890 G3 X132.27 Y35.017 Z-7. I-0.097 J-0.241
N2900 G1 X132.399 Y34.896
N2910 G2 X139.891 Y26.003 Z-7. I-32.115 J-34.655
N2920 G3 X139.939 Y25.937 Z-7. I0.534 J0.344
N2930 G1 X141.037 Y24.638
N2940 G2 X140.01 Y23.897 Z-7. I-0.485 J-0.41
N2950 G1 X139.891 Y24.091
N2960 G3 X130.886 Y34.896 Z-7. I-39.701 J-23.932
N2970 G2 X130.807 Y34.981 Z-7. I0.423 J0.474
N2980 G1 X130.104 Y35.888
N2990 G3 X129.191 Y35.015 Z-7. I-0.502 J-0.389
N3000 G1 X129.331 Y34.896
N3010 G2 X139.891 Y22.062 Z-7. I-29.21 J-34.796
N3020 G1 X139.932 Y21.988
N3030 G3 X139.966 Y21.932 Z-7. I0.557 J0.304
N3040 G1 X141.104 Y20.282
N3050 G2 X140.012 Y19.639 Z-7. I-0.523 J-0.361
N3060 G1 X139.891 Y19.882
N3070 G3 X127.728 Y34.896 Z-7. I-39.873 J-19.869
N3080 G2 X127.659 Y34.961 Z-7. I0.399 J0.494
N3090 G1 X126.745 Y35.957
N3100 G3 X125.9 Y35.017 Z-7. I-0.468 J-0.429
N3110 G1 X126.064 Y34.896
N3120 G2 X139.892 Y17.485 Z-7. I-26.063 J-34.894
N3130 G1 X139.986 Y17.267
N3140 G3 X140.009 Y17.221 Z-7. I0.582 J0.254
N3150 G1 X141.047 Y15.285
N3160 G2 X140.013 Y14.563 Z-7. I-0.559 J-0.301
N3170 X139.892 Y14.765 Z-7. I0.475 J0.421
N3180 G3 X124.325 Y34.896 Z-7. I-39.829 J-14.715
N3190 G2 X124.257 Y34.95 Z-7. I0.362 J0.522
N3200 G1 X123.103 Y36.012
N3210 G3 X122.324 Y35.015 Z-7. I-0.43 J-0.467
N3220 G1 X122.504 Y34.896
N3230 G2 X139.892 Y11.514 Z-7. I-22.476 J-34.871
N3240 G3 X140.009 Y11.29 Z-7. I0.611 J0.175
N3250 G2 X140.128 Y11.055 Z-7. I-0.494 J-0.399
N3260 G1 X141.131 Y7.297
N3270 G2 X140.013 Y6.748 Z-7. I-0.614 J-0.163
N3280 X139.893 Y7.019 Z-7. I0.504 J0.386
N3290 G3 X120.566 Y34.896 Z-7. I-39.866 J-7.
N3300 G1 X119.396 Y35.586
N3310 G0 Z10.
N3320 X140.387 Y-32.93
N3330 Z-0.65
N3340 G1 Z-7.
N3350 G3 X139.408 Y-33.434 Z-7. I0.112 J-1.422
N3360 G1 X138.799 Y-34.138
N3370 G3 X138.67 Y-34.364 Z-7. I0.476 J-0.421
N3380 G2 X138.569 Y-34.556 Z-7. I-0.604 J0.194
N3390 G1 X137.588 Y-35.835
N3400 G2 X136.623 Y-35.011 Z-7. I-0.503 J0.387
N3410 G1 X136.737 Y-34.892
N3420 G3 X139.896 Y-31.23 Z-7. I-36.935 J35.063
N3430 G2 X139.963 Y-31.158 Z-7. I0.499 J-0.393
N3440 G1 X140.958 Y-30.235
N3450 G3 X140.016 Y-29.392 Z-7. I-0.432 J0.466
N3460 G1 X139.896 Y-29.554
N3470 G2 X135.32 Y-34.892 Z-7. I-39.64 J29.35
N3480 X135.235 Y-34.949 Z-7. I-0.18 J0.177
N3490 G1 X134.033 Y-35.437
N3500 G2 X133.754 Y-35.011 Z-7. I-0.098 J0.24
N3510 G1 X133.876 Y-34.892
N3520 G3 X139.896 Y-27.811 Z-7. I-33.45 J34.539
N3530 G2 X139.952 Y-27.741 Z-7. I0.523 J-0.36
N3540 G1 X141.013 Y-26.587
N3550 G3 X140.013 Y-25.811 Z-7. I-0.467 J0.43
N3560 G1 X139.896 Y-25.992
N3570 G2 X132.4 Y-34.892 Z-7. I-39.526 J25.682
N3580 G3 X132.318 Y-34.985 Z-7. I0.433 J-0.465
N3590 G1 X131.688 Y-35.858
N3600 G2 X130.752 Y-35.012 Z-7. I-0.515 J0.371
N3610 G1 X130.888 Y-34.892
N3620 G3 X139.895 Y-24.084 Z-7. I-30.741 J34.78
N3630 G1 X139.904 Y-24.071
N3640 G2 X139.939 Y-24.019 Z-7. I0.541 J-0.332
N3650 G1 X141.077 Y-22.523
N3660 G3 X140.016 Y-21.832 Z-7. I-0.505 J0.385
N3670 G1 X139.895 Y-22.051
N3680 G2 X129.332 Y-34.892 Z-7. I-39.727 J21.914
N3690 G3 X129.255 Y-34.969 Z-7. I0.41 J-0.485
N3700 G1 X128.462 Y-35.915
N3710 G2 X127.578 Y-35.012 Z-7. I-0.487 J0.408
N3720 G1 X127.728 Y-34.892
N3730 G3 X139.895 Y-19.869 Z-7. I-27.645 J34.829
N3740 G1 X139.965 Y-19.726
N3750 G2 X139.999 Y-19.665 Z-7. I0.57 J-0.279
N3760 G1 X141.015 Y-18.062
N3770 G3 X140.013 Y-17.29 Z-7. I-0.537 J0.34
N3780 X139.895 Y-17.471 Z-7. I0.465 J-0.432
N3790 G2 X126.066 Y-34.892 Z-7. I-39.863 J17.444
N3800 G3 X126.002 Y-34.947 Z-7. I0.385 J-0.505
N3810 G1 X124.965 Y-35.982
N3820 G2 X124.157 Y-35.01 Z-7. I-0.448 J0.449
N3830 G1 X124.328 Y-34.892
N3840 G3 X139.895 Y-14.755 Z-7. I-24.277 J34.853
N3850 G2 X139.997 Y-14.576 Z-7. I0.595 J-0.222
N3860 G3 X140.094 Y-14.411 Z-7. I-0.492 J0.401
N3870 G1 X141.093 Y-11.918
N3880 G3 X140.012 Y-11.28 Z-7. I-0.589 J0.236
N3890 X139.894 Y-11.504 Z-7. I0.492 J-0.402
N3900 G2 X122.504 Y-34.892 Z-7. I-39.854 J11.475
N3910 G3 X122.448 Y-34.933 Z-7. I0.347 J-0.532
N3920 G1 X121.092 Y-36.048
N3930 G2 X120.368 Y-35.009 Z-7. I-0.403 J0.491
N3940 G1 X120.569 Y-34.892
N3950 G3 X139.894 Y-7.018 Z-7. I-20.552 J34.885
N3960 G2 X140.586 Y-6.036 Z-7. I1.404 J-0.254
N3970 X141.496 Y-6.811 Z-6.9 I0.317 J-0.55
N3980 G1 X138.192 Y-15.496 F1836.
N3990 G2 X121.65 Y-35.063 Z-6.9 I-38.14 J15.467
N4000 G1 X121.411 Y-35.189
N4010 X118.685 Y-36.417
N4020 G2 X117.843 Y-35.581 Z-7. I-0.261 J0.579 F612.
N4030 X118.489 Y-34.892 Z-7. I1.305 J-0.576
N4040 G3 X118.485 Y34.896 Z-7. I-18.483 J34.893
N4050 G1 X118.387 Y34.948
N4060 G2 X118.338 Y34.976 Z-7. I0.295 J0.562
N4070 G1 X116.562 Y36.122
N4080 G3 X115.95 Y35.013 Z-7. I-0.344 J-0.533
N4090 G1 X116.201 Y34.896
N4100 G2 X116.204 Y-34.892 Z-7. I-16.195 J-34.895
N4110 G1 X116.022 Y-34.976
N4120 G3 X115.972 Y-35.002 Z-7. I0.266 J-0.577
N4130 G1 X114.175 Y-36.032
N4140 G2 X113.432 Y-35.011 Z-7. I-0.316 J0.551
N4150 X113.622 Y-34.892 Z-7. I0.427 J-0.47
N4160 G3 X113.619 Y34.896 Z-7. I-13.62 J34.893
N4170 G2 X113.447 Y34.994 Z-7. I0.225 J0.594
N4180 G3 X113.299 Y35.083 Z-7. I-0.397 J-0.496
N4190 G1 X110.931 Y36.089
N4200 G3 X110.278 Y35.014 Z-7. I-0.249 J-0.585
N4210 X110.501 Y34.896 Z-7. I0.404 J0.49
N4220 G2 X110.508 Y-34.892 Z-7. I-10.497 J-34.895
N4230 G3 X110.288 Y-35.007 Z-7. I0.178 J-0.61
N4240 G2 X110.057 Y-35.125 Z-7. I-0.399 J0.494
N4250 G1 X106.393 Y-36.131
N4260 G2 X105.843 Y-35.011 Z-7. I-0.168 J0.612
N4270 X106.123 Y-34.892 Z-7. I0.382 J-0.508
N4280 G3 X106.109 Y34.896 Z-7. I-6.121 J34.893
N4290 G2 X105.831 Y35.015 Z-7. I0.105 J0.626
N4300 G3 X105.623 Y35.119 Z-7. I-0.382 J-0.507
N4310 G1 X102.108 Y36.12
N4320 G3 X101.514 Y35.034 Z-7. I-0.174 J-0.61
N4330 X101.906 Y34.875 Z-7. I0.42 J0.476
N4340 G2 X101.905 Y-34.872 Z-7. I-1.905 J-34.873
N4350 G3 X100.753 Y-35.618 Z-7. I0.09 J-1.403
N4360 G0 Z10.
N4370 X-138.449 Y-35.158
N4380 Z-0.65
N4390 G1 Z-7.
N4400 G3 X-138.796 Y-34.143 Z-7. I-1.402 J0.087
N4410 G1 X-139.416 Y-33.426
N4420 G3 X-139.617 Y-33.268 Z-7. I-0.486 J-0.409
N4430 G2 X-139.79 Y-33.14 Z-7. I0.284 J0.568
N4440 G1 X-140.971 Y-31.911
N4450 G2 X-140.011 Y-31.083 Z-7. I0.458 J0.44
N4460 G1 X-139.89 Y-31.238
N4470 G3 X-136.732 Y-34.896 Z-7. I39.105 J30.572
N4480 X-136.647 Y-34.954 Z-7. I0.18 J0.173
N4490 G1 X-135.476 Y-35.433
N4500 G3 X-135.199 Y-35.016 Z-7. I0.097 J0.236
N4510 G1 X-135.319 Y-34.896
N4520 G2 X-139.891 Y-29.56 Z-7. I34.841 J34.474
N4530 G3 X-139.953 Y-29.486 Z-7. I-0.511 J-0.376
N4540 G1 X-140.979 Y-28.462
N4550 G2 X-140.011 Y-27.648 Z-7. I0.449 J0.449
N4560 G1 X-139.891 Y-27.819
N4570 G3 X-133.876 Y-34.896 Z-7. I39.675 J27.624
N4580 G2 X-133.789 Y-35. Z-7. I-0.44 J-0.458
N4590 G1 X-133.225 Y-35.839
N4600 G3 X-132.269 Y-35.017 Z-7. I0.527 J0.354
N4610 G1 X-132.4 Y-34.896
N4620 G2 X-139.891 Y-26.005 Z-7. I32.379 J34.878
N4630 G3 X-139.939 Y-25.94 Z-7. I-0.533 J-0.344
N4640 G1 X-141.038 Y-24.634
N4650 G2 X-140.01 Y-23.895 Z-7. I0.486 J0.409
N4660 G1 X-139.891 Y-24.09
N4670 G3 X-130.887 Y-34.896 Z-7. I39.761 J23.977
N4680 G2 X-130.804 Y-34.984 Z-7. I-0.417 J-0.478
N4690 G1 X-130.096 Y-35.893
N4700 G3 X-129.188 Y-35.015 Z-7. I0.501 J0.391
N4710 G1 X-129.33 Y-34.896
N4720 G2 X-139.891 Y-22.06 Z-7. I29.206 J34.792
N4730 G1 X-139.932 Y-21.987
N4740 G3 X-139.964 Y-21.933 Z-7. I-0.556 J-0.306
N4750 G1 X-141.105 Y-20.272
N4760 G2 X-140.012 Y-19.632 Z-7. I0.524 J0.359
N4770 G1 X-139.891 Y-19.876
N4780 G3 X-127.725 Y-34.896 Z-7. I39.804 J19.805
N4790 G2 X-127.651 Y-34.965 Z-7. I-0.396 J-0.496
N4800 G1 X-126.753 Y-35.952
N4810 G3 X-125.902 Y-35.017 Z-7. I0.47 J0.427
N4820 G1 X-126.063 Y-34.896
N4830 G2 X-139.892 Y-17.478 Z-7. I26.035 J34.868
N4840 G1 X-139.986 Y-17.264
N4850 X-139.996 Y-17.242
N4860 X-140.008 Y-17.22
N4870 X-141.048 Y-15.284
N4880 G2 X-140.013 Y-14.563 Z-7. I0.559 J0.301
N4890 X-139.892 Y-14.766 Z-7. I-0.476 J-0.42
N4900 G3 X-124.324 Y-34.896 Z-7. I39.848 J14.732
N4910 G2 X-124.259 Y-34.948 Z-7. I-0.363 J-0.521
N4920 G1 X-123.082 Y-36.021
N4930 G3 X-122.315 Y-35.015 Z-7. I0.427 J0.47
N4940 G1 X-122.503 Y-34.896
N4950 G2 X-139.892 Y-11.514 Z-7. I22.482 J34.877
N4960 G3 X-140.008 Y-11.292 Z-7. I-0.61 J-0.177
N4970 G2 X-140.129 Y-11.055 Z-7. I0.493 J0.4
N4980 G1 X-141.132 Y-7.286
N4990 G2 X-140.012 Y-6.739 Z-7. I0.614 J0.163
N5000 X-139.893 Y-7.013 Z-7. I-0.506 J-0.384
N5010 G3 X-120.569 Y-34.896 Z-7. I39.881 J7.001
N5020 G1 X-119.417 Y-35.585
N5030 G0 Z10.
N5040 X-140.379 Y32.955
N5050 Z-0.65
N5060 G1 Z-7.
N5070 G3 X-139.394 Y33.454 Z-7. I-0.103 J1.422
N5080 G1 X-138.803 Y34.135
N5090 G3 X-138.676 Y34.36 Z-7. I-0.478 J0.417
N5100 G2 X-138.574 Y34.555 Z-7. I0.605 J-0.193
N5110 G1 X-137.586 Y35.837
N5120 G2 X-136.624 Y35.011 Z-7. I0.503 J-0.387
N5130 G1 X-136.738 Y34.892
N5140 G3 X-139.896 Y31.227 Z-7. I35.372 J-33.673
N5150 G2 X-139.965 Y31.152 Z-7. I-0.5 J0.391
N5160 G1 X-140.958 Y30.232
N5170 G3 X-140.015 Y29.389 Z-7. I0.432 J-0.466
N5180 G1 X-139.896 Y29.55
N5190 G2 X-135.321 Y34.892 Z-7. I38.922 J-28.704
N5200 X-135.236 Y34.949 Z-7. I0.18 J-0.176
N5210 G1 X-134.033 Y35.438
N5220 G2 X-133.754 Y35.011 Z-7. I0.098 J-0.241
N5230 G1 X-133.876 Y34.892
N5240 G3 X-139.896 Y27.81 Z-7. I33.16 J-34.285
N5250 G2 X-139.95 Y27.742 Z-7. I-0.52 J0.363
N5260 G1 X-141.01 Y26.595
N5270 G3 X-140.013 Y25.815 Z-7. I0.467 J-0.43
N5280 G1 X-139.896 Y25.994
N5290 G2 X-132.401 Y34.892 Z-7. I39.51 J-25.672
N5300 G3 X-132.317 Y34.987 Z-7. I-0.431 J0.466
N5310 G1 X-131.685 Y35.862
N5320 G2 X-130.753 Y35.012 Z-7. I0.515 J-0.372
N5330 G1 X-130.89 Y34.892
N5340 G3 X-139.895 Y24.087 Z-7. I30.787 J-34.817
N5350 G1 X-139.904 Y24.073
N5360 G2 X-139.941 Y24.019 Z-7. I-0.542 J0.33
N5370 G1 X-141.078 Y22.521
N5380 G3 X-140.016 Y21.832 Z-7. I0.505 J-0.384
N5390 G1 X-139.895 Y22.052
N5400 G2 X-129.335 Y34.892 Z-7. I39.746 J-21.927
N5410 G3 X-129.255 Y34.972 Z-7. I-0.405 J0.489
N5420 G1 X-128.453 Y35.922
N5430 G2 X-127.576 Y35.012 Z-7. I0.485 J-0.41
N5440 G1 X-127.73 Y34.892
N5450 G3 X-139.895 Y19.874 Z-7. I27.685 J-34.862
N5460 G1 X-139.964 Y19.738
N5470 G2 X-139.994 Y19.684 Z-7. I-0.567 J0.285
N5480 G1 X-141.012 Y18.07
N5490 G3 X-140.013 Y17.296 Z-7. I0.537 J-0.338
N5500 X-139.895 Y17.472 Z-7. I-0.462 J0.436
N5510 G2 X-126.064 Y34.892 Z-7. I39.817 J-17.413
N5520 G3 X-125.992 Y34.954 Z-7. I-0.378 J0.51
N5530 G1 X-124.972 Y35.978
N5540 G2 X-124.159 Y35.01 Z-7. I0.45 J-0.448
N5550 G1 X-124.327 Y34.892
N5560 G3 X-139.895 Y14.764 Z-7. I24.283 J-34.865
N5570 G2 X-139.997 Y14.587 Z-7. I-0.594 J0.225
N5580 G3 X-140.095 Y14.421 Z-7. I0.492 J-0.402
N5590 G1 X-141.093 Y11.921
N5600 G3 X-140.013 Y11.282 Z-7. I0.589 J-0.236
N5610 X-139.894 Y11.506 Z-7. I-0.491 J0.403
N5620 G2 X-122.508 Y34.892 Z-7. I39.86 J-11.479
N5630 G3 X-122.454 Y34.931 Z-7. I-0.349 J0.53
N5640 G1 X-121.091 Y36.049
N5650 G2 X-120.368 Y35.009 Z-7. I0.402 J-0.491
N5660 G1 X-120.569 Y34.892
N5670 G3 X-139.894 Y7.006 Z-7. I20.53 J-34.866
N5680 G2 X-140.586 Y6.021 Z-7. I-1.404 J0.251
N5690 X-141.497 Y6.796 Z-6.9 I-0.317 J0.551
N5700 G1 X-138.196 Y15.488 F1836.
N5710 G2 X-121.65 Y35.064 Z-6.9 I38.122 J-15.44
N5720 G1 X-121.412 Y35.19
N5730 X-118.691 Y36.416
N5740 G2 X-117.849 Y35.581 Z-7. I0.261 J-0.579 F612.
N5750 X-118.494 Y34.892 Z-7. I-1.306 J0.575
N5760 G3 X-118.488 Y-34.896 Z-7. I18.494 J-34.892
N5770 G1 X-118.39 Y-34.948
N5780 G2 X-118.341 Y-34.976 Z-7. I-0.295 J-0.562
N5790 G1 X-116.555 Y-36.124
N5800 G3 X-115.945 Y-35.014 Z-7. I0.343 J0.534
N5810 G1 X-116.201 Y-34.896
N5820 G2 X-116.212 Y34.892 Z-7. I16.198 J34.897
N5830 G1 X-116.038 Y34.974
N5840 X-116.017 Y34.984
N5850 X-115.997 Y34.996
N5860 X-114.16 Y36.037
N5870 G2 X-113.425 Y35.01 Z-7. I0.313 J-0.552
N5880 X-113.619 Y34.892 Z-7. I-0.422 J0.475
N5890 G3 X-113.614 Y-34.896 Z-7. I13.614 J-34.893
N5900 G2 X-113.444 Y-34.994 Z-7. I-0.228 J-0.592
N5910 G3 X-113.296 Y-35.083 Z-7. I0.397 J0.495
N5920 G1 X-110.943 Y-36.086
N5930 G3 X-110.286 Y-35.015 Z-7. I0.249 J0.584
N5940 X-110.505 Y-34.896 Z-7. I-0.408 J-0.487
N5950 G2 X-110.508 Y34.892 Z-7. I10.502 J34.895
N5960 G3 X-110.288 Y35.007 Z-7. I-0.179 J0.609
N5970 G2 X-110.058 Y35.125 Z-7. I0.398 J-0.495
N5980 G1 X-106.391 Y36.13
N5990 G2 X-105.84 Y35.01 Z-7. I0.168 J-0.613
N6000 X-106.111 Y34.892 Z-7. I-0.383 J0.507
N6010 G3 X-106.104 Y-34.896 Z-7. I6.106 J-34.893
N6020 G2 X-105.828 Y-35.015 Z-7. I-0.107 J-0.625
N6030 G3 X-105.619 Y-35.119 Z-7. I0.383 J0.507
N6040 G1 X-102.09 Y-36.12
N6050 G3 X-101.494 Y-35.036 Z-7. I0.174 J0.61
N6060 X-101.878 Y-34.876 Z-7. I-0.422 J-0.474
N6070 G2 X-101.936 Y34.872 Z-7. I1.877 J34.876
N6080 G3 X-100.753 Y35.618 Z-7. I-0.059 J1.404
N6090 G0 Z10.
N6100 G30 Z10. M5 M9
N6110 M30
%
